;FLAVOR:Marlin
;TIME:24797
;Filament used: 48.7039m
;Layer height: 0.32
;MINX:44.223
;MINY:47.223
;MINZ:0.32
;MAXX:180.677
;MAXY:172.777
;MAXZ:50.12
;TARGET_MACHINE.NAME:Creality Ender-3 Pro
;Generated with Cura_SteamEngine 5.5.0
M82 ;absolute extrusion mode
; Ender 3 Custom Start G-code
G92 E0 ; Reset Extruder
G28 ; Home all axes
G1 Z5.0 F3000 ; Move Z Axis up a bit during heating to not damage bed
M104 S120 ; Start heating up the nozzle most of the way
M190 S70 ; Start heating the bed, wait until target temperature reached
M109 S235.0 ; Finish heating the nozzle
G1 Z2.0 F3000 ; Move Z Axis up little to prevent scratching of Heat Bed
G1 X0.1 Y20 Z0.3 F5000.0 ; Move to start position
G1 X0.1 Y200.0 Z0.3 F1500.0 E15 ; Draw the first line
G1 X0.4 Y200.0 Z0.3 F5000.0 ; Move to side a little
G1 X0.4 Y20 Z0.3 F1500.0 E30 ; Draw the second line
G92 E0 ; Reset Extruder
G1 Z2.0 F3000 ; Move Z Axis up little to prevent scratching of Heat Bed
G1 X5 Y20 Z0.3 F5000.0 ; Move over to prevent blob squish
G92 E0
G92 E0
G1 F1500 E-6.5
;LAYER_COUNT:156
;LAYER:0
M107
G1 F300 Z0.52
G0 F6000 X51.707 Y64.69 Z0.52
;TYPE:SKIRT
G1 F300 Z0.32
G1 F1500 E0
G1 F900 X52.458 Y64.146 E0.0987
G1 X53.995 Y63.086 E0.29742
G1 X54.487 Y62.795 E0.35825
G1 X55.395 Y62.348 E0.46597
G1 X56.456 Y61.854 E0.59053
G1 X57.209 Y61.521 E0.67817
G1 X57.722 Y61.335 E0.73624
G1 X58.725 Y61.047 E0.84731
G1 X60.239 Y60.641 E1.01414
G1 X62.91 Y59.885 E1.30959
G1 X65.422 Y59.098 E1.58976
G1 X67.978 Y58.214 E1.87761
G1 X70.518 Y57.255 E2.16658
G1 X72.966 Y56.252 E2.44815
G1 X75.44 Y55.154 E2.73623
G1 X77.832 Y54.013 E3.0183
G1 X80.262 Y52.765 E3.30904
G1 X82.256 Y51.677 E3.5508
G1 X83.56 Y50.953 E3.70955
G1 X84.475 Y50.51 E3.81775
G1 X86.179 Y49.732 E4.01712
G1 X86.725 Y49.533 E4.07897
G1 X87.755 Y49.239 E4.19297
G1 X89.405 Y48.806 E4.37453
G1 X90.157 Y48.669 E4.45589
G1 X90.998 Y48.583 E4.54586
G1 X92.977 Y48.423 E4.75718
G1 X93.618 Y48.423 E4.8254
G1 X94.534 Y48.487 E4.92313
G1 X96.343 Y48.656 E5.11651
G1 X97.035 Y48.772 E5.19119
G1 X99.943 Y49.497 E5.51017
G1 X102.637 Y50.1 E5.80399
G1 X105.226 Y50.604 E6.08472
G1 X107.88 Y51.041 E6.37099
G1 X110.555 Y51.404 E6.65831
G1 X113.229 Y51.691 E6.94454
G1 X115.896 Y51.902 E7.22929
G1 X118.584 Y52.037 E7.51574
G1 X121.273 Y52.098 E7.80201
G1 X123.934 Y52.08 E8.08523
G1 X126.676 Y51.988 E8.37723
G1 X129.284 Y51.823 E8.65536
G1 X132.015 Y51.574 E8.94724
G1 X134.678 Y51.255 E9.23269
G1 X137.313 Y50.863 E9.51623
G1 X139.98 Y50.389 E9.80453
G1 X142.574 Y49.852 E10.08647
G1 X145.2 Y49.231 E10.37367
G1 X148.181 Y48.431 E10.70217
G1 X149.539 Y48.043 E10.85249
G1 X151.205 Y47.606 E11.03581
G1 X151.957 Y47.469 E11.11716
G1 X152.798 Y47.383 E11.20714
G1 X154.777 Y47.223 E11.41845
G1 X155.418 Y47.223 E11.48668
G1 X156.335 Y47.288 E11.58452
G1 X158.265 Y47.472 E11.79087
G1 X158.774 Y47.559 E11.84583
G1 X159.84 Y47.823 E11.96271
G1 X161.648 Y48.322 E12.16234
G1 X162.253 Y48.545 E12.23096
G1 X163.087 Y48.921 E12.32833
G1 X164.818 Y49.744 E12.53233
G1 X165.374 Y50.066 E12.60071
G1 X166.157 Y50.597 E12.7014
G1 X167.656 Y51.66 E12.89699
G1 X168.153 Y52.071 E12.96563
G1 X168.8 Y52.697 E13.06145
G1 X170.2 Y54.117 E13.27369
G1 X170.61 Y54.607 E13.34169
G1 X171.154 Y55.358 E13.44038
G1 X172.214 Y56.895 E13.6391
G1 X172.505 Y57.387 E13.69994
G1 X172.952 Y58.295 E13.80766
G1 X173.446 Y59.355 E13.93212
G1 X173.781 Y60.111 E14.02013
G1 X173.965 Y60.622 E14.07794
G1 X174.26 Y61.651 E14.19187
G1 X174.707 Y63.365 E14.3804
G1 X174.831 Y64.057 E14.45522
G1 X174.917 Y64.899 E14.5453
G1 X175.084 Y66.949 E14.76421
G1 X175.119 Y67.704 E14.84465
G1 X175.158 Y69.025 E14.98531
G1 X175.319 Y71.764 E15.27734
G1 X175.55 Y74.403 E15.55928
G1 X175.857 Y77.058 E15.84375
G1 X176.247 Y79.761 E16.13441
G1 X176.698 Y82.363 E16.41548
G1 X177.233 Y85.011 E16.70301
G1 X177.841 Y87.621 E16.98823
G1 X178.517 Y90.197 E17.27168
G1 X179.466 Y93.384 E17.6256
G1 X179.857 Y94.755 E17.77734
G1 X180.29 Y96.405 E17.9589
G1 X180.427 Y97.157 E18.04026
G1 X180.513 Y97.998 E18.13023
G1 X180.673 Y99.978 E18.34165
G1 X180.672 Y100.621 E18.41009
G1 X180.602 Y101.601 E18.51466
G1 X180.46 Y103.216 E18.68721
G1 X180.257 Y105.959 E18.97995
G1 X180.135 Y108.654 E19.26708
G1 X180.089 Y111.314 E19.55024
G1 X180.121 Y114.046 E19.84103
G1 X180.223 Y116.654 E20.11882
G1 X180.456 Y119.936 E20.46901
G1 X180.624 Y121.844 E20.67287
G1 X180.674 Y122.553 E20.74851
G1 X180.677 Y123.097 E20.80641
G1 X180.613 Y124.077 E20.91094
G1 X180.432 Y126 E21.11651
G1 X180.311 Y126.695 E21.1916
G1 X180.087 Y127.587 E21.28948
G1 X179.787 Y128.707 E21.41289
G1 X179.214 Y130.733 E21.63698
G1 X178.513 Y133.351 E21.92544
G1 X177.891 Y135.967 E22.21163
G1 X177.354 Y138.567 E22.49419
G1 X176.878 Y141.233 E22.78243
G1 X176.475 Y143.923 E23.07193
G1 X176.166 Y146.489 E23.347
G1 X175.86 Y149.947 E23.71649
G1 X175.707 Y152.084 E23.94451
G1 X175.528 Y153.964 E24.14551
G1 X175.441 Y154.474 E24.20058
G1 X175.196 Y155.468 E24.30954
G1 X174.716 Y157.224 E24.50329
G1 X174.456 Y157.948 E24.58516
G1 X174.092 Y158.761 E24.67997
G1 X173.589 Y159.839 E24.80658
G1 X173.241 Y160.551 E24.89093
G1 X172.966 Y161.024 E24.94916
G1 X172.403 Y161.857 E25.05617
G1 X171.34 Y163.356 E25.25175
G1 X170.929 Y163.853 E25.32039
G1 X170.303 Y164.5 E25.41621
G1 X168.883 Y165.9 E25.62845
G1 X168.393 Y166.31 E25.69645
G1 X167.642 Y166.854 E25.79515
G1 X166.105 Y167.914 E25.99386
G1 X165.613 Y168.205 E26.0547
G1 X164.705 Y168.652 E26.16242
G1 X163.649 Y169.145 E26.28646
G1 X162.94 Y169.461 E26.36907
G1 X162.319 Y169.685 E26.43934
G1 X161.345 Y169.961 E26.54708
G1 X159.695 Y170.394 E26.72864
G1 X158.943 Y170.531 E26.81
G1 X158.102 Y170.617 E26.89997
G1 X156.123 Y170.777 E27.11129
G1 X155.482 Y170.777 E27.17951
G1 X154.565 Y170.712 E27.27736
G1 X152.646 Y170.53 E27.48252
G1 X152.175 Y170.453 E27.53331
G1 X148.951 Y169.689 E27.88595
G1 X146.304 Y169.145 E28.17357
G1 X143.672 Y168.68 E28.45804
G1 X140.994 Y168.284 E28.74616
G1 X138.374 Y167.974 E29.02696
G1 X135.645 Y167.728 E29.31859
G1 X133.031 Y167.566 E29.59734
G1 X130.293 Y167.475 E29.88891
G1 X127.63 Y167.46 E30.17235
G1 X124.914 Y167.523 E30.4615
G1 X122.241 Y167.661 E30.74637
G1 X119.58 Y167.873 E31.03048
G1 X116.95 Y168.159 E31.31205
G1 X114.198 Y168.536 E31.60769
G1 X111.615 Y168.964 E31.88635
G1 X108.952 Y169.486 E32.17517
G1 X106.317 Y170.077 E32.46259
G1 X103.772 Y170.723 E32.74205
G1 X99.445 Y171.961 E33.22106
G1 X97.795 Y172.394 E33.40262
G1 X97.043 Y172.531 E33.48398
G1 X96.202 Y172.617 E33.57395
G1 X94.223 Y172.777 E33.78527
G1 X93.582 Y172.777 E33.85349
G1 X92.665 Y172.712 E33.95134
G1 X90.735 Y172.528 E34.15768
G1 X90.226 Y172.441 E34.21264
G1 X89.16 Y172.177 E34.32953
G1 X87.355 Y171.679 E34.52882
G1 X86.806 Y171.479 E34.591
G1 X85.939 Y171.092 E34.69206
G1 X84.858 Y170.589 E34.81896
G1 X84.191 Y170.265 E34.89788
G1 X80.996 Y168.543 E35.28418
G1 X78.609 Y167.347 E35.56834
G1 X76.175 Y166.214 E35.85408
G1 X73.681 Y165.135 E36.1433
G1 X71.197 Y164.145 E36.42791
G1 X68.708 Y163.234 E36.71
G1 X66.109 Y162.364 E37.00171
G1 X63.596 Y161.602 E37.2812
G1 X59.113 Y160.396 E37.7753
G1 X58.32 Y160.168 E37.86312
G1 X57.804 Y159.978 E37.92164
G1 X56.939 Y159.592 E38.02246
G1 X55.861 Y159.089 E38.14907
G1 X55.149 Y158.741 E38.23341
G1 X54.676 Y158.466 E38.29165
G1 X53.843 Y157.903 E38.39865
G1 X52.344 Y156.84 E38.59424
G1 X51.847 Y156.429 E38.66288
G1 X51.2 Y155.803 E38.7587
G1 X49.8 Y154.383 E38.97094
G1 X49.39 Y153.893 E39.03894
G1 X48.847 Y153.143 E39.13748
G1 X47.787 Y151.606 E39.3362
G1 X47.435 Y151.001 E39.4107
G1 X47.015 Y150.134 E39.51323
G1 X46.554 Y149.144 E39.62947
G1 X46.22 Y148.389 E39.71733
G1 X46.015 Y147.819 E39.7818
G1 X45.739 Y146.845 E39.88955
G1 X45.306 Y145.195 E40.07111
G1 X45.169 Y144.442 E40.15257
G1 X45.078 Y143.556 E40.24737
G1 X44.971 Y142.334 E40.37792
G1 X44.918 Y141.574 E40.45901
G1 X44.912 Y141.19 E40.49988
G1 X44.967 Y139.755 E40.65273
G1 X45.042 Y135.906 E41.06246
G1 X45.004 Y133.208 E41.34965
G1 X44.892 Y130.586 E41.62897
G1 X44.605 Y126.637 E42.05038
G1 X44.602 Y126.096 E42.10796
G1 X44.672 Y125.043 E42.22028
G1 X44.782 Y123.799 E42.3532
G1 X44.851 Y123.142 E42.42351
G1 X44.907 Y122.767 E42.46386
G1 X45.034 Y122.091 E42.53707
G1 X45.492 Y119.458 E42.82151
G1 X45.888 Y116.724 E43.11554
G1 X46.191 Y114.102 E43.39646
G1 X46.423 Y111.458 E43.67895
G1 X46.586 Y108.717 E43.97119
G1 X46.667 Y106.06 E44.25412
G1 X46.674 Y103.406 E44.53659
G1 X46.604 Y100.668 E44.8281
G1 X46.46 Y98.007 E45.11173
G1 X46.238 Y95.311 E45.39964
G1 X45.941 Y92.644 E45.68525
G1 X45.577 Y90.042 E45.96488
G1 X45.119 Y87.327 E46.25793
G1 X44.794 Y85.723 E46.43212
G1 X44.53 Y84.352 E46.58072
G1 X44.472 Y83.959 E46.623
G1 X44.377 Y83.031 E46.72228
G1 X44.223 Y81.127 E46.92559
G1 X44.223 Y80.486 E46.99382
G1 X44.289 Y79.556 E47.09305
G1 X44.48 Y77.544 E47.30815
G1 X44.61 Y76.754 E47.39337
G1 X44.683 Y76.404 E47.43142
G1 X44.91 Y75.506 E47.53
G1 X45.4 Y73.722 E47.72691
G1 X45.619 Y73.113 E47.79579
G1 X46.019 Y72.216 E47.90032
G1 X46.511 Y71.161 E48.02422
G1 X46.859 Y70.449 E48.10856
G1 X47.134 Y69.976 E48.1668
G1 X47.698 Y69.142 E48.27395
G1 X48.76 Y67.644 E48.46939
G1 X49.171 Y67.147 E48.53803
G1 X49.797 Y66.5 E48.63385
G1 X51.217 Y65.1 E48.84609
G1 X51.707 Y64.69 E48.91409
G0 F6000 X52.176 Y65.338
G1 F900 X52.912 Y64.805 E49.0108
G1 X54.449 Y63.745 E49.20952
G1 X54.892 Y63.485 E49.26419
G1 X55.733 Y63.073 E49.36387
G1 X56.781 Y62.585 E49.48691
G1 X57.484 Y62.272 E49.56881
G1 X57.943 Y62.104 E49.62083
G1 X58.932 Y61.82 E49.73035
G1 X60.446 Y61.414 E49.89718
G1 X63.128 Y60.655 E50.19384
G1 X65.68 Y59.855 E50.47849
G1 X68.249 Y58.967 E50.76779
G1 X70.801 Y58.003 E51.05814
G1 X73.278 Y56.988 E51.34304
G1 X75.78 Y55.878 E51.63437
G1 X78.197 Y54.725 E51.91939
G1 X80.627 Y53.477 E52.21013
G1 X82.645 Y52.376 E52.4548
G1 X83.909 Y51.673 E52.60874
G1 X84.808 Y51.237 E52.71508
G1 X86.453 Y50.484 E52.90763
G1 X86.999 Y50.285 E52.96948
G1 X87.958 Y50.013 E53.07558
G1 X89.608 Y49.58 E53.25714
G1 X90.239 Y49.465 E53.3254
G1 X91.063 Y49.38 E53.41357
G1 X92.98 Y49.223 E53.61828
G1 X93.562 Y49.221 E53.68023
G1 X94.46 Y49.284 E53.77604
G1 X96.269 Y49.453 E53.96941
G1 X96.841 Y49.548 E54.03113
G1 X99.768 Y50.278 E54.3522
G1 X102.462 Y50.881 E54.64602
G1 X105.08 Y51.39 E54.92988
G1 X107.772 Y51.834 E55.22027
G1 X110.447 Y52.197 E55.50758
G1 X113.166 Y52.489 E55.79864
G1 X115.833 Y52.7 E56.08338
G1 X118.562 Y52.837 E56.3742
G1 X121.26 Y52.898 E56.66143
G1 X123.961 Y52.88 E56.94891
G1 X126.703 Y52.787 E57.24091
G1 X129.357 Y52.62 E57.52394
G1 X132.088 Y52.371 E57.81581
G1 X134.788 Y52.047 E58.10524
G1 X137.453 Y51.651 E58.392
G1 X140.12 Y51.177 E58.6803
G1 X142.758 Y50.631 E58.96702
G1 X145.389 Y50.009 E59.25477
G1 X148.388 Y49.204 E59.58526
G1 X149.742 Y48.817 E59.73514
G1 X151.408 Y48.38 E59.91845
G1 X152.039 Y48.265 E59.98672
G1 X152.863 Y48.18 E60.07488
G1 X154.78 Y48.023 E60.2796
G1 X155.362 Y48.021 E60.34154
G1 X156.26 Y48.084 E60.43735
G1 X158.13 Y48.261 E60.63727
G1 X158.639 Y48.348 E60.69223
G1 X159.628 Y48.594 E60.8007
G1 X161.374 Y49.074 E60.99342
G1 X161.925 Y49.275 E61.05585
G1 X162.745 Y49.644 E61.15155
G1 X164.419 Y50.437 E61.3487
G1 X164.925 Y50.728 E61.41083
G1 X165.695 Y51.25 E61.50984
G1 X167.146 Y52.277 E61.69904
G1 X167.643 Y52.688 E61.76768
G1 X168.231 Y53.259 E61.85491
G1 X169.588 Y54.632 E62.06038
G1 X169.962 Y55.076 E62.12216
G1 X170.495 Y55.812 E62.21888
G1 X171.555 Y57.349 E62.4176
G1 X171.815 Y57.792 E62.47227
G1 X172.227 Y58.633 E62.57194
G1 X172.715 Y59.681 E62.69498
G1 X173.029 Y60.385 E62.77703
G1 X173.196 Y60.843 E62.82891
G1 X173.486 Y61.854 E62.94085
G1 X173.92 Y63.509 E63.12296
G1 X174.035 Y64.139 E63.19112
G1 X174.12 Y64.964 E63.27939
G1 X174.285 Y66.986 E63.49531
G1 X174.319 Y67.728 E63.57436
G1 X174.359 Y69.072 E63.71747
G1 X174.52 Y71.811 E64.0095
G1 X174.755 Y74.495 E64.29625
G1 X175.065 Y77.172 E64.58308
G1 X175.455 Y79.875 E64.87374
G1 X175.914 Y82.522 E65.15967
G1 X176.454 Y85.193 E65.44971
G1 X177.067 Y87.824 E65.73723
G1 X177.75 Y90.425 E66.02345
G1 X178.697 Y93.603 E66.37639
G1 X179.083 Y94.958 E66.52634
G1 X179.516 Y96.608 E66.7079
G1 X179.631 Y97.239 E66.77616
G1 X179.716 Y98.063 E66.86433
G1 X179.873 Y99.979 E67.06894
G1 X179.874 Y100.564 E67.1312
G1 X179.805 Y101.531 E67.23438
G1 X179.663 Y103.146 E67.40693
G1 X179.459 Y105.9 E67.70085
G1 X179.335 Y108.64 E67.99278
G1 X179.289 Y111.3 E68.27593
G1 X179.321 Y114.055 E68.56917
G1 X179.425 Y116.711 E68.85207
G1 X179.659 Y120.006 E69.20365
G1 X179.826 Y121.903 E69.40633
G1 X179.874 Y122.557 E69.47613
G1 X179.877 Y123.101 E69.53403
G1 X179.816 Y124.003 E69.63025
G1 X179.643 Y125.866 E69.82938
G1 X179.535 Y126.5 E69.89783
G1 X179.314 Y127.38 E69.9944
G1 X179.017 Y128.489 E70.1166
G1 X178.444 Y130.515 E70.34069
G1 X177.74 Y133.144 E70.63036
G1 X177.113 Y135.782 E70.91895
G1 X176.566 Y138.426 E71.20631
G1 X176.09 Y141.092 E71.49455
G1 X175.684 Y143.805 E71.78652
G1 X175.369 Y146.418 E72.06664
G1 X175.063 Y149.876 E72.43612
G1 X174.911 Y152.009 E72.66371
G1 X174.739 Y153.829 E72.85828
G1 X174.652 Y154.339 E72.91335
G1 X174.424 Y155.257 E73.01402
G1 X173.944 Y157.013 E73.20777
G1 X173.726 Y157.621 E73.27652
G1 X173.367 Y158.423 E73.37004
G1 X172.87 Y159.489 E73.49522
G1 X172.548 Y160.151 E73.57357
G1 X172.303 Y160.576 E73.62578
G1 X171.75 Y161.395 E73.73096
G1 X170.723 Y162.846 E73.92016
G1 X170.312 Y163.343 E73.98881
G1 X169.741 Y163.931 E74.07604
G1 X168.368 Y165.288 E74.2815
G1 X167.924 Y165.662 E74.34329
G1 X167.188 Y166.195 E74.44001
G1 X165.651 Y167.255 E74.63872
G1 X165.208 Y167.515 E74.69339
G1 X164.367 Y167.927 E74.79307
G1 X163.323 Y168.414 E74.91568
G1 X162.614 Y168.73 E74.99829
G1 X162.101 Y168.915 E75.05634
G1 X161.142 Y169.187 E75.16243
G1 X159.492 Y169.62 E75.34399
G1 X158.861 Y169.735 E75.41226
G1 X158.037 Y169.82 E75.50042
G1 X156.12 Y169.977 E75.70514
G1 X155.538 Y169.979 E75.76708
G1 X154.64 Y169.916 E75.86289
G1 X152.775 Y169.74 E76.06227
G1 X152.304 Y169.663 E76.11306
G1 X149.112 Y168.905 E76.46224
G1 X146.461 Y168.36 E76.7503
G1 X143.811 Y167.892 E77.03671
G1 X141.102 Y167.492 E77.32816
G1 X138.446 Y167.177 E77.61283
G1 X135.717 Y166.931 E77.90446
G1 X133.058 Y166.766 E78.18801
G1 X130.32 Y166.675 E78.47958
G1 X127.616 Y166.66 E78.76738
G1 X124.889 Y166.723 E79.05769
G1 X122.2 Y166.862 E79.34427
G1 X119.503 Y167.077 E79.63223
G1 X116.841 Y167.366 E79.91722
G1 X114.089 Y167.743 E80.21286
G1 X111.467 Y168.178 E80.49574
G1 X108.777 Y168.705 E80.78748
G1 X106.142 Y169.296 E81.0749
G1 X103.557 Y169.953 E81.35878
G1 X99.242 Y171.187 E81.83644
G1 X97.592 Y171.62 E82.018
G1 X96.961 Y171.735 E82.08627
G1 X96.137 Y171.82 E82.17443
G1 X94.22 Y171.977 E82.37915
G1 X93.638 Y171.979 E82.44109
G1 X92.74 Y171.916 E82.5369
G1 X90.87 Y171.739 E82.73682
G1 X90.361 Y171.652 E82.79178
G1 X89.372 Y171.406 E82.90025
G1 X87.626 Y170.926 E83.09298
G1 X87.132 Y170.748 E83.14886
G1 X86.277 Y170.367 E83.24849
G1 X85.208 Y169.869 E83.374
G1 X84.541 Y169.545 E83.45293
G1 X81.376 Y167.839 E83.83561
G1 X78.947 Y166.622 E84.12476
G1 X76.502 Y165.484 E84.4118
G1 X73.992 Y164.398 E84.70288
G1 X71.483 Y163.398 E84.99034
G1 X68.962 Y162.475 E85.27608
G1 X66.353 Y161.602 E85.56889
G1 X63.815 Y160.832 E85.85118
G1 X59.333 Y159.627 E86.34515
G1 X58.594 Y159.416 E86.42694
G1 X58.13 Y159.247 E86.4795
G1 X57.277 Y158.867 E86.57889
G1 X56.211 Y158.37 E86.70407
G1 X55.549 Y158.048 E86.78242
G1 X55.124 Y157.803 E86.83463
G1 X54.305 Y157.25 E86.93981
G1 X52.854 Y156.223 E87.12901
G1 X52.357 Y155.812 E87.19766
G1 X51.769 Y155.241 E87.28489
G1 X50.412 Y153.868 E87.49035
G1 X50.038 Y153.424 E87.55214
G1 X49.505 Y152.688 E87.64886
G1 X48.477 Y151.201 E87.84126
G1 X48.155 Y150.652 E87.909
G1 X47.74 Y149.796 E88.01025
G1 X47.285 Y148.819 E88.12496
G1 X46.972 Y148.116 E88.20686
G1 X46.785 Y147.601 E88.26517
G1 X46.513 Y146.642 E88.37127
G1 X46.08 Y144.992 E88.55283
G1 X45.965 Y144.36 E88.6212
G1 X45.875 Y143.486 E88.71471
G1 X45.769 Y142.277 E88.84388
G1 X45.718 Y141.562 E88.92017
G1 X45.712 Y141.178 E88.96105
G1 X45.767 Y139.771 E89.11091
G1 X45.842 Y135.922 E89.52065
G1 X45.804 Y133.197 E89.81071
G1 X45.69 Y130.528 E90.09503
G1 X45.405 Y126.633 E90.5107
