;FLAVOR:Marlin
;TIME:6582
;Filament used: 12.9961m
;Layer height: 0.32
;MINX:58.823
;MINY:76.219
;MINZ:0.32
;MAXX:161.181
;MAXY:143.677
;MAXZ:50.12
;TARGET_MACHINE.NAME:Creality Ender-3 Pro
;Generated with Cura_SteamEngine 5.5.0
M82 ;absolute extrusion mode
; Ender 3 Custom Start G-code
G92 E0 ; Reset Extruder
G28 ; Home all axes
G1 Z5.0 F3000 ; Move Z Axis up a bit during heating to not damage bed
M104 S120 ; Start heating up the nozzle most of the way
M190 S70 ; Start heating the bed, wait until target temperature reached
M109 S235.0 ; Finish heating the nozzle
G1 Z2.0 F3000 ; Move Z Axis up little to prevent scratching of Heat Bed
G1 X0.1 Y20 Z0.3 F5000.0 ; Move to start position
G1 X0.1 Y200.0 Z0.3 F1500.0 E15 ; Draw the first line
G1 X0.4 Y200.0 Z0.3 F5000.0 ; Move to side a little
G1 X0.4 Y20 Z0.3 F1500.0 E30 ; Draw the second line
G92 E0 ; Reset Extruder
G1 Z2.0 F3000 ; Move Z Axis up little to prevent scratching of Heat Bed
G1 X5 Y20 Z0.3 F5000.0 ; Move over to prevent blob squish
G92 E0
G92 E0
G1 F1500 E-6.5
;LAYER_COUNT:156
;LAYER:0
M107
G1 F300 Z0.52
G0 F6000 X66.207 Y81.29 Z0.52
;TYPE:SKIRT
G1 F300 Z0.32
G1 F1500 E0
G1 F900 X66.958 Y80.746 E0.0987
G1 X68.495 Y79.686 E0.29742
G1 X68.987 Y79.395 E0.35825
G1 X69.895 Y78.948 E0.46597
G1 X70.956 Y78.454 E0.59053
G1 X71.711 Y78.12 E0.6784
G1 X72.281 Y77.915 E0.74287
G1 X73.255 Y77.639 E0.85062
G1 X74.905 Y77.206 E1.03218
G1 X75.658 Y77.069 E1.11364
G1 X76.544 Y76.978 E1.20844
G1 X77.768 Y76.871 E1.33921
G1 X78.507 Y76.818 E1.41806
G1 X78.856 Y76.809 E1.45522
G1 X79.417 Y76.815 E1.51493
G1 X81.21 Y76.862 E1.70583
G1 X83.861 Y76.855 E1.98798
G1 X86.548 Y76.772 E2.2741
G1 X89.258 Y76.613 E2.56303
G1 X93.162 Y76.271 E2.98013
G1 X93.853 Y76.222 E3.05386
G1 X94.4 Y76.219 E3.11208
G1 X95.424 Y76.287 E3.22131
G1 X99.027 Y76.599 E3.60622
G1 X101.753 Y76.76 E3.89686
G1 X104.436 Y76.843 E4.18256
G1 X107.089 Y76.85 E4.46492
G1 X109.813 Y76.779 E4.75494
G1 X112.502 Y76.633 E5.04156
G1 X114.809 Y76.436 E5.28799
G1 X114.918 Y76.433 E5.2996
G1 X116.762 Y76.271 E5.49662
G1 X117.453 Y76.222 E5.57035
G1 X118 Y76.219 E5.62857
G1 X119.034 Y76.287 E5.73886
G1 X120.904 Y76.464 E5.93877
G1 X121.536 Y76.572 E6.00701
G1 X122.42 Y76.792 E6.10397
G1 X124.135 Y77.251 E6.29293
G1 X126.781 Y77.92 E6.58341
G1 X129.474 Y78.52 E6.87706
G1 X132.043 Y79.016 E7.15553
G1 X134.679 Y79.449 E7.43985
G1 X137.352 Y79.81 E7.72693
G1 X140.066 Y80.1 E8.01743
G1 X143.637 Y80.395 E8.39879
G1 X144.338 Y80.468 E8.4738
G1 X144.876 Y80.56 E8.5319
G1 X145.94 Y80.823 E8.64855
G1 X147.745 Y81.321 E8.84784
G1 X148.294 Y81.521 E8.91003
G1 X149.161 Y81.908 E9.01108
G1 X150.239 Y82.411 E9.13769
G1 X150.951 Y82.759 E9.22203
G1 X151.424 Y83.034 E9.28027
G1 X152.257 Y83.597 E9.38728
G1 X153.756 Y84.66 E9.58286
G1 X154.253 Y85.071 E9.6515
G1 X154.899 Y85.696 E9.74717
G1 X156.213 Y87.023 E9.94593
G1 X156.707 Y87.604 E10.0271
G1 X157.254 Y88.357 E10.12616
G1 X158.314 Y89.895 E10.32496
G1 X158.605 Y90.387 E10.3858
G1 X159.052 Y91.295 E10.49352
G1 X159.546 Y92.356 E10.61808
G1 X159.88 Y93.111 E10.70595
G1 X160.085 Y93.681 E10.77042
G1 X160.361 Y94.655 E10.87817
G1 X160.794 Y96.305 E11.05973
G1 X160.931 Y97.057 E11.14108
G1 X161.017 Y97.898 E11.23106
G1 X161.177 Y99.878 E11.44248
G1 X161.176 Y100.519 E11.51071
G1 X161.109 Y101.46 E11.61111
G1 X160.967 Y103.089 E11.78515
G1 X160.961 Y103.236 E11.80081
G1 X160.824 Y104.831 E11.97119
G1 X160.664 Y107.573 E12.26353
G1 X160.586 Y110.231 E12.54654
G1 X160.582 Y112.884 E12.82891
G1 X160.654 Y115.577 E13.11563
G1 X160.804 Y118.287 E13.40451
G1 X160.968 Y120.217 E13.61066
G1 X160.971 Y120.367 E13.62663
G1 X161.129 Y122.162 E13.81842
G1 X161.178 Y122.851 E13.89193
G1 X161.181 Y123.397 E13.95005
G1 X161.112 Y124.434 E14.06066
G1 X160.928 Y126.365 E14.26711
G1 X160.841 Y126.874 E14.32207
G1 X160.596 Y127.868 E14.43103
G1 X160.116 Y129.624 E14.62478
G1 X159.856 Y130.348 E14.70666
G1 X159.492 Y131.161 E14.80147
G1 X158.989 Y132.239 E14.92808
G1 X158.641 Y132.951 E15.01242
G1 X158.366 Y133.424 E15.07066
G1 X157.803 Y134.257 E15.17766
G1 X156.74 Y135.756 E15.37325
G1 X156.329 Y136.253 E15.44189
G1 X155.703 Y136.9 E15.53771
G1 X154.283 Y138.3 E15.74994
G1 X153.793 Y138.71 E15.81795
G1 X153.042 Y139.254 E15.91664
G1 X151.505 Y140.314 E16.11536
G1 X151.013 Y140.605 E16.1762
G1 X150.105 Y141.052 E16.28392
G1 X149.049 Y141.545 E16.40795
G1 X148.34 Y141.861 E16.49057
G1 X147.719 Y142.085 E16.56083
G1 X146.745 Y142.361 E16.66858
G1 X145.095 Y142.794 E16.85014
G1 X144.343 Y142.931 E16.93149
G1 X143.502 Y143.017 E17.02147
G1 X141.523 Y143.177 E17.23279
G1 X140.882 Y143.177 E17.30101
G1 X139.966 Y143.113 E17.39874
G1 X138.157 Y142.944 E17.59211
G1 X137.392 Y142.811 E17.67476
G1 X133.613 Y141.852 E18.08971
G1 X130.908 Y141.25 E18.38466
G1 X128.339 Y140.754 E18.66313
G1 X125.703 Y140.321 E18.94745
G1 X123.057 Y139.963 E19.23163
G1 X120.347 Y139.675 E19.52169
G1 X117.641 Y139.463 E19.81058
G1 X114.989 Y139.332 E20.09318
G1 X112.301 Y139.274 E20.37934
G1 X109.616 Y139.293 E20.66512
G1 X106.913 Y139.387 E20.95298
G1 X104.283 Y139.556 E21.23347
G1 X101.524 Y139.81 E21.52836
G1 X98.926 Y140.123 E21.80687
G1 X96.252 Y140.523 E22.09464
G1 X93.589 Y140.998 E22.38254
G1 X90.953 Y141.545 E22.66907
G1 X88.413 Y142.149 E22.94695
G1 X84.72 Y143.135 E23.35377
G1 X83.997 Y143.317 E23.43313
G1 X83.343 Y143.431 E23.50378
G1 X82.502 Y143.517 E23.59376
G1 X80.523 Y143.677 E23.80508
G1 X79.882 Y143.677 E23.8733
G1 X78.965 Y143.612 E23.97114
G1 X77.035 Y143.428 E24.17749
G1 X76.526 Y143.341 E24.23245
G1 X75.46 Y143.077 E24.34933
G1 X73.655 Y142.579 E24.54862
G1 X73.106 Y142.379 E24.61081
G1 X72.239 Y141.992 E24.71186
G1 X71.161 Y141.489 E24.83847
G1 X70.449 Y141.141 E24.92282
G1 X69.976 Y140.866 E24.98105
G1 X69.143 Y140.303 E25.08806
G1 X67.644 Y139.24 E25.28364
G1 X67.147 Y138.829 E25.35229
G1 X66.5 Y138.203 E25.4481
G1 X65.1 Y136.783 E25.66034
G1 X64.69 Y136.293 E25.72834
G1 X64.147 Y135.543 E25.82689
G1 X63.119 Y134.056 E26.01929
G1 X62.735 Y133.4 E26.10019
G1 X62.302 Y132.507 E26.20582
G1 X61.581 Y130.936 E26.3898
G1 X61.315 Y130.219 E26.47119
G1 X61.039 Y129.245 E26.57894
G1 X60.606 Y127.595 E26.7605
G1 X60.469 Y126.843 E26.84185
G1 X60.383 Y126.003 E26.93172
G1 X60.223 Y124.033 E27.14208
G1 X60.219 Y123.443 E27.20488
G1 X60.396 Y120.408 E27.52845
G1 X60.473 Y117.693 E27.81753
G1 X60.473 Y115.076 E28.09607
G1 X60.396 Y112.334 E28.38802
G1 X60.244 Y109.643 E28.67488
G1 X60.016 Y106.952 E28.96232
G1 X59.723 Y104.369 E29.239
G1 X59.213 Y100.873 E29.61502
G1 X59.073 Y99.98 E29.71123
G1 X58.983 Y99.104 E29.80496
G1 X58.823 Y97.125 E30.01627
G1 X58.823 Y96.485 E30.08439
G1 X58.888 Y95.566 E30.18245
G1 X59.072 Y93.635 E30.3889
G1 X59.159 Y93.126 E30.44386
G1 X59.404 Y92.132 E30.55282
G1 X59.884 Y90.376 E30.74657
G1 X60.144 Y89.652 E30.82844
G1 X60.508 Y88.839 E30.92325
G1 X61.011 Y87.761 E31.04986
G1 X61.359 Y87.049 E31.13421
G1 X61.634 Y86.576 E31.19244
G1 X62.197 Y85.743 E31.29945
G1 X63.26 Y84.244 E31.49503
G1 X63.671 Y83.747 E31.56368
G1 X64.297 Y83.1 E31.65949
G1 X65.717 Y81.7 E31.87173
G1 X66.207 Y81.29 E31.93973
G0 F6000 X66.676 Y81.938
G1 F900 X67.412 Y81.405 E32.03645
G1 X68.949 Y80.345 E32.23516
G1 X69.392 Y80.085 E32.28984
G1 X70.233 Y79.673 E32.38951
G1 X71.281 Y79.185 E32.51255
G1 X71.984 Y78.872 E32.59445
G1 X72.499 Y78.685 E32.65277
G1 X73.458 Y78.413 E32.75886
G1 X75.108 Y77.98 E32.94042
G1 X75.74 Y77.865 E33.00879
G1 X76.614 Y77.775 E33.10231
G1 X77.826 Y77.669 E33.23179
G1 X78.53 Y77.618 E33.30692
G1 X78.847 Y77.609 E33.34067
G1 X79.396 Y77.615 E33.39911
G1 X81.191 Y77.662 E33.59022
G1 X83.886 Y77.655 E33.87705
G1 X86.583 Y77.572 E34.16424
G1 X89.305 Y77.412 E34.45445
G1 X93.221 Y77.069 E34.87283
G1 X93.857 Y77.022 E34.94071
G1 X94.404 Y77.019 E34.99893
G1 X95.355 Y77.084 E35.10038
G1 X98.98 Y77.398 E35.48764
G1 X101.717 Y77.56 E35.77946
G1 X104.411 Y77.643 E36.06632
G1 X107.108 Y77.65 E36.35337
G1 X109.841 Y77.579 E36.64435
G1 X112.55 Y77.432 E36.9331
G1 X114.834 Y77.236 E37.17709
G1 X114.96 Y77.232 E37.1905
G1 X116.821 Y77.069 E37.38933
G1 X117.457 Y77.022 E37.45721
G1 X118.004 Y77.019 E37.51543
G1 X118.96 Y77.084 E37.61741
G1 X120.769 Y77.253 E37.81079
G1 X121.401 Y77.361 E37.87903
G1 X122.213 Y77.565 E37.96814
G1 X123.939 Y78.027 E38.1583
G1 X126.588 Y78.697 E38.44912
G1 X129.3 Y79.301 E38.74484
G1 X131.904 Y79.804 E39.02711
G1 X134.572 Y80.242 E39.31488
G1 X137.245 Y80.603 E39.60195
G1 X140 Y80.897 E39.89684
G1 X143.556 Y81.191 E40.2766
G1 X144.203 Y81.257 E40.34582
G1 X144.741 Y81.349 E40.40391
G1 X145.728 Y81.594 E40.51215
G1 X147.474 Y82.074 E40.70488
G1 X147.968 Y82.252 E40.76076
G1 X148.823 Y82.633 E40.86039
G1 X149.889 Y83.13 E40.98557
G1 X150.551 Y83.452 E41.06392
G1 X150.976 Y83.697 E41.11613
G1 X151.795 Y84.25 E41.22131
G1 X153.246 Y85.277 E41.41051
G1 X153.743 Y85.688 E41.47916
G1 X154.331 Y86.259 E41.56639
G1 X155.645 Y87.586 E41.76515
G1 X156.06 Y88.074 E41.83333
G1 X156.595 Y88.811 E41.93026
G1 X157.655 Y90.349 E42.12907
G1 X157.915 Y90.792 E42.18374
G1 X158.327 Y91.633 E42.28341
G1 X158.815 Y92.681 E42.40645
G1 X159.128 Y93.384 E42.48835
G1 X159.315 Y93.899 E42.54667
G1 X159.587 Y94.858 E42.65276
G1 X160.02 Y96.508 E42.83432
G1 X160.135 Y97.139 E42.90259
G1 X160.22 Y97.963 E42.99075
G1 X160.377 Y99.879 E43.19536
G1 X160.378 Y100.462 E43.25741
G1 X160.312 Y101.39 E43.35643
G1 X160.169 Y103.029 E43.53154
G1 X160.164 Y103.167 E43.54623
G1 X160.025 Y104.784 E43.71897
G1 X159.865 Y107.526 E44.0113
G1 X159.786 Y110.207 E44.29677
G1 X159.782 Y112.905 E44.58393
G1 X159.855 Y115.621 E44.8731
G1 X160.005 Y118.333 E45.16219
G1 X160.168 Y120.235 E45.36537
G1 X160.172 Y120.409 E45.38389
G1 X160.331 Y122.221 E45.57749
G1 X160.378 Y122.855 E45.64515
G1 X160.381 Y123.401 E45.70326
G1 X160.316 Y124.359 E45.80546
G1 X160.139 Y126.23 E46.00548
G1 X160.052 Y126.739 E46.06044
G1 X159.824 Y127.657 E46.16112
G1 X159.344 Y129.413 E46.35487
G1 X159.126 Y130.021 E46.42361
G1 X158.767 Y130.823 E46.51713
G1 X158.27 Y131.889 E46.64232
G1 X157.948 Y132.551 E46.72067
G1 X157.703 Y132.976 E46.77288
G1 X157.15 Y133.795 E46.87806
G1 X156.123 Y135.246 E47.06726
G1 X155.712 Y135.743 E47.1359
G1 X155.141 Y136.331 E47.22313
G1 X153.768 Y137.688 E47.4286
G1 X153.324 Y138.062 E47.49038
G1 X152.588 Y138.595 E47.5871
G1 X151.051 Y139.655 E47.78582
G1 X150.608 Y139.915 E47.84049
G1 X149.767 Y140.327 E47.94016
G1 X148.723 Y140.814 E48.06277
G1 X148.014 Y141.13 E48.14539
G1 X147.501 Y141.315 E48.20343
G1 X146.542 Y141.587 E48.30953
G1 X144.892 Y142.02 E48.49108
G1 X144.261 Y142.135 E48.55935
G1 X143.437 Y142.22 E48.64752
G1 X141.52 Y142.377 E48.85223
G1 X140.938 Y142.379 E48.91417
G1 X140.04 Y142.316 E49.00998
G1 X138.231 Y142.147 E49.20336
G1 X137.589 Y142.036 E49.2727
G1 X133.787 Y141.071 E49.69019
G1 X131.082 Y140.469 E49.98513
G1 X128.478 Y139.966 E50.26741
G1 X125.81 Y139.528 E50.55517
G1 X123.142 Y139.167 E50.84172
G1 X120.425 Y138.878 E51.13253
G1 X117.703 Y138.665 E51.42312
G1 X115.009 Y138.532 E51.7102
G1 X112.312 Y138.474 E51.99731
G1 X109.588 Y138.493 E52.28724
G1 X106.885 Y138.588 E52.57511
G1 X104.21 Y138.759 E52.8604
G1 X101.451 Y139.013 E53.15528
G1 X98.82 Y139.33 E53.43733
G1 X96.112 Y139.735 E53.72876
G1 X93.449 Y140.21 E54.01666
G1 X90.782 Y140.764 E54.30658
G1 X88.207 Y141.376 E54.58827
G1 X84.525 Y142.359 E54.99388
G1 X83.802 Y142.541 E55.07323
G1 X83.261 Y142.635 E55.13168
G1 X82.437 Y142.72 E55.21984
G1 X80.52 Y142.877 E55.42456
G1 X79.938 Y142.879 E55.4865
G1 X79.04 Y142.816 E55.58231
G1 X77.17 Y142.639 E55.78223
G1 X76.661 Y142.552 E55.83719
G1 X75.672 Y142.306 E55.94566
G1 X73.926 Y141.826 E56.13838
G1 X73.432 Y141.648 E56.19427
G1 X72.577 Y141.267 E56.2939
G1 X71.511 Y140.77 E56.41908
G1 X70.849 Y140.448 E56.49743
G1 X70.424 Y140.203 E56.54964
G1 X69.605 Y139.65 E56.65482
G1 X68.154 Y138.623 E56.84402
G1 X67.657 Y138.212 E56.91266
G1 X67.069 Y137.641 E56.9999
G1 X65.712 Y136.268 E57.20536
G1 X65.338 Y135.824 E57.26715
G1 X64.805 Y135.088 E57.36386
G1 X63.777 Y133.601 E57.55627
G1 X63.455 Y133.051 E57.6241
G1 X63.029 Y132.173 E57.72797
G1 X62.308 Y130.602 E57.91194
G1 X62.085 Y130.001 E57.98017
G1 X61.813 Y129.042 E58.08626
G1 X61.38 Y127.392 E58.26782
G1 X61.265 Y126.761 E58.33609
G1 X61.18 Y125.937 E58.42425
G1 X61.023 Y124.026 E58.62833
G1 X61.018 Y123.49 E58.68538
G1 X61.195 Y120.455 E59.00895
G1 X61.273 Y117.716 E59.30059
G1 X61.273 Y115.054 E59.58391
G1 X61.196 Y112.312 E59.87586
G1 X61.043 Y109.598 E60.16518
G1 X60.813 Y106.884 E60.45507
G1 X60.515 Y104.254 E60.73678
G1 X60.005 Y100.758 E61.11281
G1 X59.869 Y99.897 E61.20558
G1 X59.78 Y99.039 E61.29739
G1 X59.623 Y97.122 E61.50211
G1 X59.621 Y96.541 E61.56394
G1 X59.684 Y95.641 E61.65997
G1 X59.861 Y93.77 E61.85999
G1 X59.948 Y93.261 E61.91495
G1 X60.176 Y92.343 E62.01562
G1 X60.656 Y90.587 E62.20938
G1 X60.874 Y89.979 E62.27812
G1 X61.233 Y89.177 E62.37164
G1 X61.73 Y88.111 E62.49682
G1 X62.052 Y87.449 E62.57517
G1 X62.297 Y87.024 E62.62739
G1 X62.85 Y86.205 E62.73256
G1 X63.877 Y84.754 E62.92177
G1 X64.288 Y84.257 E62.99041
G1 X64.859 Y83.669 E63.07764
G1 X66.232 Y82.312 E63.2831
G1 X66.676 Y81.938 E63.34489
G0 F6000 X67.146 Y82.586
G1 F900 X67.867 Y82.063 E63.43969
G1 X69.354 Y81.035 E63.63209
G1 X69.797 Y80.775 E63.68676
G1 X70.571 Y80.398 E63.77839
G1 X71.608 Y79.915 E63.90015
G1 X72.259 Y79.623 E63.97609
G1 X72.718 Y79.455 E64.02811
G1 X73.661 Y79.187 E64.13245
G1 X75.311 Y78.754 E64.31401
G1 X75.822 Y78.661 E64.36929
G1 X76.684 Y78.572 E64.46152
G1 X77.884 Y78.467 E64.58973
G1 X78.556 Y78.418 E64.66144
G1 X78.838 Y78.409 E64.69147
G1 X79.375 Y78.415 E64.74863
G1 X81.172 Y78.462 E64.93995
G1 X83.911 Y78.455 E65.23147
G1 X86.618 Y78.372 E65.51972
G1 X89.352 Y78.211 E65.81121
G1 X93.28 Y77.867 E66.23088
G1 X93.916 Y77.82 E66.29875
G1 X94.406 Y77.819 E66.35091
G1 X95.286 Y77.881 E66.4448
G1 X98.933 Y78.197 E66.83441
G1 X101.681 Y78.36 E67.1274
G1 X104.386 Y78.443 E67.41544
G1 X107.127 Y78.45 E67.70717
G1 X109.869 Y78.379 E67.99911
G1 X112.6 Y78.231 E68.2902
G1 X114.903 Y78.033 E68.53622
G1 X115 Y78.032 E68.54654
G1 X116.88 Y77.867 E68.7474
G1 X117.516 Y77.82 E68.81528
G1 X118.006 Y77.819 E68.86743
G1 X118.886 Y77.881 E68.96132
G1 X120.695 Y78.05 E69.1547
G1 X121.206 Y78.137 E69.20987
G1 X122.006 Y78.338 E69.29766
G1 X123.743 Y78.803 E69.48904
G1 X126.395 Y79.474 E69.7802
G1 X129.126 Y80.082 E70.07798
G1 X131.765 Y80.592 E70.36405
G1 X134.465 Y81.035 E70.65526
G1 X137.16 Y81.399 E70.9447
G1 X139.915 Y81.692 E71.23958
G1 X143.475 Y81.987 E71.61978
G1 X144.122 Y82.053 E71.68899
G1 X144.603 Y82.137 E71.74096
G1 X145.517 Y82.366 E71.84125
G1 X147.203 Y82.827 E72.02728
G1 X147.697 Y83.005 E72.08317
G1 X148.485 Y83.358 E72.17507
G1 X149.541 Y83.85 E72.29906
G1 X150.151 Y84.145 E72.37118
G1 X150.576 Y84.39 E72.42339
G1 X151.333 Y84.903 E72.52072
G1 X152.784 Y85.93 E72.70992
G1 X153.186 Y86.263 E72.76548
G1 X153.763 Y86.822 E72.85098
G1 X155.077 Y88.149 E73.04974
G1 X155.413 Y88.544 E73.10494
G1 X155.937 Y89.266 E73.19989
G1 X156.965 Y90.754 E73.39238
G1 X157.225 Y91.197 E73.44705
G1 X157.602 Y91.971 E73.53868
G1 X158.085 Y93.008 E73.66043
G1 X158.377 Y93.659 E73.73637
G1 X158.545 Y94.118 E73.78839
G1 X158.813 Y95.061 E73.89273
G1 X159.246 Y96.711 E74.07429
G1 X159.339 Y97.222 E74.12957
G1 X159.423 Y98.029 E74.21593
G1 X159.577 Y99.884 E74.41404
G1 X159.58 Y100.405 E74.46949
G1 X159.515 Y101.321 E74.56723
G1 X159.369 Y102.997 E74.74629
G1 X159.367 Y103.098 E74.75704
G1 X159.226 Y104.737 E74.93213
G1 X159.066 Y107.479 E75.22446
G1 X158.986 Y110.183 E75.51238
G1 X158.982 Y112.927 E75.80443
G1 X159.056 Y115.665 E76.09595
G1 X159.206 Y118.379 E76.38525
G1 X159.371 Y120.303 E76.59077
G1 X159.372 Y120.447 E76.6061
G1 X159.533 Y122.28 E76.80194
G1 X159.58 Y122.914 E76.86961
G1 X159.581 Y123.403 E76.92165
G1 X159.519 Y124.285 E77.01576
G1 X159.35 Y126.095 E77.20924
G1 X159.263 Y126.604 E77.2642
G1 X159.052 Y127.446 E77.35658
G1 X158.572 Y129.202 E77.55034
G1 X158.396 Y129.694 E77.60595
G1 X158.042 Y130.485 E77.69818
G1 X157.55 Y131.541 E77.82218
G1 X157.255 Y132.151 E77.89429
G1 X157.01 Y132.576 E77.94651
G1 X156.497 Y133.333 E78.04383
