;FLAVOR:Marlin
;TIME:12940
;Filament used: 25.094m
;Layer height: 0.32
;MINX:58.821
;MINY:61.723
;MINZ:0.32
;MAXX:161.277
;MAXY:158.177
;MAXZ:50.12
;TARGET_MACHINE.NAME:Creality Ender-3 Pro
;Generated with Cura_SteamEngine 5.5.0
M82 ;absolute extrusion mode
; Ender 3 Custom Start G-code
G92 E0 ; Reset Extruder
G28 ; Home all axes
G1 Z5.0 F3000 ; Move Z Axis up a bit during heating to not damage bed
M104 S120 ; Start heating up the nozzle most of the way
M190 S70 ; Start heating the bed, wait until target temperature reached
M109 S235.0 ; Finish heating the nozzle
G1 Z2.0 F3000 ; Move Z Axis up little to prevent scratching of Heat Bed
G1 X0.1 Y20 Z0.3 F5000.0 ; Move to start position
G1 X0.1 Y200.0 Z0.3 F1500.0 E15 ; Draw the first line
G1 X0.4 Y200.0 Z0.3 F5000.0 ; Move to side a little
G1 X0.4 Y20 Z0.3 F1500.0 E30 ; Draw the second line
G92 E0 ; Reset Extruder
G1 Z2.0 F3000 ; Move Z Axis up little to prevent scratching of Heat Bed
G1 X5 Y20 Z0.3 F5000.0 ; Move over to prevent blob squish
G92 E0
G92 E0
G1 F1500 E-6.5
;LAYER_COUNT:156
;LAYER:0
M107
G1 F300 Z0.52
G0 F6000 X65.714 Y70.602 Z0.52
;TYPE:SKIRT
G1 F300 Z0.32
G1 F1500 E0
G1 F900 X66.111 Y70.265 E0.05542
G1 X67.042 Y69.586 E0.17807
G1 X68.546 Y68.552 E0.37232
G1 X69.041 Y68.265 E0.43322
G1 X69.895 Y67.848 E0.53437
G1 X70.956 Y67.354 E0.65894
G1 X71.711 Y67.02 E0.7468
G1 X72.281 Y66.815 E0.81128
G1 X73.255 Y66.539 E0.91902
G1 X74.905 Y66.106 E1.10058
G1 X75.657 Y65.969 E1.18194
G1 X76.493 Y65.883 E1.27138
G1 X81.041 Y65.492 E1.75722
G1 X83.751 Y65.175 E2.04762
G1 X86.426 Y64.785 E2.33534
G1 X89.016 Y64.335 E2.61513
G1 X91.659 Y63.798 E2.90218
G1 X94.316 Y63.175 E3.19264
G1 X95.976 Y62.747 E3.37509
G1 X97.783 Y62.264 E3.57417
G1 X98.559 Y62.071 E3.65928
G1 X99.098 Y61.977 E3.71751
G1 X99.998 Y61.883 E3.81382
G1 X101.977 Y61.723 E4.02514
G1 X102.618 Y61.723 E4.09336
G1 X103.524 Y61.787 E4.19003
G1 X107.054 Y62.093 E4.56714
G1 X109.781 Y62.254 E4.85789
G1 X112.466 Y62.338 E5.1438
G1 X115.119 Y62.345 E5.42617
G1 X117.841 Y62.275 E5.71597
G1 X120.526 Y62.13 E6.00216
G1 X122.81 Y61.935 E6.24614
G1 X122.932 Y61.932 E6.25912
G1 X124.762 Y61.771 E6.45465
G1 X125.398 Y61.724 E6.52252
G1 X126.131 Y61.724 E6.60054
G1 X129.77 Y61.99 E6.98888
G1 X132.463 Y62.112 E7.2758
G1 X135.118 Y62.159 E7.55842
G1 X137.817 Y62.127 E7.8457
G1 X139.776 Y62.06 E8.05432
G1 X140.821 Y62.014 E8.16565
G1 X141.309 Y62.022 E8.2176
G1 X142.236 Y62.088 E8.31651
G1 X144.165 Y62.272 E8.52275
G1 X144.674 Y62.359 E8.57771
G1 X145.74 Y62.623 E8.6946
G1 X147.545 Y63.121 E8.89388
G1 X148.094 Y63.321 E8.95607
G1 X148.961 Y63.708 E9.05712
G1 X150.039 Y64.211 E9.18373
G1 X150.751 Y64.559 E9.26808
G1 X151.224 Y64.834 E9.32631
G1 X152.057 Y65.397 E9.43332
G1 X153.556 Y66.46 E9.62891
G1 X154.053 Y66.871 E9.69755
G1 X154.7 Y67.497 E9.79337
G1 X156.1 Y68.917 E10.0056
G1 X156.51 Y69.407 E10.0736
G1 X157.054 Y70.158 E10.1723
G1 X158.114 Y71.695 E10.37102
G1 X158.405 Y72.187 E10.43186
G1 X158.852 Y73.095 E10.53957
G1 X159.346 Y74.156 E10.66414
G1 X159.68 Y74.911 E10.75201
G1 X159.885 Y75.481 E10.81648
G1 X160.161 Y76.455 E10.92422
G1 X160.594 Y78.105 E11.10578
G1 X160.731 Y78.857 E11.18714
G1 X160.817 Y79.698 E11.27711
G1 X160.977 Y81.675 E11.48822
G1 X160.977 Y82.318 E11.55666
G1 X160.909 Y83.271 E11.65834
G1 X160.768 Y84.868 E11.82898
G1 X160.57 Y87.559 E12.11616
G1 X160.448 Y90.257 E12.40361
G1 X160.402 Y92.917 E12.68676
G1 X160.434 Y95.645 E12.97713
G1 X160.537 Y98.263 E13.25599
G1 X160.72 Y100.958 E13.54348
G1 X160.917 Y103.065 E13.76871
G1 X161.117 Y104.998 E13.97554
G1 X161.277 Y106.975 E14.18665
G1 X161.277 Y107.617 E14.25498
G1 X161.208 Y108.589 E14.35869
G1 X161.105 Y109.74 E14.48169
G1 X160.974 Y111.017 E14.61831
G1 X160.788 Y112.618 E14.78986
G1 X160.555 Y115.267 E15.07289
G1 X160.391 Y118.009 E15.36524
G1 X160.309 Y120.666 E15.64817
G1 X160.3 Y123.318 E15.93043
G1 X160.368 Y126.015 E16.21757
G1 X160.512 Y128.717 E16.50556
G1 X160.729 Y131.359 E16.7877
G1 X160.864 Y132.555 E16.9158
G1 X161.117 Y134.997 E17.1771
G1 X161.277 Y136.978 E17.38863
G1 X161.276 Y137.619 E17.45685
G1 X161.205 Y138.605 E17.56207
G1 X161.028 Y140.464 E17.76082
G1 X160.941 Y140.974 E17.81588
G1 X160.696 Y141.968 E17.92484
G1 X160.216 Y143.724 E18.1186
G1 X159.956 Y144.448 E18.20047
G1 X159.592 Y145.261 E18.29528
G1 X159.089 Y146.339 E18.42189
G1 X158.741 Y147.051 E18.50624
G1 X158.466 Y147.524 E18.56447
G1 X157.903 Y148.357 E18.67148
G1 X156.84 Y149.856 E18.86706
G1 X156.429 Y150.353 E18.9357
G1 X155.803 Y151 E19.03152
G1 X154.383 Y152.4 E19.24376
G1 X153.893 Y152.81 E19.31176
G1 X153.142 Y153.354 E19.41046
G1 X151.605 Y154.414 E19.60917
G1 X151.113 Y154.705 E19.67001
G1 X150.205 Y155.152 E19.77773
G1 X149.149 Y155.645 E19.90177
G1 X148.44 Y155.961 E19.98438
G1 X147.819 Y156.185 E20.05464
G1 X146.845 Y156.461 E20.16239
G1 X145.195 Y156.894 E20.34395
G1 X144.443 Y157.031 E20.42531
G1 X143.602 Y157.117 E20.51528
G1 X141.623 Y157.277 E20.7266
G1 X140.981 Y157.277 E20.79493
G1 X140.064 Y157.211 E20.89278
G1 X138.061 Y157.021 E21.10692
G1 X136.782 Y156.855 E21.24419
G1 X134.044 Y156.535 E21.53759
G1 X131.41 Y156.304 E21.819
G1 X128.691 Y156.143 E22.1089
G1 X126.007 Y156.058 E22.39471
G1 X123.354 Y156.05 E22.67708
G1 X120.633 Y156.12 E22.96677
G1 X117.96 Y156.263 E23.25167
G1 X115.264 Y156.486 E23.5396
G1 X112.606 Y156.779 E23.82421
G1 X109.982 Y157.146 E24.1062
G1 X106.33 Y157.779 E24.50069
G1 X105.853 Y157.871 E24.55239
G1 X105.453 Y157.93 E24.59543
G1 X104.602 Y158.017 E24.68647
G1 X102.623 Y158.177 E24.89779
G1 X101.982 Y158.177 E24.96601
G1 X101.065 Y158.112 E25.06386
G1 X99.135 Y157.928 E25.2702
G1 X98.626 Y157.841 E25.32516
G1 X97.594 Y157.586 E25.43831
G1 X95.962 Y157.149 E25.61812
G1 X93.336 Y156.485 E25.90641
G1 X90.681 Y155.894 E26.19591
G1 X88.063 Y155.39 E26.47966
G1 X85.439 Y154.959 E26.76268
G1 X82.783 Y154.6 E27.04794
G1 X80.053 Y154.308 E27.34016
G1 X77.546 Y154.11 E27.60781
G1 X75.76 Y153.944 E27.79872
G1 X75.07 Y153.828 E27.87319
G1 X74.06 Y153.577 E27.98396
G1 X72.255 Y153.079 E28.18324
G1 X71.706 Y152.879 E28.24543
G1 X70.839 Y152.492 E28.34648
G1 X69.761 Y151.989 E28.47309
G1 X69.049 Y151.641 E28.55744
G1 X68.576 Y151.366 E28.61567
G1 X67.743 Y150.803 E28.72268
G1 X66.244 Y149.74 E28.91827
G1 X65.747 Y149.329 E28.98691
G1 X65.1 Y148.703 E29.08273
G1 X63.7 Y147.283 E29.29496
G1 X63.29 Y146.793 E29.36296
G1 X62.747 Y146.043 E29.46151
G1 X61.687 Y144.506 E29.66023
G1 X61.335 Y143.901 E29.73473
G1 X60.915 Y143.034 E29.83726
G1 X60.454 Y142.044 E29.95349
G1 X60.12 Y141.289 E30.04136
G1 X59.915 Y140.719 E30.10583
G1 X59.639 Y139.745 E30.21358
G1 X59.206 Y138.095 E30.39514
G1 X59.069 Y137.343 E30.47649
G1 X58.983 Y136.502 E30.56647
G1 X58.823 Y134.525 E30.77758
G1 X58.823 Y133.883 E30.8459
G1 X58.892 Y132.919 E30.94877
G1 X59.183 Y129.467 E31.31748
G1 X59.337 Y126.797 E31.60212
G1 X59.415 Y124.067 E31.8928
G1 X59.417 Y121.45 E32.17134
G1 X59.341 Y118.71 E32.46307
G1 X59.19 Y116.01 E32.75089
G1 X59.033 Y114.187 E32.94563
G1 X59.03 Y114.043 E32.96096
G1 X58.871 Y112.238 E33.15382
G1 X58.824 Y111.604 E33.22148
G1 X58.821 Y110.941 E33.29205
G1 X58.892 Y109.911 E33.40193
G1 X59.296 Y105.417 E33.88217
G1 X59.459 Y102.689 E34.17303
G1 X59.541 Y100.028 E34.45639
G1 X59.548 Y97.378 E34.73843
G1 X59.478 Y94.635 E35.03047
G1 X59.335 Y91.983 E35.31314
G1 X59.037 Y88.522 E35.68287
G1 X58.981 Y87.975 E35.74139
G1 X58.823 Y86.025 E35.94961
G1 X58.823 Y85.385 E36.01773
G1 X58.888 Y84.466 E36.11578
G1 X59.072 Y82.535 E36.32224
G1 X59.159 Y82.026 E36.3772
G1 X59.404 Y81.032 E36.48616
G1 X59.884 Y79.276 E36.67991
G1 X60.144 Y78.552 E36.76178
G1 X60.508 Y77.739 E36.85659
G1 X61.011 Y76.661 E36.9832
G1 X61.359 Y75.949 E37.06755
G1 X61.634 Y75.476 E37.12578
G1 X62.197 Y74.643 E37.23279
G1 X63.26 Y73.144 E37.42837
G1 X63.671 Y72.647 E37.49701
G1 X64.297 Y72 E37.59283
G1 X65.714 Y70.602 E37.80469
G0 F6000 X66.232 Y71.212
G1 F900 X66.629 Y70.875 E37.86012
G1 X67.496 Y70.245 E37.97418
G1 X68.95 Y69.243 E38.16212
G1 X69.393 Y68.984 E38.21674
G1 X70.233 Y68.573 E38.31627
G1 X71.281 Y68.085 E38.43931
G1 X71.984 Y67.772 E38.52121
G1 X72.499 Y67.585 E38.57953
G1 X73.458 Y67.313 E38.68562
G1 X75.108 Y66.88 E38.86718
G1 X75.739 Y66.765 E38.93545
G1 X76.561 Y66.68 E39.0234
G1 X81.134 Y66.287 E39.51191
G1 X83.856 Y65.969 E39.80359
G1 X86.542 Y65.577 E40.0925
G1 X89.169 Y65.12 E40.37629
G1 X91.831 Y64.579 E40.66541
G1 X94.516 Y63.95 E40.95892
G1 X96.176 Y63.522 E41.14137
G1 X97.977 Y63.04 E41.3398
G1 X98.7 Y62.859 E41.41913
G1 X99.182 Y62.773 E41.47124
G1 X100.063 Y62.68 E41.56553
G1 X101.98 Y62.523 E41.77024
G1 X102.562 Y62.521 E41.83219
G1 X103.455 Y62.584 E41.92747
G1 X107.007 Y62.892 E42.30693
G1 X109.745 Y63.054 E42.59885
G1 X112.441 Y63.138 E42.88594
G1 X115.137 Y63.145 E43.17288
G1 X117.87 Y63.075 E43.46385
G1 X120.574 Y62.929 E43.75207
G1 X122.833 Y62.735 E43.99338
G1 X122.974 Y62.731 E44.0084
G1 X124.821 Y62.569 E44.20573
G1 X125.457 Y62.522 E44.27361
G1 X126.073 Y62.522 E44.33917
G1 X129.712 Y62.788 E44.72751
G1 X132.449 Y62.912 E45.01911
G1 X135.113 Y62.959 E45.30269
G1 X137.845 Y62.927 E45.59349
G1 X139.804 Y62.859 E45.80211
G1 X140.81 Y62.814 E45.90929
G1 X141.253 Y62.82 E45.95645
G1 X142.161 Y62.884 E46.05333
G1 X144.03 Y63.061 E46.25314
G1 X144.539 Y63.148 E46.3081
G1 X145.528 Y63.394 E46.41657
G1 X147.274 Y63.874 E46.60929
G1 X147.768 Y64.052 E46.66518
G1 X148.623 Y64.433 E46.76481
G1 X149.689 Y64.93 E46.88999
G1 X150.351 Y65.252 E46.96834
G1 X150.776 Y65.497 E47.02055
G1 X151.595 Y66.05 E47.12573
G1 X153.046 Y67.077 E47.31493
G1 X153.543 Y67.488 E47.38357
G1 X154.131 Y68.059 E47.47081
G1 X155.488 Y69.432 E47.67627
G1 X155.862 Y69.876 E47.73805
G1 X156.395 Y70.612 E47.83477
G1 X157.455 Y72.149 E48.03349
G1 X157.715 Y72.592 E48.08816
G1 X158.127 Y73.433 E48.18783
G1 X158.615 Y74.481 E48.31087
G1 X158.928 Y75.184 E48.39278
G1 X159.115 Y75.699 E48.45109
G1 X159.387 Y76.658 E48.55719
G1 X159.82 Y78.308 E48.73875
G1 X159.935 Y78.939 E48.80701
G1 X160.02 Y79.763 E48.89518
G1 X160.177 Y81.678 E49.09968
G1 X160.179 Y82.261 E49.16173
G1 X160.112 Y83.201 E49.26203
G1 X159.971 Y84.798 E49.43266
G1 X159.772 Y87.5 E49.72102
G1 X159.648 Y90.243 E50.01327
G1 X159.602 Y92.903 E50.29642
G1 X159.634 Y95.654 E50.58923
G1 X159.739 Y98.317 E50.87288
G1 X159.923 Y101.033 E51.16262
G1 X160.121 Y103.148 E51.38871
G1 X160.32 Y105.063 E51.59362
G1 X160.477 Y106.978 E51.79812
G1 X160.479 Y107.56 E51.86007
G1 X160.411 Y108.518 E51.96229
G1 X160.309 Y109.658 E52.0841
G1 X160.179 Y110.925 E52.21966
G1 X159.993 Y112.526 E52.39121
G1 X159.756 Y115.219 E52.67894
G1 X159.592 Y117.961 E52.9713
G1 X159.509 Y120.641 E53.25667
G1 X159.5 Y123.338 E53.54372
G1 X159.569 Y126.058 E53.83331
G1 X159.713 Y128.76 E54.1213
G1 X159.934 Y131.449 E54.40846
G1 X160.068 Y132.638 E54.53581
G1 X160.32 Y135.062 E54.79519
G1 X160.477 Y136.979 E54.99991
G1 X160.478 Y137.562 E55.06196
G1 X160.409 Y138.53 E55.16524
G1 X160.239 Y140.329 E55.35757
G1 X160.152 Y140.839 E55.41263
G1 X159.924 Y141.757 E55.51331
G1 X159.444 Y143.513 E55.70706
G1 X159.226 Y144.121 E55.7758
G1 X158.867 Y144.923 E55.86932
G1 X158.37 Y145.989 E55.99451
G1 X158.048 Y146.651 E56.07286
G1 X157.803 Y147.076 E56.12507
G1 X157.25 Y147.895 E56.23025
G1 X156.223 Y149.346 E56.41945
G1 X155.812 Y149.843 E56.48809
G1 X155.241 Y150.431 E56.57533
G1 X153.868 Y151.788 E56.78079
G1 X153.424 Y152.162 E56.84257
G1 X152.688 Y152.695 E56.93929
G1 X151.151 Y153.755 E57.13801
G1 X150.708 Y154.015 E57.19268
G1 X149.867 Y154.427 E57.29235
G1 X148.823 Y154.914 E57.41496
G1 X148.114 Y155.23 E57.49758
G1 X147.601 Y155.415 E57.55562
G1 X146.642 Y155.687 E57.66172
G1 X144.992 Y156.12 E57.84328
G1 X144.361 Y156.235 E57.91154
G1 X143.537 Y156.32 E57.99971
G1 X141.62 Y156.477 E58.20442
G1 X141.038 Y156.479 E58.26636
G1 X140.139 Y156.415 E58.36229
G1 X138.164 Y156.228 E58.57343
G1 X136.875 Y156.06 E58.71179
G1 X134.137 Y155.74 E59.00518
G1 X131.457 Y155.505 E59.29151
G1 X128.727 Y155.343 E59.58259
G1 X126.032 Y155.258 E59.86956
G1 X123.336 Y155.25 E60.15651
G1 X120.605 Y155.32 E60.44727
G1 X117.917 Y155.464 E60.73377
G1 X115.183 Y155.69 E61.02575
G1 X112.511 Y155.985 E61.31186
G1 X109.856 Y156.356 E61.59719
G1 X106.178 Y156.993 E61.99447
G1 X105.701 Y157.085 E62.04618
G1 X105.371 Y157.134 E62.08169
G1 X104.537 Y157.22 E62.17092
G1 X102.62 Y157.377 E62.37564
G1 X102.038 Y157.379 E62.43758
G1 X101.14 Y157.316 E62.53339
G1 X99.27 Y157.139 E62.73331
G1 X98.761 Y157.052 E62.78827
G1 X97.801 Y156.813 E62.89356
G1 X96.158 Y156.373 E63.07459
G1 X93.532 Y155.709 E63.36288
G1 X90.836 Y155.109 E63.65684
G1 X88.214 Y154.604 E63.94104
G1 X85.546 Y154.166 E64.2288
G1 X82.89 Y153.807 E64.51406
G1 X80.129 Y153.512 E64.80959
G1 X77.62 Y153.313 E65.07747
G1 X75.834 Y153.147 E65.26837
G1 X75.263 Y153.052 E65.32998
G1 X74.272 Y152.806 E65.43866
G1 X72.526 Y152.326 E65.63138
G1 X72.032 Y152.148 E65.68727
G1 X71.177 Y151.767 E65.7869
G1 X70.111 Y151.27 E65.91208
G1 X69.449 Y150.948 E65.99043
G1 X69.024 Y150.703 E66.04264
G1 X68.205 Y150.15 E66.14782
G1 X66.754 Y149.123 E66.33702
G1 X66.257 Y148.712 E66.40566
G1 X65.669 Y148.141 E66.4929
G1 X64.312 Y146.768 E66.69836
G1 X63.938 Y146.324 E66.76014
G1 X63.405 Y145.588 E66.85686
G1 X62.377 Y144.101 E67.04927
G1 X62.055 Y143.552 E67.11701
G1 X61.64 Y142.696 E67.21825
G1 X61.185 Y141.719 E67.33296
G1 X60.872 Y141.016 E67.41487
G1 X60.685 Y140.501 E67.47318
G1 X60.413 Y139.542 E67.57927
G1 X59.98 Y137.892 E67.76083
G1 X59.865 Y137.261 E67.8291
G1 X59.78 Y136.437 E67.91726
G1 X59.623 Y134.522 E68.12177
G1 X59.621 Y133.94 E68.18371
G1 X59.689 Y132.986 E68.28551
G1 X59.982 Y129.513 E68.65646
G1 X60.136 Y126.843 E68.9411
G1 X60.215 Y124.09 E69.23423
G1 X60.217 Y121.428 E69.51756
G1 X60.141 Y118.688 E69.80929
G1 X59.989 Y115.965 E70.09956
G1 X59.833 Y114.168 E70.29154
G1 X59.829 Y114.001 E70.30932
G1 X59.669 Y112.179 E70.50398
G1 X59.622 Y111.545 E70.57165
G1 X59.621 Y110.94 E70.63604
G1 X59.689 Y109.983 E70.73815
G1 X60.095 Y105.47 E71.22042
G1 X60.258 Y102.737 E71.51182
G1 X60.341 Y100.053 E71.79762
G1 X60.348 Y97.358 E72.08446
G1 X60.278 Y94.615 E72.3765
G1 X60.134 Y91.94 E72.66161
G1 X59.834 Y88.453 E73.03412
G1 X59.778 Y87.91 E73.09221
G1 X59.623 Y86.022 E73.29383
G1 X59.621 Y85.441 E73.35567
G1 X59.684 Y84.541 E73.4517
G1 X59.861 Y82.67 E73.65172
G1 X59.948 Y82.161 E73.70668
G1 X60.176 Y81.243 E73.80735
G1 X60.656 Y79.487 E74.00111
G1 X60.874 Y78.879 E74.06985
G1 X61.233 Y78.077 E74.16337
G1 X61.73 Y77.011 E74.28855
G1 X62.052 Y76.349 E74.3669
G1 X62.297 Y75.924 E74.41912
G1 X62.85 Y75.105 E74.52429
G1 X63.877 Y73.654 E74.7135
G1 X64.288 Y73.157 E74.78214
G1 X64.859 Y72.569 E74.86937
G1 X66.232 Y71.212 E75.07483
G0 F6000 X66.75 Y71.822
G1 F900 X67.147 Y71.485 E75.13026
G1 X67.951 Y70.903 E75.2359
G1 X69.354 Y69.934 E75.41737
G1 X69.797 Y69.675 E75.47199
G1 X70.571 Y69.298 E75.56362
G1 X71.608 Y68.815 E75.68538
G1 X72.259 Y68.523 E75.76131
G1 X72.718 Y68.355 E75.81334
G1 X73.661 Y68.087 E75.91768
G1 X75.311 Y67.654 E76.09924
G1 X75.822 Y67.561 E76.15452
G1 X76.629 Y67.477 E76.24087
G1 X81.227 Y67.082 E76.73205
G1 X83.961 Y66.763 E77.02501
G1 X86.658 Y66.369 E77.31511
G1 X89.322 Y65.905 E77.60291
G1 X92.002 Y65.36 E77.89399
G1 X94.716 Y64.725 E78.19065
G1 X96.376 Y64.297 E78.3731
G1 X98.173 Y63.816 E78.57109
G1 X98.841 Y63.647 E78.64443
G1 X99.323 Y63.561 E78.69654
G1 X100.129 Y63.477 E78.78279
G1 X101.986 Y63.323 E78.98112
G1 X102.506 Y63.319 E79.03646
G1 X103.386 Y63.381 E79.13035
G1 X106.96 Y63.691 E79.51217
G1 X109.709 Y63.854 E79.80527
G1 X112.416 Y63.938 E80.09352
G1 X115.155 Y63.945 E80.38504
G1 X117.898 Y63.875 E80.67708
G1 X120.624 Y63.728 E80.96763
G1 X122.902 Y63.532 E81.21098
G1 X123.013 Y63.531 E81.2228
G1 X124.88 Y63.367 E81.42227
G1 X125.516 Y63.32 E81.49015
G1 X126.015 Y63.32 E81.54326
G1 X129.654 Y63.586 E81.9316
G1 X132.435 Y63.712 E82.22789
G1 X135.108 Y63.759 E82.51243
G1 X137.873 Y63.727 E82.80673
G1 X139.832 Y63.658 E83.01536
G1 X140.802 Y63.614 E83.11871
G1 X141.197 Y63.618 E83.16075
G1 X142.087 Y63.681 E83.25572
G1 X143.895 Y63.85 E83.44898
G1 X144.404 Y63.937 E83.50394
