;FLAVOR:Marlin
;TIME:2311
;Filament used: 4.59655m
;Layer height: 0.32
;MINX:92.5
;MINY:87.5
;MINZ:0.32
;MAXX:127.5
;MAXY:132.5
;MAXZ:20.04
;TARGET_MACHINE.NAME:Creality Ender-3 Pro
;Generated with Cura_SteamEngine 5.5.0
M82 ;absolute extrusion mode
; Ender 3 Custom Start G-code
G92 E0 ; Reset Extruder
G28 ; Home all axes
G1 Z5.0 F3000 ; Move Z Axis up a bit during heating to not damage bed
M104 S120 ; Start heating up the nozzle most of the way
M190 S70 ; Start heating the bed, wait until target temperature reached
M109 S235.0 ; Finish heating the nozzle
G1 Z2.0 F3000 ; Move Z Axis up little to prevent scratching of Heat Bed
G1 X0.1 Y20 Z0.3 F5000.0 ; Move to start position
G1 X0.1 Y200.0 Z0.3 F1500.0 E15 ; Draw the first line
G1 X0.4 Y200.0 Z0.3 F5000.0 ; Move to side a little
G1 X0.4 Y20 Z0.3 F1500.0 E30 ; Draw the second line
G92 E0 ; Reset Extruder
G1 Z2.0 F3000 ; Move Z Axis up little to prevent scratching of Heat Bed
G1 X5 Y20 Z0.3 F5000.0 ; Move over to prevent blob squish
G92 E0
G92 E0
G1 F1500 E-6.5
;LAYER_COUNT:62
;LAYER:0
M107
G1 F300 Z0.52
G0 F6000 X93.956 Y88.984 Z0.52
;TYPE:SKIRT
G1 F300 Z0.32
G1 F1500 E0
G1 F900 X94.528 Y88.489 E0.08051
G1 X95.185 Y88.076 E0.1631
G1 X95.894 Y87.772 E0.24521
G1 X96.627 Y87.582 E0.3258
G1 X97.371 Y87.51 E0.40536
G1 X97.735 Y87.501 E0.44411
G1 X121.867 Y87.5 E3.01254
G1 X122.687 Y87.516 E3.09983
G1 X123.322 Y87.574 E3.1677
G1 X124.073 Y87.762 E3.25009
G1 X124.778 Y88.059 E3.33151
G1 X125.429 Y88.459 E3.41284
G1 X126.019 Y88.959 E3.49515
G1 X126.518 Y89.539 E3.57658
G1 X126.922 Y90.184 E3.65758
G1 X127.228 Y90.893 E3.73977
G1 X127.419 Y91.637 E3.82153
G1 X127.49 Y92.371 E3.90001
G1 X127.499 Y92.734 E3.93866
G1 X127.5 Y126.828 E7.56737
G1 X127.485 Y127.678 E7.65785
G1 X127.426 Y128.319 E7.72636
G1 X127.246 Y129.052 E7.80669
G1 X126.946 Y129.772 E7.88971
G1 X126.545 Y130.425 E7.97127
G1 X126.053 Y131.006 E8.0523
G1 X125.469 Y131.515 E8.13475
G1 X124.819 Y131.922 E8.21638
G1 X124.121 Y132.222 E8.29724
G1 X123.372 Y132.418 E8.37964
G1 X122.629 Y132.49 E8.45909
G1 X122.265 Y132.499 E8.49784
G1 X98.14 Y132.5 E11.06552
G1 X97.32 Y132.485 E11.15281
G1 X96.679 Y132.426 E11.22132
G1 X95.94 Y132.244 E11.30233
G1 X95.231 Y131.946 E11.38418
G1 X94.569 Y131.542 E11.46673
G1 X93.992 Y131.051 E11.54736
G1 X93.488 Y130.471 E11.62914
G1 X93.077 Y129.817 E11.71135
G1 X92.776 Y129.117 E11.79245
G1 X92.581 Y128.368 E11.87483
G1 X92.51 Y127.625 E11.95427
G1 X92.501 Y127.25 E11.99419
G1 X92.5 Y93.104 E15.62843
G1 X92.515 Y92.319 E15.712
G1 X92.572 Y91.683 E15.77996
G1 X92.759 Y90.934 E15.86213
G1 X93.058 Y90.223 E15.94422
G1 X93.459 Y89.567 E16.02605
G1 X93.956 Y88.984 E16.10759
G0 F6000 X94.525 Y89.55
G1 F900 X95.008 Y89.132 E16.17557
G1 X95.557 Y88.787 E16.24458
G1 X96.151 Y88.532 E16.31338
G1 X96.77 Y88.372 E16.38143
G1 X97.392 Y88.31 E16.44796
G1 X97.735 Y88.301 E16.48448
G1 X121.853 Y88.3 E19.05141
G1 X122.614 Y88.313 E19.13242
G1 X123.19 Y88.366 E19.19399
G1 X123.821 Y88.524 E19.26322
G1 X124.406 Y88.77 E19.33076
G1 X124.963 Y89.112 E19.40033
G1 X125.449 Y89.524 E19.46814
G1 X125.873 Y90.017 E19.53735
G1 X126.214 Y90.561 E19.60568
G1 X126.468 Y91.149 E19.67385
G1 X126.629 Y91.777 E19.74285
G1 X126.69 Y92.392 E19.80863
G1 X126.699 Y92.734 E19.84504
G1 X126.7 Y126.816 E23.47247
G1 X126.688 Y127.605 E23.55646
G1 X126.635 Y128.186 E23.61855
G1 X126.482 Y128.805 E23.68642
G1 X126.232 Y129.405 E23.7556
G1 X125.894 Y129.956 E23.8244
G1 X125.484 Y130.44 E23.89191
G1 X124.991 Y130.87 E23.96153
G1 X124.445 Y131.212 E24.0301
G1 X123.86 Y131.464 E24.0979
G1 X123.231 Y131.628 E24.16708
G1 X122.608 Y131.69 E24.23372
G1 X122.265 Y131.699 E24.27024
G1 X98.153 Y131.7 E26.83654
G1 X97.393 Y131.688 E26.91743
G1 X96.812 Y131.635 E26.97953
G1 X96.193 Y131.482 E27.04739
G1 X95.59 Y131.229 E27.11699
G1 X95.044 Y130.895 E27.18511
G1 X94.557 Y130.481 E27.25315
G1 X94.131 Y129.991 E27.32225
G1 X93.788 Y129.445 E27.39088
G1 X93.535 Y128.856 E27.45911
G1 X93.371 Y128.228 E27.52819
G1 X93.31 Y127.605 E27.59481
G1 X93.301 Y127.25 E27.63261
G1 X93.3 Y93.117 E31.26546
G1 X93.312 Y92.391 E31.34275
G1 X93.364 Y91.814 E31.40441
G1 X93.521 Y91.185 E31.47341
G1 X93.772 Y90.588 E31.54233
G1 X94.106 Y90.042 E31.61046
G1 X94.525 Y89.55 E31.67924
G0 F6000 X95.094 Y90.116
G1 F900 X95.488 Y89.775 E31.7347
G1 X95.929 Y89.498 E31.79012
G1 X96.408 Y89.292 E31.84562
G1 X96.912 Y89.162 E31.90102
G1 X97.414 Y89.11 E31.95473
G1 X97.735 Y89.101 E31.98891
G1 X121.842 Y89.1 E34.55468
G1 X122.54 Y89.11 E34.62897
G1 X123.059 Y89.158 E34.68445
G1 X123.564 Y89.284 E34.73984
G1 X124.045 Y89.486 E34.79537
G1 X124.489 Y89.759 E34.85084
G1 X124.886 Y90.096 E34.90627
G1 X125.226 Y90.491 E34.96174
G1 X125.503 Y90.933 E35.01726
G1 X125.709 Y91.411 E35.07265
G1 X125.839 Y91.916 E35.12815
G1 X125.89 Y92.414 E35.18144
G1 X125.899 Y92.734 E35.21551
G1 X125.9 Y126.806 E38.84187
G1 X125.891 Y127.533 E38.91926
G1 X125.844 Y128.052 E38.97472
G1 X125.719 Y128.558 E39.03019
G1 X125.518 Y129.039 E39.08568
G1 X125.246 Y129.483 E39.1411
G1 X124.909 Y129.881 E39.1966
G1 X124.516 Y130.223 E39.25205
G1 X124.074 Y130.5 E39.30757
G1 X123.596 Y130.706 E39.36297
G1 X123.091 Y130.838 E39.41852
G1 X122.586 Y130.89 E39.47255
G1 X122.265 Y130.899 E39.50673
G1 X98.163 Y130.9 E42.07197
G1 X97.465 Y130.891 E42.14626
G1 X96.946 Y130.844 E42.20173
G1 X96.44 Y130.719 E42.2572
G1 X95.96 Y130.517 E42.31263
G1 X95.515 Y130.245 E42.36814
G1 X95.118 Y129.908 E42.42356
G1 X94.776 Y129.514 E42.47909
G1 X94.499 Y129.073 E42.53452
G1 X94.293 Y128.594 E42.59001
G1 X94.162 Y128.09 E42.64544
G1 X94.11 Y127.583 E42.69968
G1 X94.101 Y127.25 E42.73514
G1 X94.1 Y93.128 E46.36682
G1 X94.109 Y92.463 E46.43761
G1 X94.156 Y91.944 E46.49307
G1 X94.282 Y91.438 E46.54857
G1 X94.484 Y90.958 E46.604
G1 X94.756 Y90.513 E46.65951
G1 X95.094 Y90.116 E46.715
G1 F1500 E40.215
G1 F300 Z0.52
;MESH:SolarBefestigungsKlotz.stl
G0 F6000 X99.572 Y125.39 Z0.52
;TYPE:WALL-INNER
G1 F300 Z0.32
G1 F1500 E46.715
G1 F857.1 X99.468 Y125.39 E46.72662
G1 X99.415 Y125.48 E46.7383
G1 X99.468 Y125.57 E46.74997
G1 X99.572 Y125.57 E46.76159
G1 X99.625 Y125.48 E46.77326
G1 F1500 E40.27326
G1 F300 Z0.52
G0 F6000 X102.656 Y126.169 Z0.52
G1 F300 Z0.32
G1 F1500 E46.77326
G1 F730.2 X102.226 Y126.009 E46.83345
G1 F841.1 X101.872 Y125.865 E46.87697
G1 F900 X101.389 Y125.695 E46.93147
G1 X101.04 Y125.533 E46.97242
G1 X100.68 Y125.327 E47.01657
G1 X100.312 Y125.07 E47.06434
G1 X100.056 Y124.86 E47.09958
G1 X99.791 Y124.605 E47.13872
G1 X99.408 Y124.177 E47.19985
G1 X99.081 Y123.66 E47.26496
G1 X98.862 Y123.234 E47.31594
G1 X98.7 Y122.83 E47.36227
G1 X98.7 Y126.3 E47.73159
G1 X101.819 Y126.3 E48.06355
G1 F841.1 X102.204 Y126.244 E48.10786
G1 F730.2 X102.656 Y126.169 E48.16796
G1 F699 X103.147 Y126.2 E48.23538
G1 F725.1 X103.498 Y126.207 E48.28176
G1 X103.853 Y126.2 E48.32866
G1 F699.7 X104.317 Y126.173 E48.39229
G1 F1500 E41.89229
G1 F300 Z0.52
G0 F6000 X107.146 Y125.5 Z0.52
G1 F300 Z0.32
G1 F1500 E48.39229
G1 F900 X120.5 Y125.5 E49.81359
G1 X120.5 Y94.5 E53.113
G1 X99.5 Y94.5 E55.34808
G1 X99.501 Y117.007 E57.74355
G1 X99.706 Y116.831 E57.77231
G1 X100.182 Y116.484 E57.835
G1 X100.569 Y116.25 E57.88314
G1 X101.003 Y116.028 E57.93502
G1 X101.301 Y115.901 E57.9695
G1 X101.686 Y115.779 E58.01248
G1 X102.276 Y115.665 E58.07644
G1 X102.742 Y115.614 E58.12633
G1 X103.038 Y115.601 E58.15787
G1 X103.518 Y115.611 E58.20896
G1 X104.089 Y115.669 E58.27005
G1 X104.757 Y115.822 E58.34299
G1 X105.202 Y115.967 E58.3928
G1 X105.59 Y116.127 E58.43747
G1 X106.025 Y116.347 E58.48935
G1 X106.477 Y116.637 E58.54651
G1 X106.935 Y116.986 E58.6078
G1 X107.414 Y117.455 E58.67915
G1 X107.837 Y117.976 E58.75057
G1 X108.138 Y118.44 E58.80944
G1 X108.433 Y119.033 E58.87993
G1 X108.66 Y119.672 E58.95211
G1 X108.772 Y120.18 E59.00747
G1 X108.863 Y120.753 E59.06922
G1 X108.905 Y121.192 E59.11616
G1 X108.912 Y121.73 E59.17342
G1 X108.859 Y122.271 E59.23128
G1 X108.797 Y122.638 E59.27089
G1 X108.722 Y122.937 E59.3037
G1 X108.536 Y123.496 E59.36641
G1 X108.31 Y123.994 E59.42461
G1 X108.157 Y124.268 E59.45801
G1 X107.888 Y124.676 E59.51003
G1 X107.722 Y124.893 E59.5391
G1 X107.461 Y125.19 E59.58119
G1 X107.146 Y125.5 E59.62823
G1 F1500 E53.12823
G1 F300 Z0.52
G0 F6000 X104.317 Y126.173 Z0.52
G1 F300 Z0.32
G1 F1500 E59.62823
G1 F755.5 X104.96 Y126.275 E59.71077
G1 F873.8 X105.249 Y126.3 E59.74257
G1 F900 X121.3 Y126.3 E61.45092
G1 X121.3 Y93.7 E64.92061
G1 X98.7 Y93.7 E67.32599
G1 X98.701 Y119.449 E70.06651
G1 X98.935 Y118.982 E70.12211
G1 X99.149 Y118.629 E70.16604
G1 X99.395 Y118.285 E70.21106
G1 X99.681 Y117.95 E70.25794
G1 X100.127 Y117.515 E70.32425
G1 X100.603 Y117.164 E70.38719
G1 X100.941 Y116.958 E70.42932
G1 X101.234 Y116.804 E70.46455
G1 X101.73 Y116.586 E70.52222
G1 X102.372 Y116.459 E70.59187
G1 X102.778 Y116.413 E70.63536
G1 X103.167 Y116.4 E70.67678
G1 X103.586 Y116.418 E70.72142
G1 X104.018 Y116.473 E70.76777
G1 X104.519 Y116.586 E70.82243
G1 X104.902 Y116.709 E70.86524
G1 X105.254 Y116.853 E70.90572
G1 X105.678 Y117.074 E70.95661
G1 X106.144 Y117.381 E71.01601
G1 X106.456 Y117.637 E71.05896
G1 X106.824 Y117.995 E71.1136
G1 X107.22 Y118.495 E71.18149
G1 X107.476 Y118.903 E71.23275
G1 X107.701 Y119.359 E71.28687
G1 X107.903 Y119.955 E71.35385
G1 X107.982 Y120.305 E71.39204
G1 X108.084 Y120.968 E71.46343
G1 X108.108 Y121.258 E71.4944
G1 X108.108 Y121.737 E71.54539
G1 X108.07 Y122.137 E71.58815
G1 X107.993 Y122.595 E71.63758
G1 X107.808 Y123.149 E71.69974
G1 X107.548 Y123.739 E71.76837
G1 X107.171 Y124.31 E71.84119
G1 X106.786 Y124.739 E71.90254
G1 X106.466 Y125.034 E71.94886
G1 X106.082 Y125.324 E72.00008
G1 X105.797 Y125.502 E72.03584
G1 X105.279 Y125.756 E72.09725
G1 F849.1 X104.781 Y125.982 E72.15894
G1 F736.9 X104.317 Y126.173 E72.22417
G0 F6000 X103.814 Y125.301
;TYPE:WALL-OUTER
G1 F900 X103.48 Y125.314 E72.25974
G1 X103.152 Y125.298 E72.29469
G1 X102.835 Y125.256 E72.32873
G1 F901.1 X102.37 Y125.164 E72.37911
G1 X102.031 Y125.078 E72.41629
G1 F900 X101.748 Y124.978 E72.44824
G1 X101.429 Y124.834 E72.48549
G1 X101.132 Y124.667 E72.52175
G1 X100.819 Y124.451 E72.56223
G1 X100.561 Y124.238 E72.59784
G1 X100.35 Y124.032 E72.62922
G1 X100.067 Y123.713 E72.67461
G1 X99.789 Y123.287 E72.72875
G1 X99.6 Y122.925 E72.77221
G1 X99.469 Y122.607 E72.80882
G1 F833.3 X99.309 Y122.328 E72.84579
G1 F757.1 X99.274 Y122.289 E72.85242
G1 F693.6 X99.142 Y121.995 E72.89692
G1 F661.8 X99.103 Y121.647 E72.94761
G1 F676.1 X99.086 Y121.298 E72.99712
G1 F676.7 X99.1 Y120.726 E73.07811
G1 F662.4 X99.153 Y120.249 E73.14752
G1 F666 X99.188 Y120.197 E73.15653
G1 F737.7 X99.37 Y119.82 E73.21089
G1 F850.1 X99.443 Y119.756 E73.22183
G1 F900 X99.607 Y119.42 E73.26162
G1 X99.803 Y119.089 E73.30257
G1 X99.993 Y118.819 E73.3377
G1 X100.24 Y118.522 E73.37882
G1 X100.627 Y118.144 E73.4364
G1 X101.024 Y117.844 E73.48936
G1 X101.313 Y117.666 E73.52548
G1 X101.606 Y117.512 E73.56071
G1 X101.969 Y117.355 E73.6028
G1 X102.468 Y117.253 E73.65701
G1 X102.782 Y117.215 E73.69068
G1 X103.108 Y117.2 E73.72541
G1 X103.496 Y117.213 E73.76673
G1 X103.85 Y117.255 E73.80467
G1 X104.246 Y117.34 E73.84778
G1 X104.602 Y117.451 E73.88747
G1 X104.918 Y117.579 E73.92375
G1 X105.245 Y117.747 E73.96288
G1 X105.612 Y117.983 E74.00932
G1 X105.872 Y118.188 E74.04456
G1 X106.25 Y118.554 E74.10056
G1 X106.549 Y118.931 E74.15177
G1 X106.759 Y119.259 E74.19323
G1 X106.967 Y119.684 E74.24359
G1 X107.112 Y120.095 E74.28997
G1 X107.192 Y120.431 E74.32673
G1 X107.283 Y121.004 E74.38848
G1 X107.31 Y121.324 E74.42266
G1 X107.31 Y121.671 E74.45959
G1 X107.281 Y122.004 E74.49517
G1 X107.204 Y122.431 E74.54135
G1 X107.049 Y122.896 E74.59352
G1 X106.854 Y123.33 E74.64416
G1 X106.52 Y123.837 E74.70878
G1 X106.259 Y124.134 E74.75086
G1 X105.978 Y124.4 E74.79204
G1 X105.658 Y124.645 E74.83494
G1 X105.332 Y124.845 E74.87564
G1 X104.898 Y125.049 E74.92668
G1 X104.626 Y125.145 E74.95738
G1 X104.157 Y125.258 E75.00873
G1 X103.814 Y125.301 E75.04552
G1 F1500 E68.54552
G1 F300 Z0.52
G0 F6000 X122.1 Y127.1 Z0.52
G1 F300 Z0.32
G1 F1500 E75.04552
G1 F900 X122.1 Y92.9 E78.68551
G1 X97.9 Y92.9 E81.26117
G1 X97.901 Y119.4 E84.08163
G1 F850.1 X97.947 Y119.639 E84.10906
G1 F720 X98.053 Y120.168 E84.18084
G1 F663.6 X98.032 Y120.767 E84.26735
G1 F678.6 X98.028 Y121.263 E84.33737
G1 F666.7 X98.052 Y122.115 E84.45984
G1 F709.4 X97.964 Y122.545 E84.51911
G1 F833.3 X97.9 Y122.86 E84.55605
G1 F900 X97.9 Y127.1 E85.00733
G1 X122.1 Y127.1 E87.58299
G1 F1500 E81.08299
G1 F300 Z0.52
G0 F6000 X108.695 Y124.779 Z0.52
;TYPE:SKIN
G1 F300 Z0.32
G1 F1500 E87.58299
G1 F900 X108.955 Y124.316 E87.63951
G1 X109.142 Y123.903 E87.68776
G1 X109.256 Y123.62 E87.72023
G1 X109.414 Y123.138 E87.77422
G1 X109.503 Y122.781 E87.81338
G1 X109.594 Y122.198 E87.87618
G1 X109.631 Y121.653 E87.93432
G1 X109.623 Y121.131 E87.98988
G1 X109.599 Y120.841 E88.02086
G1 X109.483 Y120.062 E88.10468
G1 X109.379 Y119.588 E88.15633
G1 X109.297 Y119.31 E88.18718
G1 X109.155 Y118.915 E88.23185
G1 X109.044 Y118.646 E88.26282
G1 X108.822 Y118.196 E88.31623
G1 X108.692 Y117.971 E88.34389
G1 X108.436 Y117.572 E88.39434
G1 X107.969 Y116.994 E88.47343
G1 X107.432 Y116.467 E88.55351
G1 X106.964 Y116.092 E88.61734
G1 X106.405 Y115.733 E88.68805
G1 X105.901 Y115.477 E88.74821
G1 X105.339 Y115.246 E88.81288
G1 X104.725 Y115.069 E88.88089
G1 X104.225 Y114.961 E88.93534
G1 X103.757 Y114.908 E88.98547
G1 X103.233 Y114.882 E89.04131
G1 X102.718 Y114.894 E89.09613
G1 X102.2 Y114.948 E89.15156
G1 X101.543 Y115.075 E89.22278
G1 X100.924 Y115.267 E89.29176
G1 X100.22 Y115.619 E89.37553
G1 X100.22 Y95.22 E91.54665
G1 X119.78 Y95.22 E93.62847
G1 X119.78 Y124.78 E96.77461
G1 X108.695 Y124.779 E97.95441
G0 F6000 X109.46 Y124.167
G1 F900 X109.669 Y124.377 E97.98595
G0 F6000 X109.766 Y123.342
G1 F900 X110.8 Y124.377 E98.14166
G0 F6000 X111.932 Y124.377
G1 F900 X109.962 Y122.407 E98.43818
G0 F6000 X110.025 Y121.338
G1 F900 X113.064 Y124.377 E98.89561
G0 F6000 X114.195 Y124.377
G1 F900 X109.889 Y120.071 E99.54374
G1 F1500 E93.04374
G1 F300 Z0.52
G0 F6000 X109.387 Y118.438 Z0.52
G1 F300 Z0.32
G1 F1500 E99.54374
G1 F900 X115.326 Y124.377 E100.43766
G0 F6000 X116.459 Y124.378
G1 F900 X100.619 Y108.538 E102.82187
G0 F6000 X100.619 Y107.407
G1 F900 X117.59 Y124.378 E105.37632
G0 F6000 X118.721 Y124.378
G1 F900 X100.619 Y106.276 E108.101
G0 F6000 X100.619 Y105.144
G1 F900 X119.38 Y123.905 E110.92487
G0 F6000 X119.38 Y122.774
G1 F900 X100.619 Y104.013 E113.74874
G0 F6000 X100.619 Y102.881
G1 F900 X119.38 Y121.642 E116.57261
G0 F6000 X119.38 Y120.511
G1 F900 X100.619 Y101.75 E119.39648
G0 F6000 X100.619 Y100.619
G1 F900 X119.38 Y119.38 E122.22036
G0 F6000 X119.38 Y118.248
G1 F900 X100.619 Y99.487 E125.04423
G0 F6000 X100.619 Y98.356
G1 F900 X119.38 Y117.117 E127.8681
G0 F6000 X119.38 Y115.986
G1 F900 X100.619 Y97.225 E130.69197
G0 F6000 X100.619 Y96.093
G1 F900 X119.38 Y114.854 E133.51584
G0 F6000 X119.38 Y113.723
G1 F900 X101.276 Y95.619 E136.24082
G0 F6000 X102.408 Y95.619
G1 F900 X119.38 Y112.591 E138.79542
G0 F6000 X119.38 Y111.46
G1 F900 X103.539 Y95.619 E141.17978
G0 F6000 X104.67 Y95.619
G1 F900 X119.38 Y110.329 E143.3939
G0 F6000 X119.379 Y109.197
G1 F900 X105.802 Y95.619 E145.43756
G0 F6000 X106.933 Y95.619
G1 F900 X119.379 Y108.065 E147.31091
G0 F6000 X119.379 Y106.934
G1 F900 X108.065 Y95.619 E149.01395
G0 F6000 X109.196 Y95.619
G1 F900 X119.379 Y105.802 E150.54667
G0 F6000 X119.379 Y104.671
G1 F900 X110.327 Y95.619 E151.90916
G0 F6000 X111.459 Y95.619
G1 F900 X119.379 Y103.54 E153.10134
G0 F6000 X119.379 Y102.408
G1 F900 X112.59 Y95.619 E154.12321
G0 F6000 X113.721 Y95.619
G1 F900 X119.379 Y101.277 E154.97484
G0 F6000 X119.379 Y100.146
G1 F900 X114.853 Y95.619 E155.65616
G0 F6000 X115.984 Y95.619
G1 F900 X119.379 Y99.014 E156.16717
G0 F6000 X119.379 Y97.883
G1 F900 X117.115 Y95.619 E156.50795
G0 F6000 X118.247 Y95.619
G1 F900 X119.379 Y96.752 E156.67841
G1 F1500 E150.17841
G1 F300 Z0.52
G0 F6000 X106.06 Y115.111 Z0.52
M104 S230
G1 F300 Z0.32
G1 F1500 E156.67841
G1 F900 X100.619 Y109.67 E157.49738
G0 F6000 X100.619 Y110.801
G1 F900 X104.407 Y114.59 E158.06762
G0 F6000 X103.169 Y114.483
