;FLAVOR:Marlin
;TIME:13603
;Filament used: 28.2632m
;Layer height: 0.32
;MINX:84.901
;MINY:77.4
;MINZ:0.32
;MAXX:135.5
;MAXY:142.599
;MAXZ:70.28
;TARGET_MACHINE.NAME:Creality Ender-3 Pro
;Generated with Cura_SteamEngine 5.5.0
M82 ;absolute extrusion mode
; Ender 3 Custom Start G-code
G92 E0 ; Reset Extruder
G28 ; Home all axes
G1 Z5.0 F3000 ; Move Z Axis up a bit during heating to not damage bed
M104 S120 ; Start heating up the nozzle most of the way
M190 S70 ; Start heating the bed, wait until target temperature reached
M109 S235.0 ; Finish heating the nozzle
G1 Z2.0 F3000 ; Move Z Axis up little to prevent scratching of Heat Bed
G1 X0.1 Y20 Z0.3 F5000.0 ; Move to start position
G1 X0.1 Y200.0 Z0.3 F1500.0 E15 ; Draw the first line
G1 X0.4 Y200.0 Z0.3 F5000.0 ; Move to side a little
G1 X0.4 Y20 Z0.3 F1500.0 E30 ; Draw the second line
G92 E0 ; Reset Extruder
G1 Z2.0 F3000 ; Move Z Axis up little to prevent scratching of Heat Bed
G1 X5 Y20 Z0.3 F5000.0 ; Move over to prevent blob squish
G92 E0
G92 E0
G1 F1500 E-6.5
;LAYER_COUNT:219
;LAYER:0
M107
G1 F300 Z0.52
G0 F6000 X87.795 Y80.734 Z0.52
;TYPE:SKIRT
G1 F300 Z0.32
G1 F1500 E0
G1 F900 X88.24 Y80.292 E0.06676
G1 X88.516 Y80.04 E0.10653
G1 X88.975 Y79.658 E0.17009
G1 X89.28 Y79.427 E0.21081
G1 X89.771 Y79.094 E0.27396
G1 X90.262 Y78.795 E0.33514
G1 X90.642 Y78.588 E0.3812
G1 X91.141 Y78.347 E0.44018
G1 X91.616 Y78.147 E0.49503
G1 X92.112 Y77.966 E0.55123
G1 X92.728 Y77.781 E0.61968
G1 X93.564 Y77.588 E0.711
G1 X94.085 Y77.504 E0.76717
G1 X94.612 Y77.447 E0.82358
G1 X95.201 Y77.411 E0.88639
G1 X96.12 Y77.4 E0.98421
G1 X131.843 Y77.401 E4.78629
G1 X132.727 Y77.425 E4.88041
G1 X133.246 Y77.496 E4.93617
G1 X133.911 Y77.756 E5.01216
G1 X134.504 Y78.171 E5.0892
G1 X134.978 Y78.71 E5.16559
G1 X135.327 Y79.385 E5.24647
G1 X135.486 Y80.197 E5.33453
G1 X135.5 Y80.683 E5.38628
G1 X135.5 Y89.337 E6.30735
G1 X135.486 Y90.299 E6.40974
G1 X135.116 Y92.234 E6.61942
G1 X134.649 Y94.947 E6.91242
G1 X134.255 Y97.709 E7.20936
G1 X133.95 Y100.394 E7.49697
G1 X133.72 Y103.085 E7.78443
G1 X133.559 Y105.908 E8.08537
G1 X133.483 Y108.61 E8.37307
G1 X133.482 Y111.348 E8.66448
G1 X133.556 Y114.051 E8.95227
G1 X133.714 Y116.863 E9.25203
G1 X133.942 Y119.548 E9.53883
G1 X134.252 Y122.287 E9.83221
G1 X134.632 Y124.966 E10.1202
G1 X135.107 Y127.744 E10.42016
G1 X135.482 Y129.673 E10.62931
G1 X135.5 Y130.284 E10.69437
G1 X135.5 Y138.91 E11.61246
G1 X135.476 Y139.826 E11.70998
G1 X135.406 Y140.338 E11.76498
G1 X135.147 Y141.009 E11.84153
G1 X134.728 Y141.605 E11.91907
G1 X134.191 Y142.075 E11.99503
G1 X133.523 Y142.424 E12.07524
G1 X132.699 Y142.585 E12.1646
G1 X132.215 Y142.599 E12.21614
G1 X96.118 Y142.599 E16.05803
G1 X95.13 Y142.583 E16.1632
G1 X94.765 Y142.565 E16.20209
G1 X94.217 Y142.513 E16.26068
G1 X93.708 Y142.439 E16.31542
G1 X93.225 Y142.345 E16.36779
G1 X92.732 Y142.223 E16.42185
G1 X92.197 Y142.062 E16.48131
G1 X91.703 Y141.886 E16.53713
G1 X91.279 Y141.714 E16.58583
G1 X90.82 Y141.502 E16.63964
G1 X90.354 Y141.257 E16.69567
G1 X89.986 Y141.042 E16.74103
G1 X89.455 Y140.697 E16.80843
G1 X89.081 Y140.424 E16.85771
G1 X88.644 Y140.072 E16.91744
G1 X88.222 Y139.693 E16.9778
G1 X87.833 Y139.305 E17.03628
G1 X87.573 Y139.018 E17.0775
G1 X86.966 Y138.268 E17.18019
G1 X86.563 Y137.684 E17.25571
G1 X86.367 Y137.363 E17.29574
G1 X86.084 Y136.846 E17.35847
G1 X85.891 Y136.439 E17.40641
G1 X85.467 Y135.393 E17.52654
G1 X85.341 Y134.994 E17.57107
G1 X85.196 Y134.442 E17.63182
G1 X85.069 Y133.832 E17.69813
G1 X84.993 Y133.326 E17.75259
G1 X84.945 Y132.865 E17.80192
G1 X84.907 Y132.081 E17.88546
G1 X84.901 Y88.585 E22.51485
G1 X84.917 Y87.63 E22.6165
G1 X84.935 Y87.265 E22.6554
G1 X84.987 Y86.718 E22.71388
G1 X85.069 Y86.159 E22.77401
G1 X85.155 Y85.726 E22.821
G1 X85.289 Y85.19 E22.8798
G1 X85.448 Y84.666 E22.93808
G1 X85.577 Y84.299 E22.97949
G1 X85.812 Y83.721 E23.0459
G1 X86.147 Y83.033 E23.12734
G1 X86.73 Y82.068 E23.24734
G1 X87.101 Y81.551 E23.31506
G1 X87.429 Y81.142 E23.37086
G1 X87.795 Y80.734 E23.4292
G0 F6000 X88.359 Y81.302
G1 F900 X88.804 Y80.86 E23.49595
G1 X89.055 Y80.631 E23.53212
G1 X89.458 Y80.296 E23.58789
G1 X89.763 Y80.065 E23.62861
G1 X90.188 Y79.777 E23.68326
G1 X90.645 Y79.498 E23.74024
G1 X91.025 Y79.291 E23.7863
G1 X91.453 Y79.084 E23.8369
G1 X91.89 Y78.899 E23.88741
G1 X92.386 Y78.718 E23.9436
G1 X92.909 Y78.56 E24.00175
G1 X93.691 Y78.378 E24.08721
G1 X94.212 Y78.294 E24.14337
G1 X94.661 Y78.246 E24.19143
G1 X95.25 Y78.21 E24.25424
G1 X96.12 Y78.2 E24.34684
G1 X131.826 Y78.201 E28.14712
G1 X132.619 Y78.218 E28.23154
G1 X133.044 Y78.276 E28.27719
G1 X133.532 Y78.467 E28.33297
G1 X133.966 Y78.771 E28.38936
G1 X134.313 Y79.166 E28.44532
G1 X134.564 Y79.65 E28.50335
G1 X134.688 Y80.284 E28.57211
G1 X134.7 Y80.706 E28.61704
G1 X134.7 Y89.325 E29.53438
G1 X134.687 Y90.217 E29.62933
G1 X134.33 Y92.084 E29.83164
G1 X133.857 Y94.834 E30.12863
G1 X133.463 Y97.596 E30.42557
G1 X133.155 Y100.304 E30.71565
G1 X132.921 Y103.039 E31.0078
G1 X132.76 Y105.862 E31.30875
G1 X132.683 Y108.587 E31.59889
G1 X132.682 Y111.37 E31.89509
G1 X132.757 Y114.096 E32.18534
G1 X132.915 Y116.908 E32.4851
G1 X133.147 Y119.638 E32.77671
G1 X133.457 Y122.381 E33.07051
G1 X133.843 Y125.101 E33.36291
G1 X134.318 Y127.879 E33.66287
G1 X134.684 Y129.758 E33.86661
G1 X134.7 Y130.307 E33.92507
G1 X134.7 Y138.893 E34.8389
G1 X134.683 Y139.717 E34.92662
G1 X134.625 Y140.14 E34.97206
G1 X134.436 Y140.63 E35.02795
G1 X134.13 Y141.065 E35.08456
G1 X133.736 Y141.41 E35.1403
G1 X133.254 Y141.662 E35.19819
G1 X132.614 Y141.787 E35.26759
G1 X132.192 Y141.799 E35.31252
G1 X96.13 Y141.799 E39.15069
G1 X95.169 Y141.784 E39.25298
G1 X94.804 Y141.766 E39.29188
G1 X94.332 Y141.721 E39.34234
G1 X93.823 Y141.647 E39.39709
G1 X93.417 Y141.568 E39.44111
G1 X92.924 Y141.446 E39.49516
G1 X92.464 Y141.308 E39.54628
G1 X92.004 Y141.145 E39.59822
G1 X91.58 Y140.973 E39.64692
G1 X91.192 Y140.794 E39.6924
G1 X90.758 Y140.566 E39.74458
G1 X90.39 Y140.351 E39.78994
G1 X89.927 Y140.051 E39.84866
G1 X89.553 Y139.778 E39.89794
G1 X89.147 Y139.45 E39.95349
G1 X88.786 Y139.126 E40.00512
G1 X88.426 Y138.768 E40.05915
G1 X88.166 Y138.481 E40.10037
G1 X87.624 Y137.813 E40.19193
G1 X87.246 Y137.267 E40.26261
G1 X87.05 Y136.946 E40.30264
G1 X86.806 Y136.502 E40.35656
G1 X86.632 Y136.137 E40.39959
G1 X86.23 Y135.152 E40.51282
G1 X86.104 Y134.753 E40.55736
G1 X85.97 Y134.24 E40.61379
G1 X85.86 Y133.712 E40.67119
G1 X85.789 Y133.243 E40.72168
G1 X85.741 Y132.782 E40.77101
G1 X85.707 Y132.081 E40.84571
G1 X85.701 Y88.598 E45.47371
G1 X85.716 Y87.669 E45.5726
G1 X85.734 Y87.304 E45.61149
G1 X85.783 Y86.795 E45.66591
G1 X85.854 Y86.315 E45.71756
G1 X85.94 Y85.882 E45.76454
G1 X86.065 Y85.385 E45.81909
G1 X86.203 Y84.931 E45.86959
G1 X86.332 Y84.564 E45.91099
G1 X86.533 Y84.068 E45.96796
G1 X86.833 Y83.445 E46.04155
G1 X87.38 Y82.534 E46.15465
G1 X87.751 Y82.017 E46.22237
G1 X88.026 Y81.675 E46.26908
G1 X88.359 Y81.302 E46.3223
G0 F6000 X88.956 Y81.835
G1 F900 X89.343 Y81.451 E46.38032
G1 X89.594 Y81.222 E46.41649
G1 X89.943 Y80.932 E46.46478
G1 X90.212 Y80.727 E46.50078
G1 X90.637 Y80.439 E46.55542
G1 X91.028 Y80.201 E46.60414
G1 X91.408 Y79.994 E46.65019
G1 X91.8 Y79.805 E46.69651
G1 X92.201 Y79.636 E46.74283
G1 X92.619 Y79.483 E46.7902
G1 X93.092 Y79.339 E46.84283
G1 X93.818 Y79.168 E46.92221
G1 X94.339 Y79.084 E46.97838
G1 X94.71 Y79.044 E47.01809
G1 X95.259 Y79.01 E47.07664
G1 X96.12 Y79 E47.16828
G1 X131.815 Y79.001 E50.96739
G1 X132.511 Y79.011 E51.04147
G1 X132.842 Y79.056 E51.07702
G1 X133.153 Y79.178 E51.11258
G1 X133.427 Y79.37 E51.14819
G1 X133.647 Y79.621 E51.18371
G1 X133.801 Y79.917 E51.21923
G1 X133.89 Y80.371 E51.26847
G1 X133.9 Y80.728 E51.30648
G1 X133.9 Y89.313 E52.2202
G1 X133.888 Y90.135 E52.3077
G1 X133.544 Y91.934 E52.50264
G1 X133.065 Y94.721 E52.80361
G1 X132.671 Y97.483 E53.10056
G1 X132.36 Y100.213 E53.393
G1 X132.122 Y102.993 E53.68996
G1 X131.961 Y105.816 E53.99091
G1 X131.883 Y108.564 E54.2835
G1 X131.882 Y111.392 E54.58449
G1 X131.958 Y114.141 E54.87719
G1 X132.116 Y116.953 E55.17695
G1 X132.352 Y119.728 E55.47336
G1 X132.662 Y122.475 E55.76759
G1 X133.054 Y125.236 E56.0644
G1 X133.529 Y128.014 E56.36436
G1 X133.886 Y129.843 E56.56269
G1 X133.9 Y130.33 E56.61455
G1 X133.9 Y138.882 E57.52476
G1 X133.89 Y139.609 E57.60214
G1 X133.845 Y139.94 E57.6377
G1 X133.724 Y140.252 E57.67331
G1 X133.532 Y140.525 E57.70883
G1 X133.281 Y140.745 E57.74436
G1 X132.985 Y140.9 E57.77992
G1 X132.529 Y140.989 E57.82937
G1 X132.17 Y140.999 E57.86759
G1 X96.142 Y140.999 E61.70214
G1 X95.208 Y140.985 E61.80156
G1 X94.843 Y140.967 E61.84046
G1 X94.409 Y140.925 E61.88686
G1 X93.974 Y140.861 E61.93366
G1 X93.609 Y140.791 E61.97322
G1 X93.116 Y140.669 E62.02727
G1 X92.695 Y140.542 E62.07407
G1 X92.304 Y140.404 E62.1182
G1 X91.914 Y140.246 E62.16299
G1 X91.563 Y140.085 E62.20409
G1 X91.162 Y139.875 E62.25227
G1 X90.794 Y139.66 E62.29763
G1 X90.363 Y139.38 E62.35233
G1 X90.026 Y139.133 E62.3968
G1 X89.651 Y138.829 E62.44818
G1 X89.349 Y138.558 E62.49137
G1 X89.019 Y138.231 E62.54081
G1 X88.759 Y137.944 E62.58203
G1 X88.281 Y137.357 E62.6626
G1 X87.929 Y136.85 E62.72829
G1 X87.733 Y136.529 E62.76832
G1 X87.527 Y136.156 E62.81367
G1 X87.372 Y135.833 E62.8518
G1 X86.993 Y134.911 E62.9579
G1 X86.867 Y134.512 E63.00243
G1 X86.753 Y134.075 E63.0505
G1 X86.651 Y133.591 E63.10315
G1 X86.585 Y133.16 E63.14955
G1 X86.537 Y132.699 E63.19888
G1 X86.507 Y132.081 E63.26474
G1 X86.501 Y88.61 E67.89146
G1 X86.515 Y87.708 E67.98748
G1 X86.533 Y87.343 E68.02637
G1 X86.575 Y86.91 E68.07267
G1 X86.639 Y86.471 E68.11989
G1 X86.725 Y86.038 E68.16688
G1 X86.831 Y85.616 E68.21318
G1 X86.958 Y85.195 E68.25999
G1 X87.074 Y84.863 E68.29742
G1 X87.256 Y84.411 E68.34928
G1 X87.519 Y83.857 E68.41455
G1 X88.066 Y82.946 E68.52764
G1 X88.376 Y82.517 E68.58398
G1 X88.623 Y82.208 E68.62608
G1 X88.956 Y81.835 E68.6793
G1 F1500 E62.1793
G1 F300 Z0.52
;MESH:DeichselSchelle 2.0-Body.stl
G0 F6000 X93.072 Y86.219 Z0.52
;TYPE:WALL-INNER
G1 F300 Z0.32
G1 F1500 E68.6793
G1 F619.1 X94.984 Y86.219 E68.97514
G1 F611.7 X95.571 Y86.204 E69.06708
G1 F604.5 X128.704 Y86.204 E74.31705
G1 F604 X128.704 Y85.013 E74.50592
G1 F604.5 X95.555 Y85.012 E79.75842
G1 F606.1 X95.191 Y85.025 E79.81599
G1 F613.3 X94.868 Y85.067 E79.86687
G1 F619.1 X94.604 Y85.137 E79.90913
G1 X94.337 Y85.234 E79.95308
G1 X94.098 Y85.348 E79.99405
G1 X93.837 Y85.503 E80.04102
G1 X93.591 Y85.683 E80.08818
G1 X93.377 Y85.878 E80.13298
G1 X93.072 Y86.219 E80.20377
G1 F1500 E73.70377
G1 F300 Z0.52
G0 F6000 X91.571 Y87.36 Z0.52
G1 F300 Z0.32
G1 F1500 E80.20377
G1 F900 X91.95 Y87.246 E80.24589
G1 X92.339 Y87.204 E80.28753
G1 X129.7 Y87.2 E84.26395
G1 X129.7 Y84.017 E84.60273
G1 X95.527 Y84.017 E88.23984
G1 X95.041 Y84.038 E88.29162
G1 X94.538 Y84.136 E88.34616
G1 X94.169 Y84.248 E88.3872
G1 X93.715 Y84.434 E88.43942
G1 X93.3 Y84.681 E88.49082
G1 X92.975 Y84.919 E88.5337
G1 X92.688 Y85.18 E88.57498
G1 X92.423 Y85.473 E88.61703
G1 X92.18 Y85.802 E88.66056
G1 X91.996 Y86.105 E88.69829
G1 X91.821 Y86.475 E88.74186
G1 X91.659 Y86.93 E88.79326
G1 X91.571 Y87.36 E88.83997
G1 F1500 E82.33997
G1 F300 Z0.52
G0 F6000 X90.716 Y89.165 Z0.52
G1 F300 Z0.32
G1 F1500 E88.83997
G1 F900 X90.751 Y89.028 E88.85502
G1 X91.394 Y88.313 E88.95737
G1 X91.778 Y88.134 E89.00246
G1 X92.041 Y88.052 E89.03178
G1 X92.385 Y88.003 E89.06877
G1 X130.5 Y88 E93.12544
G1 X130.5 Y83.217 E93.6345
G1 X95.504 Y83.217 E97.35921
G1 X94.931 Y83.245 E97.42027
G1 X94.341 Y83.36 E97.48425
G1 X93.901 Y83.494 E97.5332
G1 X93.36 Y83.716 E97.59544
G1 X92.856 Y84.016 E97.65787
G1 X92.467 Y84.3 E97.70913
G1 X92.087 Y84.65 E97.76411
G1 X91.804 Y84.966 E97.80926
G1 X91.515 Y85.357 E97.86101
G1 X91.29 Y85.728 E97.90719
G1 X91.082 Y86.169 E97.95909
G1 X90.929 Y86.596 E98.00736
G1 X90.813 Y87.055 E98.05775
G1 X90.741 Y87.518 E98.10762
G1 X90.717 Y88.033 E98.1625
G1 X90.716 Y89.165 E98.28298
G1 F1500 E91.78298
G1 F300 Z0.52
G0 F6000 X95.525 Y137.584 Z0.52
G1 F300 Z0.32
G1 F1500 E98.28298
G1 F900 X131.3 Y137.584 E102.0906
G1 X131.3 Y131.2 E102.77006
G1 X92.424 Y131.198 E106.90773
G1 X92.172 Y131.155 E106.93494
G1 X91.814 Y130.985 E106.97712
G1 X91.452 Y130.587 E107.03438
G1 F758.7 X91.154 Y130.219 E107.09416
G1 F656.3 X91.154 Y110.109 E110.02913
G1 F658.7 X91.154 Y89.999 E112.95339
G1 F761.1 X91.45 Y89.416 E113.03568
G1 F900 X91.808 Y89.019 E113.09258
G1 X92.067 Y88.88 E113.12386
G1 X92.431 Y88.801 E113.1635
G1 X131.3 Y88.8 E117.30043
G1 X131.3 Y82.417 E117.97978
G1 X95.481 Y82.417 E121.79209
G1 X94.825 Y82.451 E121.862
G1 X94.218 Y82.567 E121.92778
G1 X93.865 Y82.663 E121.96671
G1 X93.366 Y82.842 E122.02313
G1 X92.997 Y83.005 E122.06607
G1 X92.488 Y83.294 E122.12837
G1 X91.959 Y83.682 E122.19819
G1 X91.557 Y84.047 E122.25598
G1 X91.364 Y84.25 E122.28579
G1 X91.185 Y84.459 E122.31508
G1 X90.849 Y84.912 E122.37511
G1 X90.584 Y85.351 E122.42969
G1 X90.454 Y85.613 E122.46081
G1 X90.343 Y85.863 E122.48993
G1 X90.194 Y86.253 E122.53436
G1 X90.082 Y86.661 E122.57939
G1 X89.956 Y87.294 E122.64809
G1 X89.925 Y87.709 E122.69238
G1 X89.916 Y89.019 E122.83181
G1 F824.7 X89.989 Y89.509 E122.88935
G1 F706.6 X90.062 Y90 E122.95664
G1 F659.3 X90.062 Y130 E128.76785
G1 F655.1 X90.069 Y130.329 E128.81597
G1 F699.7 X89.993 Y130.658 E128.86219
G1 F821.9 X89.916 Y130.987 E128.90157
G1 F900 X89.924 Y132.28 E129.03919
G1 X89.978 Y132.816 E129.09653
G1 X90.055 Y133.251 E129.14355
G1 X90.209 Y133.795 E129.20372
G1 X90.462 Y134.404 E129.27391
G1 X90.58 Y134.64 E129.30199
G1 X90.862 Y135.11 E129.36033
G1 X91.014 Y135.325 E129.38835
G1 X91.184 Y135.541 E129.41761
G1 X91.544 Y135.939 E129.47473
G1 X91.754 Y136.139 E129.50559
G1 X91.947 Y136.306 E129.53276
G1 X92.163 Y136.475 E129.56195
G1 X92.401 Y136.643 E129.59295
G1 X92.63 Y136.789 E129.62186
G1 X93.002 Y136.999 E129.66732
G1 X93.624 Y137.258 E129.73903
G1 X93.864 Y137.337 E129.76593
G1 X94.152 Y137.416 E129.79771
G1 X94.68 Y137.522 E129.85503
G1 X95.22 Y137.575 E129.91278
G1 X95.525 Y137.584 E129.94525
G1 F1500 E123.44525
G1 F300 Z0.52
G0 F6000 X95.364 Y134.983 Z0.52
G1 F300 Z0.32
G1 F1500 E129.94525
G1 F605 X128.704 Y134.988 E135.22359
G1 F604 X128.704 Y133.796 E135.41262
G1 F605.6 X116.836 Y133.794 E137.28996
G1 F607.6 X104.968 Y133.792 E139.16099
G1 F610.2 X93.1 Y133.79 E141.02412
G1 F611.2 X93.383 Y134.116 E141.09177
G1 X93.649 Y134.358 E141.14813
G1 X93.974 Y134.575 E141.20938
G1 X94.288 Y134.741 E141.26504
G1 X94.629 Y134.862 E141.32175
G1 X95.017 Y134.957 E141.38435
G1 F608.6 X95.364 Y134.983 E141.43912
G0 F6000 X95.566 Y135.984
G1 F900 X129.7 Y135.984 E145.07208
G1 X129.7 Y132.8 E145.41097
G1 X92.323 Y132.795 E149.38909
G1 X92.039 Y132.763 E149.41951
G1 X91.576 Y132.659 E149.47001
G1 X91.641 Y132.976 E149.50446
G1 X91.775 Y133.418 E149.55361
G1 X91.991 Y133.886 E149.60847
G1 X92.195 Y134.224 E149.65049
G1 X92.433 Y134.539 E149.69251
G1 X92.699 Y134.83 E149.73447
G1 X92.963 Y135.07 E149.77245
G1 X93.374 Y135.374 E149.82686
G1 X93.776 Y135.589 E149.87538
G1 X94.019 Y135.695 E149.90359
G1 X94.432 Y135.842 E149.95025
G1 X94.918 Y135.939 E150.003
G1 X95.3 Y135.976 E150.04384
G1 X95.566 Y135.984 E150.07217
G0 F6000 X95.535 Y136.784
G1 F900 X130.5 Y136.784 E153.79358
G1 X130.5 Y132 E154.30275
G1 X92.26 Y131.997 E158.37273
G1 X91.792 Y131.872 E158.42428
G1 X91.396 Y131.687 E158.4708
G1 X90.754 Y130.977 E158.57268
G1 X90.716 Y130.867 E158.58507
G1 X90.724 Y132.252 E158.73248
G1 X90.773 Y132.717 E158.78225
G1 X90.824 Y132.997 E158.81254
G1 X90.96 Y133.52 E158.87005
G1 X91.187 Y134.065 E158.93289
G1 X91.391 Y134.448 E158.97907
G1 X91.71 Y134.93 E159.04059
G1 X92.111 Y135.375 E159.10435
G1 X92.542 Y135.767 E159.16635
G1 X93.042 Y136.103 E159.23047
G1 X93.436 Y136.313 E159.27799
G1 X93.977 Y136.538 E159.34035
G1 X94.345 Y136.639 E159.38097
G1 X94.799 Y136.731 E159.43027
G1 X95.26 Y136.776 E159.47957
G1 X95.535 Y136.784 E159.50885
G1 F1500 E153.00885
G1 F300 Z0.52
G0 F6000 X95.515 Y138.384 Z0.52
M104 S230
;TYPE:WALL-OUTER
G1 F300 Z0.32
G1 F1500 E159.50885
G1 F900 X132.1 Y138.384 E163.40268
G1 X132.1 Y130.4 E164.25244
G1 X92.474 Y130.4 E168.46993
