;FLAVOR:Marlin
;TIME:14810
;Filament used: 28.0025m
;Layer height: 0.32
;MINX:82.843
;MINY:75.343
;MINZ:0.4
;MAXX:137.5
;MAXY:144.657
;MAXZ:70.64
;TARGET_MACHINE.NAME:Creality Ender-3 Pro
;Generated with Cura_SteamEngine 5.5.0
M82 ;absolute extrusion mode
; Ender 3 Custom Start G-code
G92 E0 ; Reset Extruder
G28 ; Home all axes
G1 Z5.0 F3000 ; Move Z Axis up a bit during heating to not damage bed
M104 S120 ; Start heating up the nozzle most of the way
M190 S90 ; Start heating the bed, wait until target temperature reached
M109 S235.0 ; Finish heating the nozzle
G1 Z2.0 F3000 ; Move Z Axis up little to prevent scratching of Heat Bed
G1 X0.1 Y20 Z0.3 F5000.0 ; Move to start position
G1 X0.1 Y200.0 Z0.3 F1500.0 E15 ; Draw the first line
G1 X0.4 Y200.0 Z0.3 F5000.0 ; Move to side a little
G1 X0.4 Y20 Z0.3 F1500.0 E30 ; Draw the second line
G92 E0 ; Reset Extruder
G1 Z2.0 F3000 ; Move Z Axis up little to prevent scratching of Heat Bed
G1 X5 Y20 Z0.3 F5000.0 ; Move over to prevent blob squish
G92 E0
G92 E0
G1 F1500 E-6.5
;LAYER_COUNT:218
;LAYER:0
M107
G1 F300 Z1.2
G0 F6000 X86.177 Y79.453 Z1.2
;TYPE:SKIRT
G1 F300 Z0.4
G1 F1500 E0
G1 F900 X86.732 Y78.894 E0.1048
G1 X87.452 Y78.248 E0.23349
G1 X87.714 Y78.033 E0.27858
G1 X88.225 Y77.656 E0.36307
G1 X88.794 Y77.279 E0.45387
G1 X89.137 Y77.075 E0.50697
G1 X90.023 Y76.603 E0.64053
G1 X90.281 Y76.479 E0.67861
G1 X90.971 Y76.189 E0.77818
G1 X91.412 Y76.032 E0.84046
G1 X92.148 Y75.805 E0.94293
G1 X92.568 Y75.698 E1.00059
G1 X93.027 Y75.597 E1.06312
G1 X93.634 Y75.49 E1.14512
G1 X94.789 Y75.375 E1.29954
G1 X95.132 Y75.357 E1.34524
G1 X96.133 Y75.343 E1.47842
G1 X131.869 Y75.344 E6.23276
G1 X132.687 Y75.36 E6.34161
G1 X133.322 Y75.418 E6.42644
G1 X134.073 Y75.606 E6.52944
G1 X134.778 Y75.903 E6.63122
G1 X135.429 Y76.303 E6.73287
G1 X136.018 Y76.804 E6.83574
G1 X136.52 Y77.385 E6.93789
G1 X136.922 Y78.027 E7.03867
G1 X137.23 Y78.744 E7.14249
G1 X137.419 Y79.477 E7.2432
G1 X137.49 Y80.214 E7.3417
G1 X137.499 Y80.577 E7.39001
G1 X137.5 Y89.367 E8.55944
G1 X137.486 Y90.139 E8.66216
G1 X137.401 Y90.933 E8.7684
G1 X137.087 Y92.573 E8.99055
G1 X136.628 Y95.237 E9.35019
G1 X136.24 Y97.955 E9.71546
G1 X135.941 Y100.593 E10.06867
G1 X135.712 Y103.277 E10.42705
G1 X135.559 Y105.944 E10.78245
G1 X135.483 Y108.669 E11.14513
G1 X135.482 Y111.291 E11.49396
G1 X135.556 Y113.985 E11.8525
G1 X135.71 Y116.722 E12.21721
G1 X135.934 Y119.368 E12.5705
G1 X136.238 Y122.045 E12.92893
G1 X136.612 Y124.681 E13.28314
G1 X137.072 Y127.375 E13.64674
G1 X137.417 Y129.175 E13.89057
G1 X137.488 Y129.853 E13.98127
G1 X137.5 Y130.286 E14.0389
G1 X137.5 Y138.992 E15.19715
G1 X137.484 Y139.839 E15.30985
G1 X137.427 Y140.475 E15.3948
G1 X137.24 Y141.224 E15.49751
G1 X136.939 Y141.939 E15.60072
G1 X136.54 Y142.589 E15.70219
G1 X136.047 Y143.169 E15.80346
G1 X135.466 Y143.672 E15.9057
G1 X134.81 Y144.082 E16.00862
G1 X134.108 Y144.384 E16.11029
G1 X133.369 Y144.575 E16.21184
G1 X132.623 Y144.647 E16.31155
G1 X132.17 Y144.657 E16.37183
G1 X96.076 Y144.655 E21.17379
G1 X94.605 Y144.619 E21.36956
G1 X93.951 Y144.552 E21.45702
G1 X93.333 Y144.46 E21.54015
G1 X92.67 Y144.327 E21.63011
G1 X92.123 Y144.188 E21.70519
G1 X91.722 Y144.07 E21.76081
G1 X90.961 Y143.805 E21.86801
G1 X90.502 Y143.615 E21.9341
G1 X89.8 Y143.291 E22.03696
G1 X89.255 Y142.999 E22.11922
G1 X88.701 Y142.664 E22.20535
G1 X88.165 Y142.304 E22.29126
G1 X87.743 Y141.99 E22.36124
G1 X87.302 Y141.626 E22.43731
G1 X86.692 Y141.072 E22.54694
G1 X86.461 Y140.841 E22.5904
G1 X85.846 Y140.165 E22.71199
G1 X85.629 Y139.904 E22.75714
G1 X85.27 Y139.436 E22.83562
G1 X84.859 Y138.84 E22.93193
G1 X84.561 Y138.34 E23.00937
G1 X84.125 Y137.521 E23.13281
G1 X83.989 Y137.238 E23.17458
G1 X83.697 Y136.544 E23.27475
G1 X83.507 Y136.017 E23.34928
G1 X83.371 Y135.583 E23.40979
G1 X83.158 Y134.761 E23.52276
G1 X83.043 Y134.183 E23.60117
G1 X82.942 Y133.489 E23.69447
G1 X82.882 Y132.856 E23.77906
G1 X82.856 Y132.318 E23.85072
G1 X82.843 Y131.375 E23.97619
G1 X82.843 Y88.636 E29.66221
G1 X82.861 Y87.559 E29.80551
G1 X82.879 Y87.182 E29.85573
G1 X82.934 Y86.57 E29.93748
G1 X83.013 Y85.995 E30.01469
G1 X83.173 Y85.169 E30.12663
G1 X83.302 Y84.659 E30.19662
G1 X83.498 Y84.01 E30.28681
G1 X83.717 Y83.405 E30.37241
G1 X83.97 Y82.803 E30.45929
G1 X84.148 Y82.424 E30.51499
G1 X84.498 Y81.762 E30.61462
G1 X84.877 Y81.137 E30.71186
G1 X85.175 Y80.694 E30.78289
G1 X85.524 Y80.225 E30.86067
G1 X85.928 Y79.732 E30.94547
G1 X86.177 Y79.453 E30.99522
G0 F6000 X86.774 Y79.986
G1 F900 X87.267 Y79.489 E31.08835
G1 X87.961 Y78.865 E31.21252
G1 X88.189 Y78.677 E31.25183
G1 X88.7 Y78.3 E31.33631
G1 X89.203 Y77.967 E31.41657
G1 X89.546 Y77.763 E31.46966
G1 X90.37 Y77.324 E31.59388
G1 X90.628 Y77.2 E31.63196
G1 X91.239 Y76.943 E31.72015
G1 X91.68 Y76.786 E31.78242
G1 X92.347 Y76.58 E31.8753
G1 X92.741 Y76.479 E31.92941
G1 X93.166 Y76.385 E31.98732
G1 X93.773 Y76.278 E32.06932
G1 X94.833 Y76.174 E32.21102
G1 X95.143 Y76.157 E32.25232
G1 X96.133 Y76.143 E32.38405
G1 X131.855 Y76.144 E37.13652
G1 X132.614 Y76.157 E37.23751
G1 X133.19 Y76.21 E37.31447
G1 X133.821 Y76.368 E37.40101
G1 X134.406 Y76.614 E37.48544
G1 X134.963 Y76.956 E37.5724
G1 X135.452 Y77.372 E37.65781
G1 X135.873 Y77.859 E37.74346
G1 X136.213 Y78.402 E37.82869
G1 X136.469 Y78.999 E37.91511
G1 X136.629 Y79.619 E38.0003
G1 X136.69 Y80.235 E38.08265
G1 X136.699 Y80.577 E38.12817
G1 X136.7 Y89.352 E39.2956
G1 X136.686 Y90.124 E39.39832
G1 X136.615 Y90.783 E39.4865
G1 X136.301 Y92.423 E39.70865
G1 X135.836 Y95.124 E40.07328
G1 X135.448 Y97.842 E40.43855
G1 X135.146 Y100.503 E40.79484
G1 X134.913 Y103.231 E41.1591
G1 X134.76 Y105.898 E41.5145
G1 X134.683 Y108.647 E41.88037
G1 X134.682 Y111.313 E42.23506
G1 X134.757 Y114.03 E42.59667
G1 X134.911 Y116.767 E42.96138
G1 X135.139 Y119.458 E43.32067
G1 X135.443 Y122.139 E43.67964
G1 X135.823 Y124.816 E44.03936
G1 X136.284 Y127.51 E44.40298
G1 X136.622 Y129.261 E44.64023
G1 X136.688 Y129.875 E44.72239
G1 X136.7 Y130.308 E44.78002
G1 X136.7 Y138.979 E45.93362
G1 X136.687 Y139.767 E46.03847
G1 X136.635 Y140.344 E46.11554
G1 X136.478 Y140.973 E46.20179
G1 X136.228 Y141.567 E46.28753
G1 X135.889 Y142.119 E46.37371
G1 X135.475 Y142.607 E46.45885
G1 X134.989 Y143.027 E46.54431
G1 X134.442 Y143.369 E46.63014
G1 X133.848 Y143.625 E46.71619
G1 X133.227 Y143.785 E46.8015
G1 X132.605 Y143.847 E46.88467
G1 X132.17 Y143.857 E46.94255
G1 X96.094 Y143.855 E51.74212
G1 X94.687 Y143.823 E51.92936
G1 X94.033 Y143.756 E52.01682
G1 X93.451 Y143.669 E52.09511
G1 X92.867 Y143.552 E52.17435
G1 X92.347 Y143.42 E52.24573
G1 X91.984 Y143.314 E52.29604
G1 X91.266 Y143.065 E52.39714
G1 X90.836 Y142.888 E52.45901
G1 X90.177 Y142.585 E52.55551
G1 X89.669 Y142.314 E52.63211
G1 X89.115 Y141.979 E52.71824
G1 X88.643 Y141.662 E52.79388
G1 X88.221 Y141.348 E52.86386
G1 X87.839 Y141.033 E52.92973
G1 X87.258 Y140.506 E53.03409
G1 X87.027 Y140.275 E53.07755
G1 X86.46 Y139.652 E53.18962
G1 X86.263 Y139.416 E53.23052
G1 X85.929 Y138.982 E53.30338
G1 X85.518 Y138.386 E53.3997
G1 X85.267 Y137.963 E53.46514
G1 X84.846 Y137.174 E53.58411
G1 X84.71 Y136.891 E53.62589
G1 X84.45 Y136.273 E53.71509
G1 X84.26 Y135.746 E53.78962
G1 X84.145 Y135.381 E53.84053
G1 X83.943 Y134.605 E53.94721
G1 X83.828 Y134.027 E54.02561
G1 X83.734 Y133.375 E54.11325
G1 X83.681 Y132.817 E54.18782
G1 X83.656 Y132.307 E54.25576
G1 X83.643 Y131.364 E54.38122
G1 X83.643 Y88.649 E60.06405
G1 X83.66 Y87.596 E60.20416
G1 X83.676 Y87.253 E60.24984
G1 X83.727 Y86.679 E60.32651
G1 X83.806 Y86.104 E60.40373
G1 X83.949 Y85.365 E60.50387
G1 X84.078 Y84.855 E60.57385
G1 X84.25 Y84.282 E60.65345
G1 X84.455 Y83.715 E60.73366
G1 X84.708 Y83.113 E60.82054
G1 X84.856 Y82.797 E60.86696
G1 X85.183 Y82.176 E60.96033
G1 X85.541 Y81.584 E61.05237
G1 X85.839 Y81.141 E61.1234
G1 X86.143 Y80.732 E61.1912
G1 X86.525 Y80.265 E61.27147
G1 X86.774 Y79.986 E61.32122
G0 F6000 X87.371 Y80.519
G1 F900 X87.803 Y80.083 E61.40288
G1 X88.47 Y79.482 E61.52233
G1 X88.698 Y79.294 E61.56164
G1 X89.142 Y78.967 E61.635
G1 X89.645 Y78.634 E61.71526
G1 X89.922 Y78.469 E61.75815
G1 X90.717 Y78.045 E61.87802
G1 X90.975 Y77.921 E61.9161
G1 X91.509 Y77.696 E61.9932
G1 X91.917 Y77.55 E62.05085
G1 X92.547 Y77.355 E62.13859
G1 X92.915 Y77.26 E62.18915
G1 X93.305 Y77.173 E62.24231
G1 X93.912 Y77.066 E62.32431
G1 X94.88 Y76.973 E62.45369
G1 X95.154 Y76.957 E62.4902
G1 X96.133 Y76.943 E62.62046
G1 X131.844 Y76.944 E67.37148
G1 X132.54 Y76.954 E67.46408
G1 X133.059 Y77.002 E67.53342
G1 X133.564 Y77.128 E67.60267
G1 X134.045 Y77.33 E67.67208
G1 X134.489 Y77.603 E67.74142
G1 X134.886 Y77.941 E67.81078
G1 X135.227 Y78.335 E67.88011
G1 X135.503 Y78.777 E67.94944
G1 X135.709 Y79.256 E68.01881
G1 X135.839 Y79.76 E68.08805
G1 X135.89 Y80.258 E68.15465
G1 X135.899 Y80.577 E68.19711
G1 X135.9 Y89.341 E69.36308
G1 X135.89 Y90.042 E69.45635
G1 X135.829 Y90.633 E69.53539
G1 X135.515 Y92.273 E69.75754
G1 X135.044 Y95.011 E70.12716
G1 X134.656 Y97.729 E70.49243
G1 X134.351 Y100.413 E70.85181
G1 X134.114 Y103.185 E71.22194
G1 X133.961 Y105.852 E71.57734
G1 X133.883 Y108.625 E71.94641
G1 X133.882 Y111.335 E72.30695
G1 X133.958 Y114.075 E72.67162
G1 X134.112 Y116.812 E73.03633
G1 X134.344 Y119.548 E73.40163
G1 X134.648 Y122.233 E73.76113
G1 X135.034 Y124.951 E74.12636
G1 X135.495 Y127.645 E74.48998
G1 X135.827 Y129.35 E74.72108
G1 X135.888 Y129.897 E74.7943
G1 X135.9 Y130.33 E74.85193
G1 X135.9 Y138.968 E76.00114
G1 X135.89 Y139.695 E76.09787
G1 X135.843 Y140.214 E76.1672
G1 X135.717 Y140.72 E76.23657
G1 X135.515 Y141.2 E76.30585
G1 X135.242 Y141.644 E76.3752
G1 X134.905 Y142.041 E76.44448
G1 X134.511 Y142.382 E76.5138
G1 X134.069 Y142.659 E76.5832
G1 X133.59 Y142.865 E76.65257
G1 X133.086 Y142.995 E76.72182
G1 X132.586 Y143.047 E76.78869
G1 X132.17 Y143.057 E76.84406
G1 X96.111 Y143.055 E81.64136
G1 X94.769 Y143.027 E81.81994
G1 X94.115 Y142.96 E81.90741
G1 X93.607 Y142.884 E81.97574
G1 X93.063 Y142.776 E82.04953
G1 X92.571 Y142.652 E82.11703
G1 X92.208 Y142.546 E82.16734
G1 X91.569 Y142.325 E82.2573
G1 X91.169 Y142.161 E82.31481
G1 X90.554 Y141.879 E82.40482
G1 X90.046 Y141.608 E82.48142
G1 X89.53 Y141.295 E82.56172
G1 X89.119 Y141.019 E82.62758
G1 X88.729 Y140.73 E82.69216
G1 X88.376 Y140.44 E82.75294
G1 X87.824 Y139.94 E82.85203
G1 X87.593 Y139.709 E82.89549
G1 X87.073 Y139.138 E82.99823
G1 X86.896 Y138.927 E83.03487
G1 X86.588 Y138.528 E83.10193
G1 X86.177 Y137.932 E83.19825
G1 X85.973 Y137.586 E83.25169
G1 X85.552 Y136.797 E83.37067
G1 X85.431 Y136.545 E83.40786
G1 X85.202 Y136.001 E83.48638
G1 X85.023 Y135.506 E83.55641
G1 X84.908 Y135.141 E83.60732
G1 X84.728 Y134.449 E83.70245
G1 X84.613 Y133.871 E83.78086
G1 X84.526 Y133.262 E83.8627
G1 X84.48 Y132.777 E83.92751
G1 X84.456 Y132.296 E83.99159
G1 X84.443 Y131.353 E84.11706
G1 X84.443 Y88.661 E89.79682
G1 X84.459 Y87.632 E89.93374
G1 X84.473 Y87.323 E89.97489
G1 X84.52 Y86.786 E90.0466
G1 X84.592 Y86.255 E90.1179
G1 X84.725 Y85.561 E90.21191
G1 X84.854 Y85.051 E90.28189
G1 X85.016 Y84.513 E90.35664
G1 X85.193 Y84.024 E90.42583
G1 X85.433 Y83.451 E90.50848
G1 X85.564 Y83.17 E90.54973
G1 X85.891 Y82.549 E90.6431
G1 X86.205 Y82.03 E90.7238
G1 X86.482 Y81.617 E90.78996
G1 X86.763 Y81.238 E90.85273
G1 X87.122 Y80.798 E90.92828
G1 X87.371 Y80.519 E90.97803
G1 F1500 E84.47803
G1 F300 Z1.2
;MESH:DeichselSchelle 2.0-Body.stl
G0 F6000 X91.467 Y87.375 Z1.2
;TYPE:WALL-INNER
G1 F300 Z0.4
G1 F1500 E90.97803
G1 F900 X92.004 Y87.243 E91.0516
G1 X92.348 Y87.2 E91.09772
G1 X129.7 Y87.2 E96.06705
G1 X129.7 Y83.929 E96.50223
G1 X95.299 Y83.935 E101.07896
G1 X94.814 Y83.983 E101.1438
G1 X94.226 Y84.127 E101.22434
G1 X93.771 Y84.315 E101.28983
G1 X93.324 Y84.555 E101.35733
G1 X92.931 Y84.844 E101.42223
G1 X92.61 Y85.134 E101.47979
G1 X92.356 Y85.416 E101.53028
G1 X92.132 Y85.714 E101.57988
G1 X91.969 Y85.978 E101.62115
G1 X91.818 Y86.267 E101.66453
G1 X91.633 Y86.713 E101.72877
G1 X91.467 Y87.375 E101.81957
G1 F1500 E95.31957
G1 F300 Z1.2
G0 F6000 X90.629 Y89.489 Z1.2
G1 F300 Z0.4
G1 F1500 E101.81957
G1 F900 X90.74 Y89.047 E101.8802
G1 X91.317 Y88.386 E101.99693
G1 X91.637 Y88.194 E102.04658
G1 X91.898 Y88.091 E102.08391
G1 X92.146 Y88.031 E102.11786
G1 X92.449 Y88 E102.15838
G1 X130.5 Y88 E107.2207
G1 X130.5 Y83.129 E107.86875
G1 X95.503 Y83.129 E112.52476
G1 X95.024 Y83.153 E112.58857
G1 X94.568 Y83.22 E112.64989
G1 X94.094 Y83.337 E112.71484
G1 X93.539 Y83.535 E112.79324
G1 X93.195 Y83.711 E112.84465
G1 X92.801 Y83.947 E112.90575
G1 X92.423 Y84.226 E112.96825
G1 X92.22 Y84.401 E113.00391
G1 X91.812 Y84.809 E113.08067
G1 X91.465 Y85.272 E113.15765
G1 X91.206 Y85.702 E113.22444
G1 X91.001 Y86.137 E113.28841
G1 X90.845 Y86.57 E113.34964
G1 X90.768 Y86.858 E113.38931
G1 X90.658 Y87.421 E113.46562
G1 X90.63 Y88.033 E113.54713
G1 X90.629 Y89.489 E113.74084
G1 F1500 E107.24084
G1 F300 Z1.2
G0 F6000 X95.527 Y137.672 Z1.2
G1 F300 Z0.4
G1 F1500 E113.74084
G1 F900 X131.3 Y137.671 E118.5001
G1 X131.3 Y131.2 E119.361
G1 X92.415 Y131.198 E124.53428
G1 X92.147 Y131.148 E124.57055
G1 X91.796 Y130.973 E124.62273
G1 F896.6 X91.444 Y130.577 E124.69348
G1 F739.2 X91.133 Y130.223 E124.76981
G1 F631 X91.133 Y110.111 E128.58604
G1 F633.2 X91.133 Y89.999 E132.3889
G1 F685.1 X91.288 Y89.714 E132.4456
G1 F815.4 X91.444 Y89.428 E132.49344
G1 F900 X91.79 Y89.031 E132.5635
G1 X91.982 Y88.916 E132.59328
G1 X92.343 Y88.8 E132.64372
G1 X131.3 Y88.8 E137.82658
G1 X131.3 Y82.329 E138.68749
G1 X95.483 Y82.329 E143.4526
G1 X95.218 Y82.336 E143.48787
G1 X94.945 Y82.357 E143.5243
G1 X94.669 Y82.391 E143.56129
G1 X94.411 Y82.436 E143.59614
G1 X93.863 Y82.57 E143.67119
G1 X93.582 Y82.664 E143.71061
G1 X93.085 Y82.869 E143.78214
G1 X92.758 Y83.038 E143.83111
G1 X92.357 Y83.281 E143.89349
G1 X92.005 Y83.529 E143.95077
G1 X91.682 Y83.809 E144.00764
G1 X91.48 Y84.002 E144.04481
G1 X91.298 Y84.192 E144.07982
G1 X91.118 Y84.401 E144.11651
G1 X90.798 Y84.83 E144.18772
G1 X90.5 Y85.326 E144.2647
G1 X90.369 Y85.587 E144.30355
G1 X90.262 Y85.831 E144.339
G1 X90.161 Y86.092 E144.37623
G1 X90.079 Y86.339 E144.41085
G1 X89.997 Y86.639 E144.45223
G1 X89.942 Y86.883 E144.48551
G1 X89.866 Y87.317 E144.54412
G1 X89.838 Y87.705 E144.59588
G1 X89.829 Y89.019 E144.7707
G1 F815.4 X89.913 Y89.509 E144.8437
G1 F685.1 X89.997 Y90 E144.93076
G1 F633.2 X89.998 Y100.084 E146.83749
G1 F631 X90 Y110.168 E148.75092
G1 F628.8 X90.001 Y120.252 E150.67105
G1 F626.6 X90.003 Y130.336 E152.5979
G1 F676.7 X89.918 Y130.662 E152.65751
G1 F807.2 X89.832 Y130.989 E152.70767
G1 F896.6 X89.83 Y132.007 E152.84361
G1 F900 X89.839 Y132.317 E152.88487
G1 X89.893 Y132.849 E152.95601
G1 X89.996 Y133.36 E153.02536
G1 X90.079 Y133.658 E153.06652
G1 X90.161 Y133.904 E153.10102
G1 X90.37 Y134.416 E153.17459
G1 X90.506 Y134.684 E153.21457
G1 X90.63 Y134.904 E153.24817
G1 X90.782 Y135.144 E153.28597
G1 X90.952 Y135.386 E153.32531
G1 X91.108 Y135.585 E153.35895
G1 X91.391 Y135.914 E153.41669
G1 X91.682 Y136.191 E153.47014
G1 X92.017 Y136.481 E153.52909
G1 X92.352 Y136.716 E153.58353
G1 X92.584 Y136.864 E153.62014
G1 X92.83 Y137.002 E153.65766
G1 X93.079 Y137.127 E153.69473
G1 X93.582 Y137.336 E153.7672
G1 X94.111 Y137.498 E153.8408
G1 X94.687 Y137.61 E153.91887
G1 X94.945 Y137.643 E153.95347
G1 X95.527 Y137.672 E154.031
G1 F1500 E147.531
G1 F300 Z1.2
G0 F6000 X95.572 Y136.072 Z1.2
G1 F300 Z0.4
G1 F1500 E154.031
G1 F900 X129.7 Y136.071 E158.57141
G1 X129.7 Y132.8 E159.00658
G1 X92.427 Y132.8 E163.9654
G1 X92.064 Y132.772 E164.01384
G1 X91.481 Y132.629 E164.0937
G1 X91.57 Y133.079 E164.15473
G1 X91.783 Y133.67 E164.23831
G1 X92.004 Y134.084 E164.30074
G1 X92.236 Y134.43 E164.35616
G1 X92.496 Y134.746 E164.41061
G1 X92.781 Y135.027 E164.46385
G1 X93.064 Y135.259 E164.51254
G1 X93.408 Y135.492 E164.56781
G1 X93.762 Y135.679 E164.62108
G1 X94.12 Y135.828 E164.67267
G1 X94.478 Y135.94 E164.72257
G1 X95.03 Y136.047 E164.79738
G1 X95.572 Y136.072 E164.86956
G0 F6000 X95.572 Y136.872
G1 F900 X130.5 Y136.871 E169.5164
G1 X130.5 Y132 E170.16444
G1 X92.447 Y132 E175.22703
G1 X92.141 Y131.969 E175.26795
G1 X91.769 Y131.863 E175.31941
G1 X91.368 Y131.667 E175.37879
