;FLAVOR:Marlin
;TIME:1381
;Filament used: 2.29293m
;Layer height: 0.32
;MINX:84.03
;MINY:100.5
;MINZ:0.32
;MAXX:135.959
;MAXY:119.48
;MAXZ:20.04
;TARGET_MACHINE.NAME:Creality Ender-3 Pro
;Generated with Cura_SteamEngine 5.5.0
M82 ;absolute extrusion mode
; Ender 3 Custom Start G-code
G92 E0 ; Reset Extruder
G28 ; Home all axes
G1 Z5.0 F3000 ; Move Z Axis up a bit during heating to not damage bed
M104 S120 ; Start heating up the nozzle most of the way
M190 S70 ; Start heating the bed, wait until target temperature reached
M109 S235.0 ; Finish heating the nozzle
G1 Z2.0 F3000 ; Move Z Axis up little to prevent scratching of Heat Bed
G1 X0.1 Y20 Z0.3 F5000.0 ; Move to start position
G1 X0.1 Y200.0 Z0.3 F1500.0 E15 ; Draw the first line
G1 X0.4 Y200.0 Z0.3 F5000.0 ; Move to side a little
G1 X0.4 Y20 Z0.3 F1500.0 E30 ; Draw the second line
G92 E0 ; Reset Extruder
G1 Z2.0 F3000 ; Move Z Axis up little to prevent scratching of Heat Bed
G1 X5 Y20 Z0.3 F5000.0 ; Move over to prevent blob squish
G92 E0
G92 E0
G1 F1500 E-6.5
;LAYER_COUNT:62
;LAYER:0
M107
G1 F300 Z0.52
G0 F6000 X85.97 Y101.558 Z0.52
;TYPE:SKIRT
G1 F300 Z0.32
G1 F1500 E0
G1 F900 X86.612 Y101.136 E0.08177
G1 X87.304 Y100.82 E0.16274
G1 X88.058 Y100.607 E0.24613
G1 X88.936 Y100.519 E0.34004
G1 X89.949 Y100.5 E0.44788
G1 X94.571 Y100.5 E0.93981
G1 X96.89 Y100.54 E1.18666
G1 X100.384 Y100.529 E1.55854
G1 X101.818 Y100.5 E1.71119
G1 X118.629 Y100.501 E3.50043
G1 X120.89 Y100.54 E3.74111
G1 X124.383 Y100.529 E4.11288
G1 X125.784 Y100.5 E4.26202
G1 X130.349 Y100.5 E4.74789
G1 X131.158 Y100.516 E4.83401
G1 X131.787 Y100.574 E4.90124
G1 X132.541 Y100.762 E4.98395
G1 X133.254 Y101.062 E5.06628
G1 X133.904 Y101.462 E5.14751
G1 X134.485 Y101.957 E5.22874
G1 X134.99 Y102.541 E5.31092
G1 X135.393 Y103.184 E5.39168
G1 X135.699 Y103.894 E5.47397
G1 X135.894 Y104.653 E5.55737
G1 X135.959 Y105.494 E5.64715
G1 X135.953 Y106.178 E5.71995
G1 X135.937 Y106.5 E5.75427
G1 X135.879 Y107.125 E5.82107
G1 X135.787 Y107.769 E5.89031
G1 X135.63 Y108.571 E5.97729
G1 X135.493 Y109.103 E6.03576
G1 X135.198 Y110.072 E6.14357
G1 X135.079 Y110.408 E6.1815
G1 X134.799 Y111.101 E6.26106
G1 X134.506 Y111.732 E6.3351
G1 X134.18 Y112.347 E6.40918
G1 X133.853 Y112.897 E6.47729
G1 X133.425 Y113.543 E6.55976
G1 X133.034 Y114.071 E6.62969
G1 X132.575 Y114.632 E6.70684
G1 X132.22 Y115.018 E6.76265
G1 X131.463 Y115.774 E6.87652
G1 X131.197 Y116.018 E6.91494
G1 X130.759 Y116.385 E6.97576
G1 X130.338 Y116.707 E7.03217
G1 X129.32 Y117.394 E7.16288
G1 X128.96 Y117.615 E7.20784
G1 X128.554 Y117.84 E7.25724
G1 X127.778 Y118.214 E7.34893
G1 X126.797 Y118.619 E7.46189
G1 X126.452 Y118.743 E7.50091
G1 X125.761 Y118.957 E7.5779
G1 X125.34 Y119.068 E7.62424
G1 X124.566 Y119.234 E7.70849
G1 X124.024 Y119.325 E7.76698
G1 X122.992 Y119.436 E7.87745
G1 X122.215 Y119.472 E7.96024
G1 X121.52 Y119.48 E8.03422
G1 X98.477 Y119.48 E10.48674
G1 X97.71 Y119.469 E10.56838
G1 X96.998 Y119.437 E10.64424
G1 X96.545 Y119.397 E10.69264
G1 X95.64 Y119.271 E10.78989
G1 X94.964 Y119.138 E10.86322
G1 X94.437 Y119.01 E10.92094
G1 X93.668 Y118.784 E11.00624
G1 X93.002 Y118.547 E11.08148
G1 X92.548 Y118.364 E11.13358
G1 X91.729 Y117.986 E11.22959
G1 X91.27 Y117.744 E11.28481
G1 X90.665 Y117.39 E11.35942
G1 X89.959 Y116.926 E11.44933
G1 X89.464 Y116.561 E11.51479
G1 X89.016 Y116.2 E11.57603
G1 X88.54 Y115.775 E11.64394
G1 X87.759 Y114.993 E11.76157
G1 X87.484 Y114.687 E11.80536
G1 X86.93 Y114.011 E11.89839
G1 X86.642 Y113.622 E11.9499
G1 X86.086 Y112.789 E12.05649
G1 X85.885 Y112.46 E12.09753
G1 X85.66 Y112.054 E12.14693
G1 X85.286 Y111.278 E12.23861
G1 X84.881 Y110.297 E12.35157
G1 X84.757 Y109.952 E12.39059
G1 X84.543 Y109.261 E12.46758
G1 X84.432 Y108.84 E12.51392
G1 X84.264 Y108.053 E12.59957
G1 X84.136 Y107.233 E12.6879
G1 X84.064 Y106.49 E12.76735
G1 X84.032 Y105.809 E12.83991
G1 X84.03 Y105.557 E12.86673
G1 X84.078 Y104.797 E12.94778
G1 X84.248 Y104.043 E13.03005
G1 X84.53 Y103.33 E13.11165
G1 X84.915 Y102.668 E13.19316
G1 X85.401 Y102.073 E13.27493
G1 X85.97 Y101.558 E13.35661
G0 F6000 X86.46 Y102.193
G1 F900 X86.998 Y101.84 E13.4251
G1 X87.584 Y101.572 E13.49368
G1 X88.207 Y101.396 E13.56258
G1 X88.951 Y101.319 E13.64219
G1 X89.964 Y101.3 E13.75003
G1 X94.557 Y101.3 E14.23887
G1 X96.878 Y101.34 E14.48594
G1 X100.4 Y101.329 E14.86079
G1 X101.818 Y101.3 E15.01175
G1 X118.615 Y101.301 E16.79949
G1 X120.878 Y101.34 E17.04038
G1 X124.4 Y101.329 E17.41524
G1 X125.801 Y101.3 E17.56439
G1 X130.335 Y101.3 E18.04695
G1 X131.084 Y101.313 E18.12668
G1 X131.658 Y101.366 E18.18803
G1 X132.288 Y101.523 E18.25713
G1 X132.882 Y101.773 E18.32573
G1 X133.434 Y102.112 E18.39467
G1 X133.922 Y102.528 E18.46292
G1 X134.343 Y103.015 E18.53144
G1 X134.683 Y103.558 E18.59962
G1 X134.939 Y104.153 E18.66856
G1 X135.101 Y104.783 E18.7378
G1 X135.161 Y105.556 E18.82032
G1 X135.154 Y106.139 E18.88237
G1 X135.14 Y106.426 E18.91296
G1 X135.082 Y107.051 E18.97976
G1 X134.995 Y107.655 E19.04471
G1 X134.855 Y108.372 E19.12246
G1 X134.727 Y108.871 E19.17729
G1 X134.443 Y109.807 E19.2814
G1 X134.337 Y110.109 E19.31546
G1 X134.073 Y110.764 E19.39063
G1 X133.78 Y111.395 E19.46467
G1 X133.492 Y111.938 E19.53009
G1 X133.165 Y112.488 E19.59819
G1 X132.781 Y113.068 E19.67223
G1 X132.414 Y113.565 E19.73798
G1 X131.985 Y114.091 E19.81022
G1 X131.654 Y114.452 E19.86235
G1 X130.922 Y115.184 E19.97253
G1 X130.656 Y115.428 E20.01095
G1 X130.271 Y115.751 E20.06444
G1 X129.89 Y116.044 E20.11559
G1 X128.872 Y116.731 E20.24631
G1 X128.572 Y116.915 E20.28376
G1 X128.166 Y117.14 E20.33317
G1 X127.472 Y117.475 E20.41519
G1 X126.525 Y117.867 E20.52427
G1 X126.215 Y117.979 E20.55935
G1 X125.557 Y118.183 E20.63267
G1 X125.136 Y118.294 E20.67901
G1 X124.434 Y118.445 E20.75544
G1 X123.892 Y118.536 E20.81393
G1 X122.955 Y118.637 E20.91424
G1 X122.206 Y118.672 E20.99404
G1 X121.511 Y118.68 E21.06802
G1 X98.488 Y118.68 E23.51841
G1 X97.745 Y118.67 E23.5975
G1 X97.068 Y118.64 E23.66962
G1 X96.615 Y118.6 E23.71802
G1 X95.794 Y118.486 E23.80624
G1 X95.152 Y118.36 E23.87588
G1 X94.663 Y118.242 E23.92941
G1 X93.894 Y118.016 E24.01472
G1 X93.301 Y117.805 E24.08171
G1 X92.847 Y117.622 E24.13381
G1 X92.101 Y117.278 E24.22125
G1 X91.673 Y117.053 E24.27271
G1 X91.104 Y116.721 E24.34282
G1 X90.433 Y116.281 E24.42823
G1 X89.965 Y115.937 E24.49004
G1 X89.549 Y115.603 E24.54682
G1 X89.073 Y115.178 E24.61474
G1 X88.353 Y114.457 E24.72319
G1 X88.103 Y114.18 E24.7629
G1 X87.549 Y113.504 E24.85593
G1 X87.307 Y113.177 E24.89922
G1 X86.768 Y112.371 E25.00242
G1 X86.585 Y112.072 E25.03973
G1 X86.36 Y111.666 E25.08914
G1 X86.025 Y110.972 E25.17116
G1 X85.633 Y110.025 E25.28024
G1 X85.521 Y109.715 E25.31532
G1 X85.317 Y109.057 E25.38864
G1 X85.206 Y108.636 E25.43498
G1 X85.054 Y107.928 E25.51205
G1 X84.932 Y107.155 E25.59535
G1 X84.863 Y106.452 E25.67053
G1 X84.832 Y105.803 E25.73968
G1 X84.83 Y105.551 E25.7665
G1 X84.872 Y104.91 E25.83487
G1 X85.014 Y104.282 E25.9034
G1 X85.253 Y103.677 E25.97263
G1 X85.572 Y103.129 E26.04012
G1 X85.984 Y102.624 E26.10949
G1 X86.46 Y102.193 E26.17783
G0 F6000 X86.95 Y102.828
G1 F900 X87.386 Y102.542 E26.23333
G1 X87.86 Y102.326 E26.28877
G1 X88.362 Y102.184 E26.34429
G1 X88.966 Y102.119 E26.40895
G1 X89.979 Y102.1 E26.51678
G1 X94.543 Y102.1 E27.00254
G1 X96.866 Y102.14 E27.24982
G1 X100.417 Y102.129 E27.62777
G1 X101.818 Y102.1 E27.77691
G1 X118.601 Y102.101 E29.56316
G1 X120.866 Y102.14 E29.80427
G1 X124.417 Y102.129 E30.18221
G1 X125.818 Y102.1 E30.33136
G1 X130.323 Y102.1 E30.81083
G1 X131.01 Y102.11 E30.88396
G1 X131.529 Y102.158 E30.93944
G1 X132.035 Y102.284 E30.99494
G1 X132.515 Y102.486 E31.05036
G1 X132.959 Y102.759 E31.10584
G1 X133.356 Y103.097 E31.16133
G1 X133.697 Y103.491 E31.21679
G1 X133.973 Y103.933 E31.27225
G1 X134.179 Y104.412 E31.32775
G1 X134.309 Y104.917 E31.38325
G1 X134.361 Y105.547 E31.45053
G1 X134.355 Y106.101 E31.50949
G1 X134.343 Y106.352 E31.53624
G1 X134.285 Y106.977 E31.60305
G1 X134.203 Y107.54 E31.6636
G1 X134.08 Y108.174 E31.73234
G1 X133.961 Y108.639 E31.78342
G1 X133.687 Y109.545 E31.88416
G1 X133.595 Y109.81 E31.91402
G1 X133.331 Y110.465 E31.98918
G1 X133.073 Y111.02 E32.05432
G1 X132.785 Y111.563 E32.11974
G1 X132.478 Y112.078 E32.18355
G1 X132.137 Y112.594 E32.24938
G1 X131.793 Y113.061 E32.31111
G1 X131.395 Y113.551 E32.3783
G1 X131.088 Y113.886 E32.42666
G1 X130.356 Y114.618 E32.53684
G1 X130.141 Y114.816 E32.56795
G1 X129.782 Y115.118 E32.61788
G1 X129.442 Y115.381 E32.66363
G1 X128.424 Y116.068 E32.79435
G1 X128.184 Y116.215 E32.8243
G1 X127.778 Y116.44 E32.8737
G1 X127.166 Y116.736 E32.94606
G1 X126.251 Y117.115 E33.05147
G1 X125.977 Y117.215 E33.08251
G1 X125.353 Y117.409 E33.15206
G1 X124.932 Y117.52 E33.1984
G1 X124.302 Y117.656 E33.267
G1 X123.76 Y117.747 E33.32549
G1 X122.917 Y117.838 E33.41574
G1 X122.197 Y117.872 E33.49245
G1 X121.502 Y117.88 E33.56643
G1 X98.498 Y117.88 E36.0148
G1 X97.78 Y117.871 E36.09122
G1 X97.138 Y117.843 E36.15962
G1 X96.685 Y117.803 E36.20802
G1 X95.947 Y117.701 E36.28731
G1 X95.338 Y117.582 E36.35336
G1 X94.887 Y117.474 E36.40271
G1 X94.161 Y117.262 E36.48321
G1 X93.599 Y117.063 E36.54667
G1 X93.181 Y116.895 E36.59461
G1 X92.472 Y116.569 E36.67767
G1 X92.075 Y116.361 E36.72537
G1 X91.542 Y116.051 E36.791
G1 X90.907 Y115.636 E36.87173
G1 X90.439 Y115.292 E36.93355
G1 X90.082 Y115.006 E36.98224
G1 X89.606 Y114.581 E37.05016
G1 X88.946 Y113.92 E37.14957
G1 X88.722 Y113.673 E37.18506
G1 X88.168 Y112.997 E37.27809
G1 X87.972 Y112.732 E37.31317
G1 X87.433 Y111.926 E37.41636
G1 X87.285 Y111.684 E37.44656
G1 X87.06 Y111.278 E37.49596
G1 X86.764 Y110.666 E37.56832
G1 X86.385 Y109.751 E37.67372
G1 X86.285 Y109.477 E37.70477
G1 X86.091 Y108.853 E37.77432
G1 X85.98 Y108.432 E37.82066
G1 X85.844 Y107.802 E37.88925
G1 X85.728 Y107.076 E37.9675
G1 X85.662 Y106.413 E38.03842
G1 X85.632 Y105.797 E38.10406
G1 X85.63 Y105.545 E38.13088
G1 X85.666 Y105.025 E38.18636
G1 X85.781 Y104.517 E38.24179
G1 X85.972 Y104.032 E38.29727
G1 X86.235 Y103.582 E38.35275
G1 X86.564 Y103.178 E38.4082
G1 X86.95 Y102.828 E38.46366
G1 F1500 E31.96366
G1 F300 Z0.52
;MESH:Kabelklemme.stl
G0 F6000 X93.761 Y110.351 Z0.52
;TYPE:WALL-INNER
G1 F300 Z0.32
G1 F1500 E38.46366
G1 F721.4 X93.588 Y110.009 E38.51454
G1 X93.454 Y109.688 E38.56073
G1 X93.3 Y109.206 E38.62791
G1 X93.203 Y108.73 E38.69241
G1 X93.159 Y108.29 E38.75112
G1 X93.153 Y107.599 E38.84288
G1 X91.911 Y107.6 E39.00778
G1 X92.051 Y107.971 E39.06043
G1 X92.209 Y108.32 E39.1113
G1 X92.323 Y108.545 E39.14479
G1 X92.647 Y109.084 E39.22829
G1 X92.828 Y109.34 E39.26991
G1 X93.023 Y109.589 E39.31191
G1 X93.23 Y109.829 E39.35399
G1 X93.452 Y110.063 E39.39681
G1 X93.761 Y110.351 E39.4529
G1 F1500 E32.9529
G1 F300 Z0.52
G0 F6000 X120.194 Y112.842 Z0.52
G1 F300 Z0.32
G1 F1500 E39.4529
G1 F850.1 X121.081 Y112.794 E39.553
G1 F827.6 X121.981 Y112.819 E39.65721
G1 F849.1 X122.377 Y112.807 E39.7019
G1 F844.1 X122.743 Y112.774 E39.74361
G1 F834.3 X123.096 Y112.724 E39.78454
G1 F821.9 X123.43 Y112.657 E39.82424
G1 F805.4 X123.797 Y112.563 E39.8693
G1 F785.2 X124.123 Y112.46 E39.91101
G1 F758.7 X124.557 Y112.289 E39.96991
G1 F793.8 X125.132 Y112.115 E40.0424
G1 F874.8 X125.443 Y111.984 E40.07935
G1 F900 X125.797 Y111.782 E40.12273
G1 X126.096 Y111.592 E40.16043
G1 X126.385 Y111.387 E40.19814
G1 X126.682 Y111.153 E40.23839
G1 X126.949 Y110.922 E40.27596
G1 X127.191 Y110.692 E40.3115
G1 X127.443 Y110.426 E40.3505
G1 X127.678 Y110.154 E40.38875
G1 X127.898 Y109.872 E40.42682
G1 X128.12 Y109.553 E40.46819
G1 X128.297 Y109.273 E40.50344
G1 X128.497 Y108.918 E40.54681
G1 X128.63 Y108.652 E40.57846
G1 X128.776 Y108.323 E40.61677
G1 X128.916 Y107.959 E40.65828
G1 X129.024 Y107.629 E40.69523
G1 X129.125 Y107.262 E40.73575
G1 X129.25 Y106.701 E40.79692
G1 X125.95 Y106.7 E41.14815
G1 X125.945 Y108.217 E41.30961
G1 X125.896 Y108.657 E41.35673
G1 X125.838 Y108.938 E41.38726
G1 X125.707 Y109.363 E41.4346
G1 X125.53 Y109.773 E41.48213
G1 X125.377 Y110.05 E41.51581
G1 X125.086 Y110.48 E41.57107
G1 F860.2 X124.436 Y111.156 E41.6755
G1 F781.8 X124.141 Y111.42 E41.724
G1 F758.7 X123.784 Y111.597 E41.77431
G1 F785.2 X123.5 Y111.71 E41.8116
G1 F807.2 X123.141 Y111.823 E41.85627
G1 F828.5 X122.753 Y111.907 E41.90216
G1 F843.1 X122.311 Y111.961 E41.95276
G1 F849.1 X121.927 Y111.972 E41.9961
G1 F839.2 X121.447 Y111.945 E42.05097
G1 F817.3 X121.159 Y111.907 E42.08502
G1 F829.5 X120.8 Y111.786 E42.12877
G1 F877 X120.325 Y111.578 E42.18541
G1 F900 X120.083 Y111.456 E42.21425
G1 X119.735 Y111.237 E42.25802
G1 X119.427 Y110.996 E42.29964
G1 X119.148 Y110.732 E42.34052
G1 X118.89 Y110.435 E42.38239
G1 X118.625 Y110.06 E42.43127
G1 X118.415 Y109.659 E42.47944
G1 X118.271 Y109.303 E42.52032
G1 X118.174 Y108.986 E42.5556
G1 X118.104 Y108.652 E42.59192
G1 X118.058 Y108.252 E42.63477
G1 X118.05 Y106.7 E42.79996
G1 X101.95 Y106.7 E44.51352
G1 X101.947 Y108.134 E44.66615
G1 X101.914 Y108.531 E44.70854
G1 X101.826 Y108.986 E44.75787
G1 X101.691 Y109.405 E44.80472
G1 X101.585 Y109.658 E44.83392
G1 X101.335 Y110.131 E44.89086
G1 X100.985 Y110.586 E44.95196
G1 X100.684 Y110.908 E44.99887
G1 X100.266 Y111.236 E45.05542
G1 X99.922 Y111.451 E45.09859
G1 X99.674 Y111.578 E45.12825
G1 F877 X99.203 Y111.784 E45.1844
G1 F829.5 X98.834 Y111.909 E45.22939
G1 F819.1 X98.492 Y111.954 E45.26973
G1 F842.1 X97.891 Y111.971 E45.33812
G1 F847.1 X97.415 Y111.934 E45.39211
G1 F837.2 X97.082 Y111.877 E45.43077
G1 F819.1 X96.678 Y111.77 E45.47964
G1 F793.8 X96.286 Y111.628 E45.52995
G1 F765.1 X95.964 Y111.478 E45.57442
G1 F737.7 X95.52 Y111.223 E45.6409
G1 F697 X95.197 Y110.973 E45.69704
G1 F733.9 X94.937 Y110.57 E45.75963
G1 F852.1 X94.856 Y110.397 E45.7811
G1 F900 X94.621 Y110.049 E45.8258
G1 X94.417 Y109.663 E45.87226
G1 X94.269 Y109.293 E45.91468
G1 X94.162 Y108.936 E45.95434
G1 X94.086 Y108.533 E45.99799
G1 X94.056 Y108.223 E46.03114
G1 X94.05 Y106.7 E46.19324
G1 X90.75 Y106.7 E46.54447
G1 X90.888 Y107.31 E46.61103
G1 X90.977 Y107.638 E46.6472
G1 X91.095 Y107.991 E46.68682
G1 X91.229 Y108.335 E46.72611
G1 X91.378 Y108.667 E46.76484
G1 X91.524 Y108.959 E46.79959
G1 X91.697 Y109.262 E46.83672
G1 X91.898 Y109.581 E46.87685
G1 X92.102 Y109.871 E46.91459
G1 X92.34 Y110.174 E46.9556
G1 X92.559 Y110.429 E46.99137
G1 X92.815 Y110.698 E47.0309
G1 X93.085 Y110.954 E47.0705
G1 X93.327 Y111.163 E47.10453
G1 F857.1 X93.81 Y111.527 E47.17212
G1 F781.8 X94.275 Y111.733 E47.23444
G1 F708 X94.578 Y111.84 E47.27791
G1 F685.1 X94.893 Y112.025 E47.32899
G1 F712.2 X95.238 Y112.197 E47.38084
G1 F739.2 X95.568 Y112.343 E47.4276
G1 F762.7 X95.886 Y112.461 E47.4702
G1 F785.2 X96.241 Y112.572 E47.51558
G1 F806.3 X96.596 Y112.663 E47.55912
G1 F822.9 X96.912 Y112.726 E47.59663
G1 F837.2 X97.299 Y112.779 E47.64132
G1 F847.1 X97.869 Y112.816 E47.70591
G1 F848.1 X98.322 Y112.817 E47.75708
G1 F824.7 X98.911 Y112.796 E47.82553
G1 F850.1 X99.801 Y112.842 E47.92596
G1 F900 X120.194 Y112.842 E50.09643
G1 F1500 E43.59643
G1 F300 Z0.52
G0 F6000 X126.26 Y110.329 Z0.52
G1 F300 Z0.32
G1 F1500 E50.09643
G1 F721.4 X126.556 Y110.055 E50.14999
G1 X126.778 Y109.82 E50.19291
G1 X126.986 Y109.579 E50.23518
G1 X127.179 Y109.332 E50.2768
G1 X127.36 Y109.072 E50.31886
G1 X127.53 Y108.803 E50.36111
G1 X127.689 Y108.523 E50.40387
G1 X127.821 Y108.258 E50.44317
G1 X127.947 Y107.972 E50.48467
G1 X128.087 Y107.601 E50.53732
G1 X126.847 Y107.599 E50.70196
G1 X126.842 Y108.28 E50.79238
G1 X126.798 Y108.738 E50.85347
G1 X126.716 Y109.129 E50.90652
G1 X126.59 Y109.559 E50.96601
G1 X126.429 Y109.972 E51.02487
G1 X126.26 Y110.329 E51.07731
G1 F1500 E44.57731
G1 F300 Z0.52
G0 F6000 X100.494 Y112.042 Z0.52
G1 F300 Z0.32
G1 F1500 E51.07731
G1 F900 X119.47 Y112.041 E53.09697
G1 X118.925 Y111.619 E53.17033
G1 X118.589 Y111.305 E53.21928
G1 X118.221 Y110.884 E53.27879
G1 X117.941 Y110.477 E53.33137
G1 X117.759 Y110.139 E53.37223
G1 X117.54 Y109.647 E53.42955
G1 X117.401 Y109.191 E53.48029
G1 X117.32 Y108.811 E53.52164
G1 X117.253 Y108.258 E53.58093
G1 X117.252 Y107.5 E53.6616
G1 X102.748 Y107.5 E55.2053
G1 X102.747 Y108.136 E55.27299
G1 X102.704 Y108.69 E55.33213
G1 X102.599 Y109.191 E55.38661
