;FLAVOR:Marlin
;TIME:536
;Filament used: 0.935809m
;Layer height: 0.32
;MINX:94.858
;MINY:84.762
;MINZ:0.32
;MAXX:125.154
;MAXY:124.225
;MAXZ:11.08
;TARGET_MACHINE.NAME:Creality Ender-3 Pro
;Generated with Cura_SteamEngine 5.5.0
M82 ;absolute extrusion mode
; Ender 3 Custom Start G-code
G92 E0 ; Reset Extruder
G28 ; Home all axes
G1 Z5.0 F3000 ; Move Z Axis up a bit during heating to not damage bed
M104 S120 ; Start heating up the nozzle most of the way
M190 S70 ; Start heating the bed, wait until target temperature reached
M109 S235.0 ; Finish heating the nozzle
G1 Z2.0 F3000 ; Move Z Axis up little to prevent scratching of Heat Bed
G1 X0.1 Y20 Z0.3 F5000.0 ; Move to start position
G1 X0.1 Y200.0 Z0.3 F1500.0 E15 ; Draw the first line
G1 X0.4 Y200.0 Z0.3 F5000.0 ; Move to side a little
G1 X0.4 Y20 Z0.3 F1500.0 E30 ; Draw the second line
G92 E0 ; Reset Extruder
G1 Z2.0 F3000 ; Move Z Axis up little to prevent scratching of Heat Bed
G1 X5 Y20 Z0.3 F5000.0 ; Move over to prevent blob squish
G92 E0
G92 E0
G1 F1500 E-6.5
;LAYER_COUNT:34
;LAYER:0
M107
G1 F300 Z0.52
G0 F6000 X98.164 Y94.903 Z0.52
;TYPE:SKIRT
G1 F300 Z0.32
G1 F1500 E0
G1 F900 X98.802 Y94.379 E0.08787
G1 X99.081 Y94.196 E0.12338
G1 X100.088 Y93.586 E0.24869
G1 X101.186 Y92.963 E0.38306
G1 X101.995 Y92.56 E0.47925
G1 X103.392 Y91.904 E0.64351
G1 X105.789 Y90.694 E0.92929
G1 X108.153 Y89.416 E1.21531
G1 X110.469 Y88.075 E1.50015
G1 X112.741 Y86.675 E1.78419
G1 X113.787 Y85.989 E1.91732
G1 X114.535 Y85.518 E2.0114
G1 X115.162 Y85.183 E2.08706
G1 X115.914 Y84.922 E2.17178
G1 X116.995 Y84.775 E2.2879
G1 X117.436 Y84.762 E2.33485
G1 X119.521 Y84.762 E2.55676
G1 X120.341 Y84.778 E2.64406
G1 X120.976 Y84.836 E2.71192
G1 X121.727 Y85.024 E2.79432
G1 X122.432 Y85.321 E2.87574
G1 X123.083 Y85.721 E2.95706
G1 X123.673 Y86.221 E3.03937
G1 X124.172 Y86.801 E3.12081
G1 X124.576 Y87.446 E3.20181
G1 X124.882 Y88.155 E3.284
G1 X125.073 Y88.899 E3.36575
G1 X125.144 Y89.633 E3.44424
G1 X125.153 Y89.996 E3.48289
G1 X125.154 Y118.09 E6.473
G1 X125.139 Y118.94 E6.56348
G1 X125.08 Y119.581 E6.63199
G1 X124.9 Y120.314 E6.71232
G1 X124.6 Y121.034 E6.79534
G1 X124.199 Y121.687 E6.8769
G1 X123.707 Y122.268 E6.95793
G1 X123.123 Y122.777 E7.04038
G1 X122.473 Y123.184 E7.12201
G1 X121.775 Y123.485 E7.20291
G1 X121.024 Y123.68 E7.28549
G1 X120.312 Y123.751 E7.36165
G1 X119.592 Y123.774 E7.43832
G1 X116.535 Y123.833 E7.76374
G1 X113.77 Y123.925 E8.05819
G1 X110.597 Y124.129 E8.3966
G1 X109.541 Y124.214 E8.50935
G1 X109.223 Y124.225 E8.54322
G1 X107.663 Y124.204 E8.70927
G1 X106.9 Y124.172 E8.79055
G1 X106.302 Y124.102 E8.85463
G1 X105.307 Y123.918 E8.96232
G1 X104.086 Y123.657 E9.09521
G1 X103.522 Y123.49 E9.15782
G1 X102.202 Y122.993 E9.30794
G1 X101.381 Y122.655 E9.40243
G1 X100.842 Y122.387 E9.4665
G1 X100.054 Y121.925 E9.56372
G1 X98.972 Y121.253 E9.69928
G1 X98.462 Y120.881 E9.76647
G1 X97.76 Y120.287 E9.86434
G1 X96.74 Y119.377 E10.00983
G1 X96.189 Y118.811 E10.0939
G1 X95.651 Y117.987 E10.19864
G1 X95.441 Y117.581 E10.24729
G1 X95.18 Y116.98 E10.31703
G1 X94.977 Y116.149 E10.40807
G1 X94.919 Y115.776 E10.44825
G1 X94.858 Y115.081 E10.52251
G1 X94.89 Y114.517 E10.58263
G1 X94.973 Y113.815 E10.65787
G1 X95.363 Y111.403 E10.91791
G1 X95.709 Y108.803 E11.19708
G1 X95.996 Y106.046 E11.4921
G1 X96.196 Y103.396 E11.77495
G1 X96.324 Y100.683 E12.06402
G1 X96.385 Y98.795 E12.26507
G1 X96.452 Y98.162 E12.33282
G1 X96.637 Y97.468 E12.40926
G1 X96.753 Y97.124 E12.4479
G1 X97.05 Y96.413 E12.52991
G1 X97.474 Y95.744 E12.61421
G1 X97.736 Y95.397 E12.66048
G1 X98.164 Y94.903 E12.73005
G0 F6000 X98.725 Y95.478
G1 F900 X99.243 Y95.047 E12.80177
G1 X99.496 Y94.88 E12.83404
G1 X100.483 Y94.282 E12.95686
G1 X101.581 Y93.659 E13.09123
G1 X102.335 Y93.284 E13.18085
G1 X103.749 Y92.62 E13.34712
G1 X106.15 Y91.408 E13.63337
G1 X108.533 Y90.12 E13.92168
G1 X110.889 Y88.756 E14.21142
G1 X113.166 Y87.353 E14.49608
G1 X114.215 Y86.665 E14.6296
G1 X114.912 Y86.224 E14.71739
G1 X115.483 Y85.919 E14.78628
G1 X116.104 Y85.703 E14.85626
G1 X117.019 Y85.575 E14.9546
G1 X117.46 Y85.562 E15.00155
G1 X119.507 Y85.562 E15.21942
G1 X120.268 Y85.575 E15.30043
G1 X120.844 Y85.628 E15.36199
G1 X121.475 Y85.786 E15.43122
G1 X122.06 Y86.032 E15.49877
G1 X122.617 Y86.374 E15.56833
G1 X123.103 Y86.786 E15.63615
G1 X123.527 Y87.279 E15.70535
G1 X123.868 Y87.823 E15.77369
G1 X124.122 Y88.411 E15.84186
G1 X124.283 Y89.039 E15.91086
G1 X124.344 Y89.654 E15.97664
G1 X124.353 Y89.996 E16.01305
G1 X124.354 Y118.078 E19.00189
G1 X124.342 Y118.867 E19.08587
G1 X124.289 Y119.448 E19.14796
G1 X124.136 Y120.067 E19.21583
G1 X123.886 Y120.667 E19.28501
G1 X123.548 Y121.218 E19.35381
G1 X123.138 Y121.702 E19.42132
G1 X122.645 Y122.132 E19.49095
G1 X122.099 Y122.474 E19.55952
G1 X121.514 Y122.726 E19.62731
G1 X120.884 Y122.89 E19.6966
G1 X120.286 Y122.951 E19.76058
G1 X119.577 Y122.974 E19.83608
G1 X116.508 Y123.033 E20.16278
G1 X113.743 Y123.125 E20.45723
G1 X110.543 Y123.331 E20.79851
G1 X109.513 Y123.414 E20.9085
G1 X109.195 Y123.425 E20.94236
G1 X107.695 Y123.405 E21.10202
G1 X106.991 Y123.377 E21.17701
G1 X106.447 Y123.315 E21.23529
G1 X105.472 Y123.135 E21.34081
G1 X104.313 Y122.89 E21.46689
G1 X103.749 Y122.723 E21.5295
G1 X102.505 Y122.253 E21.67103
G1 X101.735 Y121.938 E21.75958
G1 X101.247 Y121.697 E21.81751
G1 X100.476 Y121.245 E21.91263
G1 X99.394 Y120.573 E22.04819
G1 X98.935 Y120.236 E22.1088
G1 X98.293 Y119.69 E22.19849
G1 X97.273 Y118.78 E22.34398
G1 X96.816 Y118.309 E22.41383
G1 X96.36 Y117.616 E22.50212
G1 X96.175 Y117.262 E22.54463
G1 X95.941 Y116.724 E22.60708
G1 X95.767 Y116.021 E22.68416
G1 X95.716 Y115.706 E22.71812
G1 X95.66 Y115.07 E22.78607
G1 X95.689 Y114.563 E22.84012
G1 X95.763 Y113.943 E22.90658
G1 X96.153 Y111.531 E23.16663
G1 X96.505 Y108.888 E23.45041
G1 X96.792 Y106.129 E23.74564
G1 X96.994 Y103.456 E24.03095
G1 X97.124 Y100.708 E24.32375
G1 X97.181 Y98.88 E24.5184
G1 X97.242 Y98.306 E24.57984
G1 X97.395 Y97.724 E24.64389
G1 X97.511 Y97.38 E24.68253
G1 X97.762 Y96.784 E24.75136
G1 X98.115 Y96.223 E24.8219
G1 X98.341 Y95.921 E24.86205
G1 X98.725 Y95.478 E24.92445
G0 F6000 X99.287 Y96.051
G1 F900 X99.685 Y95.714 E24.97995
G1 X99.911 Y95.564 E25.00882
G1 X100.878 Y94.977 E25.12922
G1 X101.937 Y94.375 E25.25887
G1 X102.675 Y94.008 E25.34659
G1 X104.089 Y93.344 E25.51286
G1 X106.53 Y92.112 E25.80387
G1 X108.913 Y90.824 E26.09218
G1 X111.309 Y89.437 E26.38684
G1 X113.598 Y88.027 E26.67297
G1 X114.643 Y87.341 E26.80602
G1 X115.34 Y86.9 E26.8938
G1 X115.801 Y86.656 E26.94932
G1 X116.293 Y86.485 E27.00475
G1 X117.043 Y86.375 E27.08543
G1 X117.484 Y86.362 E27.13239
G1 X119.496 Y86.362 E27.34653
G1 X120.194 Y86.372 E27.42083
G1 X120.713 Y86.42 E27.4763
G1 X121.218 Y86.546 E27.5317
G1 X121.699 Y86.748 E27.58722
G1 X122.143 Y87.021 E27.6427
G1 X122.54 Y87.358 E27.69812
G1 X122.88 Y87.753 E27.75359
G1 X123.157 Y88.195 E27.80911
G1 X123.363 Y88.673 E27.86451
G1 X123.493 Y89.178 E27.92001
G1 X123.544 Y89.676 E27.97329
G1 X123.553 Y89.996 E28.00736
G1 X123.554 Y118.068 E30.99513
G1 X123.545 Y118.795 E31.07252
G1 X123.498 Y119.314 E31.12798
G1 X123.373 Y119.82 E31.18345
G1 X123.172 Y120.301 E31.23894
G1 X122.9 Y120.745 E31.29436
G1 X122.563 Y121.143 E31.34986
G1 X122.17 Y121.485 E31.40531
G1 X121.728 Y121.762 E31.46083
G1 X121.25 Y121.968 E31.51623
G1 X120.745 Y122.1 E31.57178
G1 X120.26 Y122.151 E31.62369
G1 X119.562 Y122.174 E31.69802
G1 X116.481 Y122.233 E32.02599
G1 X113.716 Y122.325 E32.32044
G1 X110.489 Y122.533 E32.66461
G1 X109.485 Y122.614 E32.77182
G1 X109.167 Y122.625 E32.80568
G1 X107.725 Y122.606 E32.95917
G1 X107.079 Y122.582 E33.02798
G1 X106.592 Y122.528 E33.08013
G1 X105.636 Y122.352 E33.18358
G1 X104.537 Y122.122 E33.30309
G1 X104.032 Y121.975 E33.35907
G1 X102.806 Y121.512 E33.49855
G1 X102.087 Y121.22 E33.58114
G1 X101.651 Y121.006 E33.63284
G1 X100.897 Y120.565 E33.7258
G1 X99.865 Y119.926 E33.85499
G1 X99.453 Y119.626 E33.90924
G1 X98.826 Y119.093 E33.99682
G1 X97.806 Y118.183 E34.14231
G1 X97.445 Y117.808 E34.19771
G1 X97.067 Y117.241 E34.27024
G1 X96.909 Y116.943 E34.30614
G1 X96.701 Y116.465 E34.36162
G1 X96.557 Y115.893 E34.4244
G1 X96.506 Y115.578 E34.45836
G1 X96.462 Y115.059 E34.5138
G1 X96.483 Y114.658 E34.55654
G1 X96.553 Y114.071 E34.61946
G1 X96.943 Y111.659 E34.8795
G1 X97.301 Y108.973 E35.16791
G1 X97.588 Y106.212 E35.46335
G1 X97.792 Y103.516 E35.75112
G1 X97.924 Y100.732 E36.04776
G1 X97.977 Y98.964 E36.23601
G1 X98.032 Y98.446 E36.29145
G1 X98.153 Y97.98 E36.3427
G1 X98.269 Y97.636 E36.38134
G1 X98.473 Y97.156 E36.43685
G1 X98.758 Y96.699 E36.49417
G1 X98.946 Y96.445 E36.5278
G1 X99.287 Y96.051 E36.58326
G1 F1500 E30.08326
G1 F300 Z0.52
;MESH:SteckerKlipp-K??rper.stl
G0 F6000 X103.336 Y99.001 Z0.52
;TYPE:WALL-INNER
G1 F300 Z0.32
G1 F1500 E36.58326
G1 F1135.3 X104.179 Y98.549 E36.71777
G1 F1148.3 X104.932 Y98.235 E36.8312
G1 F1145 X105.947 Y97.925 E36.97917
G1 F1146.1 X106.994 Y97.714 E37.12794
G1 F1150.5 X107.793 Y97.633 E37.23938
G1 F1145 X109.118 Y97.63 E37.42412
G1 F1150.5 X109.671 Y97.681 E37.50118
G1 F1141.8 X111.207 Y97.986 E37.72015
G1 F1153.8 X111.493 Y98.066 E37.76124
G1 F1137.4 X113.279 Y98.813 E38.03296
G1 F1129.9 X114.789 Y99.833 E38.29042
G1 F1153.8 X115.124 Y100.117 E38.35118
G1 F1146.1 X115.94 Y100.94 E38.51262
G1 F1500 E32.01262
G1 F300 Z0.52
G0 F6000 X118.206 Y103.152 Z0.52
G1 F300 Z0.32
G1 F1500 E38.51262
G1 F1721.7 X118.206 Y101.259 E38.68816
G1 X117.915 Y101.488 E38.72249
G1 X117.351 Y101.728 E38.77933
G1 X118.206 Y103.152 E38.93335
G1 F1500 E32.43335
G1 F300 Z0.52
G0 F6000 X111.162 Y117.589 Z0.52
G1 F300 Z0.32
G1 F1500 E38.93335
G1 F1246.1 X111.617 Y117.668 E38.99252
G1 F1352.9 X112.559 Y117.679 E39.10369
G1 F1447.5 X113.501 Y117.69 E39.20759
G1 F1500 X118.954 Y117.583 E39.78808
G1 X118.954 Y111.929 E40.38985
G1 F1544.4 X118.977 Y110.048 E40.5843
G1 F1657.5 X119.007 Y108.871 E40.69771
G1 F1807.2 X119.037 Y107.694 E40.80172
G1 F1799.1 X119.004 Y106.507 E40.90709
G1 F1634.9 X118.97 Y105.319 E41.02315
G1 F1530.6 X118.954 Y103.437 E41.21946
G1 F1505.6 X118.957 Y100.688 E41.51094
G1 F1595.7 X118.999 Y99.956 E41.5843
G1 F1702.1 X119.004 Y90.912 E42.43257
G1 F1714.3 X118.304 Y90.912 E42.49776
G1 F1709.4 X118.304 Y99.863 E43.33373
G1 F1602.1 X118.116 Y100.41 E43.39137
G1 F1505.6 X117.623 Y100.8 E43.45802
G1 F1500 X117.215 Y100.973 E43.50519
G1 X116.897 Y101.059 E43.54025
G1 X116.642 Y101.065 E43.5674
G1 F1379.3 X116.291 Y101.003 E43.60865
G1 F1186.9 X115.94 Y100.94 E43.65662
G1 X116.159 Y101.275 E43.71045
G1 F1379.3 X116.378 Y101.61 E43.75677
G1 F1500 X116.531 Y101.813 E43.78383
G1 X117.498 Y103.427 E43.98408
G1 X117.605 Y103.659 E44.01128
G1 F1562.5 X118.225 Y105.541 E44.21373
G1 F1666.7 X118.408 Y107.684 E44.41976
G1 F1630.4 X118.248 Y109.838 E44.63125
G1 F1530.6 X117.666 Y111.727 E44.83742
G1 F1500 X117.561 Y111.961 E44.86472
G1 X116.619 Y113.588 E45.06482
G1 X116.468 Y113.793 E45.09192
G1 X115.201 Y115.189 E45.29257
G1 X115.009 Y115.359 E45.31986
G1 X113.48 Y116.448 E45.51965
G1 X113.259 Y116.572 E45.54662
G1 F1447.5 X112.407 Y116.971 E45.65038
G1 F1352.9 X111.554 Y117.371 E45.76156
G1 F1246.1 X111.162 Y117.589 E45.81903
G0 F6000 X111.124 Y117.582
G1 F1126.8 X109.41 Y117.876 E46.06543
G1 F1152.7 X109.088 Y117.906 E46.11022
G1 F1129.9 X107.225 Y117.867 E46.3735
G1 F1119.4 X105.589 Y117.509 E46.61234
G1 F1148.3 X105.023 Y117.328 E46.69496
G1 F1141.8 X103.937 Y116.858 E46.86042
G1 F1143.9 X103.12 Y116.414 E46.99019
G1 X102.432 Y115.944 E47.10647
G1 F1128.9 X101.757 Y115.387 E47.23024
G1 F1500 E40.73024
G1 F300 Z0.52
G0 F6000 X114.26 Y116.874 Z0.52
G1 F300 Z0.32
G1 F1500 E47.23024
G1 X118.154 Y116.799 E47.64476
G1 X118.154 Y112.533 E48.0988
G1 X117.311 Y113.99 E48.27796
G1 X117.06 Y114.331 E48.32302
G1 X115.793 Y115.727 E48.52367
G1 X115.473 Y116.011 E48.56921
G1 X114.26 Y116.874 E48.72765
G1 F1500 E42.22765
G1 F300 Z0.52
G0 F6000 X109.148 Y118.836 Z0.52
M104 S230
;TYPE:WALL-OUTER
G1 F300 Z0.32
G1 F1500 E48.72765
G1 X111.089 Y118.539 E48.93664
G1 X119.754 Y118.368 E49.85906
G1 X119.754 Y90.162 E52.86109
G1 X117.554 Y90.162 E53.09525
G1 X117.549 Y99.765 E54.11732
G1 X117.476 Y99.934 E54.13691
G1 X117.311 Y100.064 E54.15927
G1 X116.903 Y100.237 E54.20643
G1 X116.711 Y100.267 E54.22712
G1 X116.505 Y100.188 E54.2506
G1 X115.375 Y99.101 E54.41748
G1 X113.668 Y97.976 E54.63507
G1 X111.773 Y97.178 E54.85391
G1 X109.785 Y96.746 E55.07044
G1 X107.733 Y96.688 E55.28892
G1 X105.714 Y97.004 E55.50643
G1 X103.782 Y97.689 E55.7246
G1 X101.962 Y98.742 E55.94839
G1 X101.829 Y98.946 E55.97431
G1 X103.244 Y100.103 E56.16884
G1 X103.509 Y99.933 E56.20235
G1 X105.231 Y99.082 E56.40679
G1 X107.134 Y98.603 E56.61565
G1 X109.092 Y98.535 E56.82417
G1 X111.013 Y98.878 E57.03186
G1 X112.865 Y99.638 E57.24492
G1 X114.494 Y100.769 E57.45599
G1 X115.822 Y102.187 E57.66276
G1 X116.833 Y103.872 E57.87191
G1 X117.466 Y105.745 E58.08233
G1 X117.686 Y107.695 E58.29119
G1 X117.495 Y109.637 E58.49888
G1 X116.891 Y111.521 E58.70945
G1 X115.908 Y113.22 E58.91837
G1 X114.582 Y114.68 E59.12828
G1 X112.98 Y115.822 E59.33767
G1 X111.176 Y116.6 E59.54677
G1 X109.272 Y116.975 E59.75331
G1 X107.247 Y116.934 E59.96888
G1 X105.361 Y116.491 E60.17508
G1 X103.586 Y115.643 E60.38445
G1 X102.032 Y114.437 E60.59381
G1 X101.853 Y114.266 E60.62015
G1 X100.285 Y115.191 E60.81391
G1 X100.379 Y115.396 E60.83792
G1 X101.87 Y116.708 E61.0493
G1 X103.517 Y117.709 E61.25443
G1 X105.324 Y118.414 E61.46087
G1 X107.21 Y118.793 E61.66562
G1 X109.148 Y118.836 E61.87193
G1 F1500 E55.37193
G1 F300 Z0.52
G0 F6000 X116.312 Y116.159 Z0.52
;TYPE:SKIN
G1 F300 Z0.32
G1 F1500 E61.87193
G1 F1016.9 X117.48 Y114.872 E62.03564
G1 X117.48 Y116.137 E62.15479
G1 X116.312 Y116.159 E62.26483
G1 F1500 E55.76483
G1 F300 Z0.52
;MESH:NONMESH
G0 F6000 X99.287 Y96.051 Z0.52
;TIME_ELAPSED:42.477787
;LAYER:1
G0 F7500 X99.287 Y96.051 Z0.84
;TYPE:SKIRT
G1 F300 Z0.64
G1 F1500 E62.26483
G1 F900 X99.685 Y95.714 E62.32033
G1 X99.911 Y95.564 E62.3492
G1 X100.878 Y94.977 E62.4696
G1 X101.937 Y94.375 E62.59925
G1 X102.675 Y94.008 E62.68698
G1 X104.089 Y93.344 E62.85324
G1 X106.53 Y92.112 E63.14426
G1 X108.913 Y90.824 E63.43256
G1 X111.309 Y89.437 E63.72722
G1 X113.598 Y88.027 E64.01335
G1 X114.643 Y87.341 E64.1464
G1 X115.34 Y86.9 E64.23419
G1 X115.801 Y86.656 E64.2897
G1 X116.293 Y86.485 E64.34514
G1 X117.043 Y86.375 E64.42582
G1 X117.484 Y86.362 E64.47277
G1 X119.496 Y86.362 E64.68691
G1 X120.194 Y86.372 E64.76121
G1 X120.713 Y86.42 E64.81669
G1 X121.218 Y86.546 E64.87208
G1 X121.699 Y86.748 E64.92761
G1 X122.143 Y87.021 E64.98308
G1 X122.54 Y87.358 E65.03851
G1 X122.88 Y87.753 E65.09398
G1 X123.157 Y88.195 E65.14949
G1 X123.363 Y88.673 E65.20489
G1 X123.493 Y89.178 E65.26039
G1 X123.544 Y89.676 E65.31367
G1 X123.553 Y89.996 E65.34774
G1 X123.554 Y118.068 E68.33552
G1 X123.545 Y118.795 E68.4129
G1 X123.498 Y119.314 E68.46836
G1 X123.373 Y119.82 E68.52384
G1 X123.172 Y120.301 E68.57932
G1 X122.9 Y120.745 E68.63474
G1 X122.563 Y121.143 E68.69024
G1 X122.17 Y121.485 E68.74569
G1 X121.728 Y121.762 E68.80121
G1 X121.25 Y121.968 E68.85661
G1 X120.745 Y122.1 E68.91216
G1 X120.26 Y122.151 E68.96407
G1 X119.562 Y122.174 E69.0384
G1 X116.481 Y122.233 E69.36638
G1 X113.716 Y122.325 E69.66082
G1 X110.489 Y122.533 E70.005
G1 X109.485 Y122.614 E70.1122
G1 X109.167 Y122.625 E70.14607
G1 X107.725 Y122.606 E70.29956
G1 X107.079 Y122.582 E70.36836
G1 X106.592 Y122.528 E70.42051
G1 X105.636 Y122.352 E70.52397
G1 X104.537 Y122.122 E70.64347
G1 X104.032 Y121.975 E70.69945
G1 X102.806 Y121.512 E70.83893
G1 X102.087 Y121.22 E70.92153
G1 X101.651 Y121.006 E70.97322
G1 X100.897 Y120.565 E71.06619
G1 X99.865 Y119.926 E71.19538
G1 X99.453 Y119.626 E71.24962
G1 X98.826 Y119.093 E71.33721
G1 X97.806 Y118.183 E71.48269
G1 X97.445 Y117.808 E71.53809
G1 X97.067 Y117.241 E71.61062
G1 X96.909 Y116.943 E71.64652
G1 X96.701 Y116.465 E71.702
G1 X96.557 Y115.893 E71.76478
G1 X96.506 Y115.578 E71.79874
G1 X96.462 Y115.059 E71.85418
G1 X96.483 Y114.658 E71.89692
G1 X96.553 Y114.071 E71.95984
G1 X96.943 Y111.659 E72.21989
G1 X97.301 Y108.973 E72.50829
G1 X97.588 Y106.212 E72.80374
