;FLAVOR:Marlin
;TIME:5413
;Filament used: 9.30659m
;Layer height: 0.32
;MINX:57.05
;MINY:59.007
;MINZ:0.32
;MAXX:162.95
;MAXY:161.016
;MAXZ:31.04
;TARGET_MACHINE.NAME:Creality Ender-3 Pro
;Generated with Cura_SteamEngine 5.5.0
M82 ;absolute extrusion mode
; Ender 3 Custom Start G-code
G92 E0 ; Reset Extruder
G28 ; Home all axes
G1 Z5.0 F3000 ; Move Z Axis up a bit during heating to not damage bed
M104 S120 ; Start heating up the nozzle most of the way
M190 S70 ; Start heating the bed, wait until target temperature reached
M109 S230 ; Finish heating the nozzle
G1 Z2.0 F3000 ; Move Z Axis up little to prevent scratching of Heat Bed
G1 X0.1 Y20 Z0.3 F5000.0 ; Move to start position
G1 X0.1 Y200.0 Z0.3 F1500.0 E15 ; Draw the first line
G1 X0.4 Y200.0 Z0.3 F5000.0 ; Move to side a little
G1 X0.4 Y20 Z0.3 F1500.0 E30 ; Draw the second line
G92 E0 ; Reset Extruder
G1 Z2.0 F3000 ; Move Z Axis up little to prevent scratching of Heat Bed
G1 X5 Y20 Z0.3 F5000.0 ; Move over to prevent blob squish
G92 E0
G92 E0
G1 F1500 E-6.5
;LAYER_COUNT:97
;LAYER:0
M107
G0 F6000 X75.319 Y79.828 Z0.32
;TYPE:SKIRT
G1 F1500 E0
G1 F900 X75.852 Y79.337 E0.07713
G1 X76.28 Y78.967 E0.13735
G1 X76.815 Y78.528 E0.211
G1 X77.248 Y78.19 E0.26947
G1 X77.692 Y77.862 E0.32822
G1 X78.616 Y77.227 E0.44755
G1 X79.116 Y76.91 E0.51056
G1 X79.642 Y76.595 E0.57581
G1 X80.13 Y76.32 E0.63543
G1 X80.7 Y76.017 E0.70413
G1 X81.61 Y75.573 E0.8119
G1 X82.112 Y75.35 E0.87037
G1 X82.761 Y75.079 E0.94522
G1 X83.373 Y74.845 E1.01496
G1 X83.976 Y74.634 E1.08295
G1 X84.479 Y74.471 E1.13923
G1 X85.023 Y74.31 E1.19961
G1 X85.556 Y74.166 E1.25837
G1 X86.183 Y74.013 E1.32706
G1 X86.726 Y73.894 E1.38623
G1 X87.258 Y73.791 E1.4439
G1 X87.793 Y73.702 E1.50162
G1 X88.906 Y73.543 E1.62129
G1 X90.865 Y73.284 E1.8316
G1 X93.342 Y72.886 E2.09862
G1 X95.797 Y72.419 E2.36459
G1 X98.221 Y71.888 E2.6287
G1 X100.639 Y71.285 E2.89394
G1 X103.001 Y70.625 E3.15496
G1 X105.428 Y69.871 E3.42545
G1 X107.786 Y69.066 E3.69064
G1 X110.103 Y68.2 E3.95391
G1 X112.407 Y67.265 E4.21855
G1 X114.67 Y66.269 E4.4817
G1 X116.901 Y65.214 E4.74436
G1 X119.145 Y64.071 E5.0124
G1 X121.348 Y62.872 E5.27934
G1 X123.27 Y61.76 E5.51568
G1 X124.257 Y61.251 E5.63387
G1 X125.151 Y60.874 E5.73714
G1 X126.01 Y60.568 E5.83419
G1 X127.166 Y60.267 E5.96133
G1 X128.232 Y60.097 E6.07622
G1 X129.64 Y60.016 E6.22632
G1 X130.937 Y60.02 E6.36437
G1 X133.493 Y59.993 E6.63642
G1 X135.964 Y59.896 E6.89962
G1 X138.453 Y59.728 E7.16513
G1 X140.909 Y59.49 E7.42776
G1 X144.057 Y59.094 E7.76545
G1 X145.176 Y59.007 E7.8849
G1 X146.146 Y59.015 E7.98815
G1 X146.847 Y59.07 E8.06299
G1 X147.294 Y59.12 E8.11086
G1 X148.195 Y59.259 E8.20789
G1 X149.284 Y59.524 E8.32718
G1 X150.283 Y59.865 E8.43952
G1 X151.237 Y60.287 E8.55055
G1 X152.12 Y60.765 E8.65742
G1 X153.01 Y61.322 E8.76916
G1 X153.801 Y61.919 E8.87464
G1 X154.793 Y62.829 E9.01792
G1 X155.424 Y63.486 E9.11487
G1 X156.044 Y64.188 E9.21455
G1 X156.506 Y64.751 E9.29207
G1 X157.106 Y65.536 E9.39723
G1 X157.455 Y66.028 E9.46143
G1 X157.792 Y66.531 E9.52587
G1 X158.109 Y67.031 E9.58888
G1 X158.431 Y67.568 E9.65552
G1 X158.709 Y68.062 E9.71585
G1 X159.221 Y69.049 E9.83419
G1 X159.448 Y69.526 E9.89042
G1 X159.684 Y70.053 E9.95187
G1 X159.95 Y70.696 E10.02594
G1 X160.162 Y71.245 E10.08857
G1 X160.494 Y72.216 E10.19779
G1 X160.694 Y72.875 E10.27109
G1 X160.858 Y73.471 E10.33688
G1 X161.013 Y74.108 E10.40666
G1 X161.139 Y74.684 E10.46941
G1 X161.322 Y75.695 E10.57876
G1 X161.415 Y76.336 E10.6477
G1 X161.482 Y76.911 E10.70931
G1 X161.538 Y77.532 E10.77568
G1 X161.576 Y78.106 E10.8369
G1 X161.602 Y78.725 E10.90284
G1 X161.611 Y79.27 E10.96086
G1 X161.592 Y81.872 E11.2378
G1 X161.628 Y84.388 E11.50561
G1 X161.731 Y86.79 E11.7615
G1 X161.908 Y89.295 E12.02877
G1 X162.154 Y91.768 E12.29328
G1 X162.474 Y94.266 E12.56132
G1 X162.829 Y96.617 E12.81438
G1 X162.935 Y97.866 E12.94779
G1 X162.95 Y98.548 E13.0204
G1 X162.949 Y102.945 E13.48838
G1 X162.936 Y103.721 E13.57098
G1 X162.882 Y104.631 E13.66801
G1 X162.7 Y105.839 E13.79803
G1 X162.384 Y107.065 E13.93278
G1 X161.42 Y110.05 E14.26664
G1 X160.72 Y112.463 E14.53405
G1 X160.487 Y113.303 E14.62683
G1 X160.158 Y114.3 E14.73857
G1 X159.772 Y115.203 E14.84309
G1 X159.243 Y116.193 E14.96256
G1 X158.709 Y117.01 E15.06644
G1 X158.177 Y117.704 E15.15951
G1 X157.53 Y118.484 E15.26737
G1 X155.942 Y120.453 E15.5366
G1 X154.484 Y122.371 E15.79302
G1 X152.995 Y124.445 E16.06476
G1 X151.613 Y126.493 E16.32772
G1 X150.262 Y128.621 E16.59599
G1 X149.01 Y130.725 E16.85658
G1 X147.8 Y132.893 E17.12083
G1 X146.39 Y135.603 E17.44596
G1 X145.898 Y136.45 E17.55022
G1 X145.337 Y137.256 E17.65473
G1 X144.664 Y138.066 E17.76682
G1 X143.811 Y138.918 E17.89514
G1 X142.978 Y139.604 E18.00999
G1 X140.628 Y141.343 E18.32114
G1 X138.703 Y142.854 E18.5816
G1 X136.768 Y144.464 E18.84951
G1 X134.893 Y146.115 E19.11541
G1 X133.127 Y147.762 E19.37243
G1 X131.331 Y149.533 E19.64088
G1 X129.578 Y151.362 E19.91052
G1 X127.922 Y153.191 E20.17312
G1 X126.293 Y155.099 E20.44014
G1 X125.522 Y156.053 E20.57069
G1 X124.961 Y156.727 E20.66402
G1 X124.348 Y157.402 E20.76107
G1 X123.472 Y158.212 E20.88805
G1 X122.639 Y158.849 E20.99966
G1 X121.812 Y159.377 E21.10409
G1 X120.942 Y159.836 E21.20879
G1 X119.841 Y160.297 E21.33583
G1 X118.971 Y160.573 E21.43297
G1 X117.878 Y160.819 E21.55221
G1 X116.786 Y160.964 E21.66945
G1 X116.134 Y161.001 E21.73896
G1 X115.452 Y161.016 E21.81156
G1 X113.29 Y161.015 E22.04167
G1 X112.57 Y161.003 E22.11831
G1 X111.467 Y160.933 E22.23594
G1 X110.79 Y160.84 E22.30868
G1 X108.023 Y160.364 E22.6075
G1 X105.527 Y160.009 E22.87583
G1 X102.959 Y159.718 E23.1509
G1 X101.641 Y159.586 E23.29188
G1 X101.09 Y159.517 E23.35098
G1 X100.487 Y159.425 E23.4159
G1 X99.408 Y159.221 E23.53278
G1 X98.858 Y159.097 E23.59278
G1 X97.789 Y158.816 E23.71042
G1 X97.175 Y158.629 E23.77874
G1 X96.627 Y158.447 E23.84019
G1 X96.042 Y158.236 E23.90638
G1 X95.523 Y158.035 E23.96562
G1 X94.622 Y157.653 E24.06978
G1 X92.856 Y156.852 E24.27617
G1 X90.502 Y155.854 E24.5483
G1 X88.192 Y154.951 E24.81227
G1 X85.849 Y154.111 E25.07719
G1 X83.534 Y153.354 E25.33642
G1 X81.094 Y152.632 E25.60724
G1 X78.728 Y152.004 E25.86778
G1 X76.301 Y151.433 E26.13314
G1 X73.822 Y150.922 E26.40254
G1 X71.855 Y150.556 E26.61548
G1 X70.966 Y150.352 E26.71256
G1 X69.831 Y149.984 E26.83955
G1 X68.936 Y149.602 E26.94312
G1 X68.262 Y149.255 E27.02381
G1 X67.944 Y149.077 E27.06259
G1 X67.079 Y148.542 E27.17085
G1 X66.165 Y147.858 E27.29235
G1 X65.274 Y147.044 E27.4208
G1 X64.816 Y146.575 E27.49057
G1 X64.306 Y146.024 E27.57048
G1 X63.946 Y145.606 E27.62919
G1 X63.495 Y145.055 E27.70497
G1 X63.168 Y144.638 E27.76137
G1 X62.874 Y144.243 E27.81378
G1 X62.2 Y143.262 E27.94046
G1 X61.89 Y142.775 E28.0019
G1 X61.567 Y142.232 E28.06915
G1 X61.294 Y141.749 E28.1282
G1 X60.991 Y141.179 E28.1969
G1 X60.547 Y140.269 E28.30467
G1 X60.324 Y139.767 E28.36313
G1 X60.055 Y139.123 E28.43742
G1 X59.845 Y138.579 E28.49948
G1 X59.669 Y138.087 E28.55509
G1 X59.496 Y137.561 E28.61403
G1 X59.298 Y136.902 E28.68726
G1 X59.149 Y136.359 E28.74719
G1 X59.01 Y135.802 E28.80829
G1 X58.891 Y135.266 E28.86673
G1 X58.772 Y134.66 E28.93246
G1 X58.677 Y134.094 E28.99354
G1 X58.518 Y132.9 E29.12175
G1 X58.464 Y132.324 E29.18332
G1 X58.424 Y131.699 E29.24998
G1 X58.398 Y131.081 E29.31581
G1 X58.389 Y130.535 E29.37393
G1 X58.408 Y127.929 E29.6513
G1 X58.372 Y125.417 E29.91869
G1 X58.269 Y123.01 E30.1751
G1 X58.089 Y120.466 E30.44654
G1 X57.846 Y118.036 E30.70647
G1 X57.525 Y115.522 E30.97621
G1 X57.295 Y114.063 E31.13341
G1 X57.169 Y113.163 E31.23013
G1 X57.063 Y111.884 E31.36673
G1 X57.05 Y111.237 E31.4356
G1 X57.051 Y106.863 E31.90114
G1 X57.064 Y106.085 E31.98396
G1 X57.118 Y105.174 E32.08109
G1 X57.3 Y103.966 E32.21111
G1 X57.616 Y102.739 E32.34596
G1 X58.568 Y99.789 E32.67588
G1 X59.292 Y97.303 E32.95146
G1 X59.519 Y96.487 E33.04161
G1 X59.8 Y95.62 E33.13861
G1 X60.268 Y94.521 E33.26575
G1 X60.769 Y93.594 E33.3779
G1 X61.307 Y92.774 E33.48228
G1 X61.947 Y91.955 E33.59291
G1 X62.283 Y91.564 E33.64778
G1 X62.906 Y90.897 E33.74492
G1 X64.073 Y89.88 E33.90967
G1 X66.388 Y88.07 E34.22243
G1 X68.326 Y86.457 E34.49079
G1 X70.206 Y84.8 E34.75751
G1 X71.953 Y83.173 E35.0116
G1 X74.687 Y80.441 E35.42296
G1 X75.319 Y79.828 E35.51667
G0 F6000 X75.861 Y80.416
G1 F900 X76.375 Y79.942 E35.59109
G1 X76.788 Y79.585 E35.64919
G1 X77.308 Y79.158 E35.72081
G1 X77.724 Y78.833 E35.77699
G1 X78.145 Y78.521 E35.83276
G1 X79.045 Y77.902 E35.94902
G1 X79.527 Y77.596 E36.00979
G1 X80.035 Y77.292 E36.0728
G1 X80.506 Y77.026 E36.13037
G1 X81.051 Y76.736 E36.19607
G1 X81.936 Y76.304 E36.30089
G1 X82.42 Y76.088 E36.3573
G1 X83.047 Y75.826 E36.42962
G1 X83.637 Y75.6 E36.49687
G1 X84.223 Y75.395 E36.56294
G1 X84.706 Y75.238 E36.617
G1 X85.232 Y75.082 E36.67539
G1 X85.746 Y74.943 E36.73206
G1 X86.355 Y74.794 E36.79879
G1 X86.878 Y74.679 E36.85579
G1 X87.389 Y74.58 E36.91119
G1 X87.906 Y74.494 E36.96697
G1 X89.011 Y74.336 E37.08577
G1 X90.989 Y74.074 E37.29813
G1 X93.482 Y73.674 E37.56686
G1 X95.947 Y73.205 E37.83393
G1 X98.416 Y72.664 E38.10294
G1 X100.833 Y72.061 E38.36807
G1 X103.238 Y71.389 E38.63385
G1 X105.682 Y70.63 E38.90622
G1 X108.045 Y69.823 E39.17199
G1 X110.399 Y68.943 E39.43946
G1 X112.715 Y68.003 E39.70549
G1 X115.006 Y66.995 E39.97188
G1 X117.262 Y65.928 E40.2375
G1 X119.528 Y64.774 E40.50815
G1 X121.743 Y63.568 E40.77657
G1 X123.671 Y62.453 E41.01362
G1 X124.569 Y61.988 E41.12125
G1 X125.419 Y61.628 E41.2195
G1 X126.278 Y61.322 E41.31655
G1 X127.295 Y61.057 E41.42841
G1 X128.279 Y60.896 E41.53453
G1 X129.638 Y60.816 E41.67942
G1 X130.943 Y60.82 E41.81831
G1 X133.501 Y60.793 E42.09058
G1 X136.013 Y60.694 E42.35815
G1 X138.515 Y60.525 E42.62505
G1 X141.009 Y60.284 E42.89173
G1 X144.157 Y59.888 E43.22942
G1 X145.171 Y59.807 E43.33769
G1 X146.083 Y59.813 E43.43475
G1 X146.784 Y59.868 E43.50959
G1 X147.172 Y59.911 E43.55114
G1 X148.073 Y60.05 E43.64817
G1 X149.028 Y60.282 E43.75277
G1 X149.959 Y60.597 E43.85738
G1 X150.913 Y61.019 E43.9684
G1 X151.697 Y61.444 E44.06332
G1 X152.531 Y61.963 E44.16787
G1 X153.261 Y62.509 E44.26489
G1 X154.216 Y63.383 E44.40268
G1 X154.824 Y64.016 E44.49609
G1 X155.444 Y64.718 E44.59577
G1 X155.87 Y65.237 E44.66724
G1 X156.47 Y66.022 E44.7724
G1 X156.791 Y66.474 E44.8314
G1 X157.117 Y66.96 E44.89369
G1 X157.423 Y67.442 E44.95445
G1 X157.734 Y67.961 E45.01885
G1 X157.999 Y68.431 E45.07628
G1 X158.499 Y69.393 E45.19167
G1 X158.718 Y69.853 E45.24589
G1 X158.945 Y70.36 E45.30502
G1 X159.204 Y70.984 E45.37692
G1 X159.405 Y71.504 E45.43626
G1 X159.729 Y72.449 E45.54258
G1 X159.923 Y73.087 E45.61356
G1 X160.081 Y73.661 E45.67692
G1 X160.232 Y74.279 E45.74463
G1 X160.352 Y74.827 E45.80434
G1 X160.53 Y75.81 E45.91066
G1 X160.62 Y76.429 E45.97724
G1 X160.685 Y76.984 E46.03671
G1 X160.74 Y77.585 E46.10095
G1 X160.777 Y78.139 E46.16004
G1 X160.802 Y78.739 E46.22396
G1 X160.811 Y79.264 E46.27984
G1 X160.792 Y81.866 E46.55679
G1 X160.828 Y84.399 E46.82641
G1 X160.933 Y86.847 E47.08719
G1 X161.112 Y89.374 E47.35682
G1 X161.36 Y91.87 E47.62378
G1 X161.68 Y94.368 E47.89182
G1 X162.032 Y96.685 E48.14126
G1 X162.135 Y97.884 E48.26934
G1 X162.15 Y98.548 E48.34003
G1 X162.149 Y102.932 E48.80663
G1 X162.137 Y103.674 E48.88561
G1 X162.083 Y104.584 E48.98264
G1 X161.925 Y105.639 E49.09618
G1 X161.609 Y106.865 E49.23093
G1 X160.659 Y109.804 E49.55967
G1 X159.952 Y112.24 E49.82963
G1 X159.727 Y113.054 E49.91952
G1 X159.422 Y113.986 E50.02389
G1 X159.036 Y114.889 E50.12841
G1 X158.573 Y115.755 E50.23293
G1 X158.039 Y116.572 E50.33681
G1 X157.561 Y117.193 E50.42022
G1 X156.914 Y117.973 E50.52808
G1 X155.319 Y119.951 E50.79852
G1 X153.834 Y121.904 E51.05965
G1 X152.345 Y123.978 E51.33138
G1 X150.95 Y126.045 E51.59679
G1 X149.587 Y128.192 E51.86746
G1 X148.311 Y130.335 E52.13292
G1 X147.101 Y132.503 E52.39717
G1 X145.697 Y135.203 E52.72107
G1 X145.241 Y135.993 E52.81815
G1 X144.68 Y136.799 E52.92267
G1 X144.05 Y137.553 E53.02724
G1 X143.302 Y138.3 E53.13976
G1 X142.469 Y138.986 E53.25461
G1 X140.152 Y140.7 E53.56135
G1 X138.191 Y142.239 E53.82667
G1 X136.256 Y143.849 E54.09458
G1 X134.364 Y145.515 E54.36289
G1 X132.565 Y147.192 E54.62465
G1 X130.753 Y148.979 E54.89552
G1 X129 Y150.808 E55.16516
G1 X127.329 Y152.654 E55.43017
G1 X125.685 Y154.579 E55.6996
G1 X124.907 Y155.542 E55.83137
G1 X124.369 Y156.189 E55.92092
G1 X123.756 Y156.864 E56.01797
G1 X122.984 Y157.578 E56.12989
G1 X122.206 Y158.176 E56.23433
G1 X121.439 Y158.669 E56.33137
G1 X120.569 Y159.128 E56.43607
G1 X119.599 Y159.534 E56.54798
G1 X118.729 Y159.81 E56.64513
G1 X117.771 Y160.026 E56.74965
G1 X116.74 Y160.165 E56.86037
G1 X116.116 Y160.201 E56.9269
G1 X115.452 Y160.216 E56.99759
G1 X113.303 Y160.215 E57.22631
G1 X112.583 Y160.203 E57.30295
G1 X111.576 Y160.14 E57.41034
G1 X110.899 Y160.047 E57.48307
G1 X108.136 Y159.572 E57.78146
G1 X105.626 Y159.215 E58.05129
G1 X103.049 Y158.923 E58.32732
G1 X101.74 Y158.792 E58.46734
G1 X101.21 Y158.726 E58.52418
G1 X100.635 Y158.639 E58.58608
G1 X99.584 Y158.441 E58.69991
G1 X99.061 Y158.323 E58.75697
G1 X97.992 Y158.042 E58.87461
G1 X97.427 Y157.87 E58.93747
G1 X96.899 Y157.695 E58.99667
G1 X96.331 Y157.49 E59.06094
G1 X95.835 Y157.298 E59.11755
G1 X94.952 Y156.924 E59.21961
G1 X93.168 Y156.115 E59.4281
G1 X90.814 Y155.117 E59.70023
G1 X88.468 Y154.2 E59.96832
G1 X86.119 Y153.358 E60.2339
G1 X83.767 Y152.589 E60.49727
G1 X81.316 Y151.863 E60.76934
G1 X78.911 Y151.225 E61.03416
G1 X76.468 Y150.65 E61.30128
G1 X73.983 Y150.139 E61.5713
G1 X72.034 Y149.776 E61.78231
G1 X71.145 Y149.572 E61.87938
G1 X70.145 Y149.248 E61.99126
G1 X69.25 Y148.866 E62.09483
G1 X68.651 Y148.556 E62.16662
G1 X68.365 Y148.397 E62.20145
G1 X67.5 Y147.862 E62.3097
G1 X66.705 Y147.267 E62.41538
G1 X65.814 Y146.453 E62.54383
G1 X65.403 Y146.031 E62.60653
G1 X64.912 Y145.501 E62.68342
G1 X64.565 Y145.099 E62.73994
G1 X64.125 Y144.562 E62.81383
G1 X63.81 Y144.16 E62.86819
G1 X63.516 Y143.765 E62.9206
G1 X62.875 Y142.832 E63.04108
G1 X62.565 Y142.345 E63.10252
G1 X62.263 Y141.838 E63.16533
G1 X62 Y141.373 E63.22219
G1 X61.71 Y140.828 E63.28789
G1 X61.278 Y139.943 E63.39271
G1 X61.062 Y139.459 E63.44912
G1 X60.801 Y138.834 E63.52121
G1 X60.598 Y138.309 E63.58112
G1 X60.429 Y137.837 E63.63448
G1 X60.262 Y137.33 E63.69129
G1 X60.069 Y136.69 E63.76244
G1 X59.925 Y136.166 E63.82027
G1 X59.791 Y135.628 E63.87928
G1 X59.676 Y135.112 E63.93555
G1 X59.561 Y134.527 E63.99901
G1 X59.469 Y133.981 E64.05794
G1 X59.38 Y133.36 E64.12471
G1 X59.315 Y132.825 E64.18207
G1 X59.261 Y132.249 E64.24364
G1 X59.223 Y131.666 E64.30582
G1 X59.198 Y131.067 E64.36963
G1 X59.189 Y130.541 E64.42562
G1 X59.208 Y127.935 E64.70299
G1 X59.172 Y125.406 E64.97219
G1 X59.067 Y122.954 E65.2334
G1 X58.887 Y120.41 E65.50484
G1 X58.64 Y117.935 E65.76957
G1 X58.319 Y115.421 E66.03931
G1 X58.087 Y113.951 E66.1977
G1 X57.966 Y113.096 E66.28961
G1 X57.863 Y111.867 E66.42087
G1 X57.85 Y111.237 E66.48794
G1 X57.851 Y106.876 E66.95209
G1 X57.863 Y106.132 E67.03129
G1 X57.917 Y105.221 E67.12842
G1 X58.075 Y104.166 E67.24196
G1 X58.391 Y102.939 E67.37681
G1 X59.335 Y100.016 E67.70374
G1 X60.06 Y97.527 E67.97966
G1 X60.28 Y96.734 E68.06724
G1 X60.561 Y95.867 E68.16425
G1 X60.973 Y94.899 E68.27622
G1 X61.438 Y94.033 E68.38083
G1 X61.976 Y93.213 E68.48522
G1 X62.554 Y92.476 E68.5849
G1 X62.868 Y92.11 E68.63623
G1 X63.491 Y91.443 E68.73337
G1 X64.566 Y90.51 E68.88487
G1 X66.897 Y88.687 E69.19982
G1 X68.838 Y87.072 E69.46857
G1 X70.735 Y85.4 E69.7377
G1 X72.513 Y83.744 E69.9963
G1 X75.244 Y81.015 E70.40722
G1 X75.861 Y80.416 E70.49874
G0 F6000 X76.404 Y81.004
G1 F900 X76.899 Y80.547 E70.57044
G1 X77.296 Y80.203 E70.62635
G1 X77.801 Y79.788 E70.69592
G1 X78.201 Y79.475 E70.74998
G1 X78.598 Y79.18 E70.80262
G1 X79.475 Y78.577 E70.9159
G1 X79.938 Y78.282 E70.97433
G1 X80.429 Y77.988 E71.03524
G1 X80.882 Y77.732 E71.09062
G1 X81.402 Y77.455 E71.15333
G1 X82.263 Y77.034 E71.25533
G1 X82.728 Y76.826 E71.30955
G1 X83.334 Y76.573 E71.37944
G1 X83.902 Y76.355 E71.4442
G1 X84.47 Y76.156 E71.50825
G1 X84.935 Y76.005 E71.56029
G1 X85.441 Y75.854 E71.61649
