;FLAVOR:Marlin
;TIME:964
;Filament used: 1.58027m
;Layer height: 0.32
;MINX:78.183
;MINY:86.508
;MINZ:0.32
;MAXX:141.827
;MAXY:133.489
;MAXZ:10.88
;TARGET_MACHINE.NAME:Creality Ender-3 Pro
;Generated with Cura_SteamEngine 5.5.0
M82 ;absolute extrusion mode
; Ender 3 Custom Start G-code
G92 E0 ; Reset Extruder
G28 ; Home all axes
G1 Z5.0 F3000 ; Move Z Axis up a bit during heating to not damage bed
M104 S120 ; Start heating up the nozzle most of the way
M190 S70 ; Start heating the bed, wait until target temperature reached
M109 S230 ; Finish heating the nozzle
G1 Z2.0 F3000 ; Move Z Axis up little to prevent scratching of Heat Bed
G1 X0.1 Y20 Z0.3 F5000.0 ; Move to start position
G1 X0.1 Y200.0 Z0.3 F1500.0 E15 ; Draw the first line
G1 X0.4 Y200.0 Z0.3 F5000.0 ; Move to side a little
G1 X0.4 Y20 Z0.3 F1500.0 E30 ; Draw the second line
G92 E0 ; Reset Extruder
G1 Z2.0 F3000 ; Move Z Axis up little to prevent scratching of Heat Bed
G1 X5 Y20 Z0.3 F5000.0 ; Move over to prevent blob squish
G92 E0
G92 E0
G1 F1500 E-6.5
;LAYER_COUNT:34
;LAYER:0
M107
G0 F6000 X83.375 Y92.1 Z0.32
;TYPE:SKIRT
G1 F1500 E0
G1 F900 X84.492 Y91.179 E0.15409
G1 X85.161 Y90.695 E0.24197
G1 X85.762 Y90.287 E0.31928
G1 X86.237 Y89.988 E0.37902
G1 X87.193 Y89.433 E0.49667
G1 X88.194 Y88.91 E0.61688
G1 X88.694 Y88.672 E0.67581
G1 X89.223 Y88.436 E0.73747
G1 X89.733 Y88.223 E0.79629
G1 X90.306 Y88.001 E0.86169
G1 X90.83 Y87.812 E0.92098
G1 X91.879 Y87.474 E1.03828
G1 X92.952 Y87.183 E1.15661
G1 X93.504 Y87.055 E1.21692
G1 X94.06 Y86.94 E1.27735
G1 X94.656 Y86.833 E1.34179
G1 X95.194 Y86.749 E1.39975
G1 X95.785 Y86.672 E1.46318
G1 X96.314 Y86.615 E1.51981
G1 X96.891 Y86.566 E1.58144
G1 X97.377 Y86.537 E1.63326
G1 X98.03 Y86.514 E1.70281
G1 X98.567 Y86.508 E1.75996
G1 X99.214 Y86.516 E1.82883
G1 X99.756 Y86.535 E1.88655
G1 X102.02 Y86.67 E2.12794
G1 X104.56 Y86.751 E2.39842
G1 X106.165 Y86.765 E2.56925
G1 X113.7 Y86.764 E3.37122
G1 X116.326 Y86.727 E3.65074
G1 X118.781 Y86.621 E3.91227
G1 X120.123 Y86.545 E4.05533
G1 X121.008 Y86.512 E4.14959
G1 X121.608 Y86.508 E4.21345
G1 X122.263 Y86.522 E4.28318
G1 X122.815 Y86.547 E4.34199
G1 X123.389 Y86.587 E4.40323
G1 X123.927 Y86.637 E4.46074
G1 X124.934 Y86.767 E4.56881
G1 X125.605 Y86.876 E4.64116
G1 X126.391 Y87.032 E4.72645
G1 X126.933 Y87.16 E4.78572
G1 X127.926 Y87.421 E4.895
G1 X128.83 Y87.696 E4.99557
G1 X129.494 Y87.93 E5.0705
G1 X130.333 Y88.254 E5.16622
G1 X130.923 Y88.499 E5.23421
G1 X131.939 Y88.975 E5.35363
G1 X132.54 Y89.288 E5.42575
G1 X133.492 Y89.827 E5.54219
G1 X133.884 Y90.063 E5.59089
G1 X134.386 Y90.387 E5.65448
G1 X134.925 Y90.754 E5.72388
G1 X135.754 Y91.364 E5.83342
G1 X136.563 Y92.041 E5.9457
G1 X137.277 Y92.75 E6.05279
G1 X137.574 Y93.075 E6.09965
G1 X138.268 Y93.913 E6.21546
G1 X138.825 Y94.719 E6.31973
G1 X139.315 Y95.569 E6.42416
G1 X139.92 Y96.914 E6.58112
G1 X140.061 Y97.292 E6.62406
G1 X140.375 Y98.26 E6.73237
G1 X140.626 Y99.355 E6.85194
G1 X140.761 Y100.335 E6.95723
G1 X140.817 Y101.575 E7.08934
G1 X140.805 Y103.145 E7.25644
G1 X140.841 Y105.654 E7.52351
G1 X140.945 Y108.115 E7.78567
G1 X141.121 Y110.601 E8.05093
G1 X141.368 Y113.095 E8.31767
G1 X141.641 Y115.212 E8.54485
G1 X141.756 Y116.189 E8.64955
G1 X141.827 Y117.238 E8.76146
G1 X141.805 Y118.311 E8.87568
G1 X141.665 Y119.51 E9.00416
G1 X141.591 Y119.934 E9.04997
G1 X141.376 Y120.892 E9.15447
G1 X141.035 Y121.963 E9.2741
G1 X140.649 Y122.883 E9.38029
G1 X139.924 Y124.209 E9.54113
G1 X139.696 Y124.569 E9.58649
G1 X139.051 Y125.487 E9.7059
G1 X138.466 Y126.187 E9.80299
G1 X137.884 Y126.789 E9.89211
G1 X137.38 Y127.269 E9.96619
G1 X136.632 Y127.932 E10.07257
G1 X136.167 Y128.315 E10.13669
G1 X135.716 Y128.667 E10.19758
G1 X135.173 Y129.07 E10.26955
G1 X134.298 Y129.673 E10.38265
G1 X133.814 Y129.979 E10.4436
G1 X133.241 Y130.32 E10.51456
G1 X132.258 Y130.86 E10.63393
G1 X131.169 Y131.388 E10.76274
G1 X130.636 Y131.622 E10.8247
G1 X129.639 Y132.019 E10.93891
G1 X129.049 Y132.23 E11.0056
G1 X128.507 Y132.408 E11.06632
G1 X127.969 Y132.57 E11.12612
G1 X127.419 Y132.722 E11.18685
G1 X126.795 Y132.875 E11.25524
G1 X126.256 Y132.994 E11.31398
G1 X125.677 Y133.107 E11.37677
G1 X125.102 Y133.203 E11.43882
G1 X124.405 Y133.301 E11.51373
G1 X123.881 Y133.363 E11.56989
G1 X123.322 Y133.416 E11.62965
G1 X122.76 Y133.454 E11.6896
G1 X122.231 Y133.477 E11.74596
G1 X121.505 Y133.485 E11.82323
G1 X119.934 Y133.444 E11.9905
G1 X118.857 Y133.377 E12.10535
G1 X116.398 Y133.272 E12.3673
G1 X113.726 Y133.234 E12.65172
G1 X106.235 Y133.234 E13.449
G1 X103.637 Y133.271 E13.72554
G1 X101.084 Y133.379 E13.99751
G1 X99.851 Y133.457 E14.129
G1 X98.872 Y133.488 E14.23325
G1 X98.31 Y133.489 E14.29307
G1 X97.672 Y133.473 E14.36099
G1 X97.131 Y133.447 E14.41864
G1 X96.518 Y133.402 E14.48406
G1 X95.905 Y133.341 E14.54962
G1 X95.226 Y133.254 E14.62248
G1 X94.382 Y133.118 E14.71347
G1 X93.739 Y132.989 E14.78327
G1 X92.756 Y132.761 E14.89067
G1 X91.943 Y132.544 E14.98023
G1 X90.854 Y132.197 E15.10187
G1 X90.283 Y131.991 E15.16648
G1 X89.69 Y131.758 E15.23429
G1 X89.174 Y131.54 E15.29391
G1 X88.631 Y131.295 E15.35731
G1 X88.109 Y131.045 E15.41892
G1 X87.495 Y130.729 E15.49241
G1 X86.629 Y130.247 E15.5979
G1 X86.138 Y129.95 E15.65897
G1 X85.601 Y129.605 E15.7269
G1 X85.081 Y129.249 E15.79398
G1 X84.158 Y128.571 E15.91587
G1 X83.696 Y128.204 E15.97867
G1 X83.228 Y127.811 E16.04371
G1 X82.717 Y127.358 E16.11639
G1 X82.039 Y126.713 E16.21599
G1 X81.414 Y126.049 E16.31304
G1 X80.927 Y125.454 E16.39488
G1 X80.671 Y125.119 E16.43975
G1 X80.091 Y124.285 E16.54787
G1 X79.566 Y123.372 E16.65997
G1 X79.125 Y122.42 E16.77163
G1 X78.789 Y121.498 E16.87608
G1 X78.499 Y120.412 E16.99571
G1 X78.32 Y119.394 E17.10572
G1 X78.269 Y118.996 E17.14843
G1 X78.183 Y117.913 E17.26406
G1 X78.189 Y116.892 E17.37273
G1 X78.231 Y116.321 E17.43366
G1 X78.306 Y115.625 E17.50817
G1 X78.606 Y113.309 E17.75673
G1 X78.862 Y110.79 E18.02621
G1 X79.043 Y108.287 E18.29331
G1 X79.15 Y105.86 E18.55187
G1 X79.189 Y102.603 E18.89855
G1 X79.181 Y101.714 E18.99317
G1 X79.213 Y100.802 E19.09029
G1 X79.301 Y99.977 E19.1786
G1 X79.352 Y99.625 E19.21645
G1 X79.558 Y98.556 E19.33232
G1 X79.848 Y97.545 E19.44427
G1 X80.193 Y96.636 E19.54775
G1 X80.535 Y95.902 E19.63393
G1 X80.685 Y95.61 E19.66887
G1 X81.225 Y94.669 E19.78434
G1 X81.825 Y93.805 E19.8963
G1 X82.397 Y93.113 E19.99185
G1 X82.648 Y92.835 E20.03172
G1 X83.375 Y92.1 E20.14175
G0 F6000 X83.943 Y92.663
G1 F900 X84.962 Y91.827 E20.28203
G1 X85.61 Y91.357 E20.36723
G1 X86.189 Y90.964 E20.44171
G1 X86.639 Y90.68 E20.49835
G1 X87.595 Y90.125 E20.616
G1 X88.539 Y89.632 E20.72935
G1 X89.021 Y89.402 E20.78619
G1 X89.531 Y89.174 E20.84565
G1 X90.023 Y88.969 E20.90238
G1 X90.578 Y88.753 E20.96576
G1 X91.076 Y88.573 E21.02212
G1 X92.089 Y88.246 E21.13542
G1 X93.133 Y87.962 E21.25057
G1 X93.666 Y87.838 E21.30881
G1 X94.202 Y87.727 E21.36707
G1 X94.779 Y87.623 E21.42947
G1 X95.298 Y87.542 E21.48538
G1 X95.871 Y87.467 E21.54688
G1 X96.381 Y87.412 E21.60148
G1 X96.939 Y87.365 E21.66108
G1 X97.425 Y87.336 E21.7129
G1 X98.039 Y87.314 E21.77829
G1 X98.557 Y87.308 E21.83342
G1 X99.186 Y87.316 E21.90038
G1 X99.708 Y87.334 E21.95597
G1 X101.982 Y87.47 E22.19843
G1 X104.535 Y87.551 E22.47029
G1 X106.158 Y87.565 E22.64303
G1 X113.711 Y87.564 E23.44692
G1 X116.337 Y87.527 E23.72644
G1 X118.827 Y87.42 E23.9917
G1 X120.153 Y87.344 E24.13306
G1 X121.014 Y87.312 E24.22476
G1 X121.592 Y87.308 E24.28628
G1 X122.227 Y87.321 E24.35388
G1 X122.759 Y87.345 E24.41056
G1 X123.315 Y87.384 E24.46988
G1 X123.853 Y87.434 E24.52739
G1 X124.806 Y87.557 E24.62966
G1 X125.45 Y87.661 E24.69909
G1 X126.208 Y87.811 E24.78133
G1 X126.73 Y87.934 E24.83841
G1 X127.694 Y88.187 E24.94448
G1 X128.565 Y88.451 E25.04135
G1 X129.206 Y88.676 E25.11365
G1 X130.026 Y88.993 E25.20722
G1 X130.616 Y89.238 E25.27522
G1 X131.569 Y89.685 E25.38725
G1 X132.17 Y89.998 E25.45937
G1 X133.079 Y90.512 E25.57052
G1 X133.451 Y90.736 E25.61673
G1 X133.936 Y91.048 E25.67811
G1 X134.452 Y91.399 E25.74453
G1 X135.242 Y91.979 E25.84884
G1 X135.999 Y92.609 E25.95366
G1 X136.713 Y93.318 E26.06076
G1 X136.983 Y93.614 E26.1034
G1 X137.611 Y94.37 E26.208
G1 X138.132 Y95.119 E26.30511
G1 X138.622 Y95.969 E26.40953
G1 X139.171 Y97.196 E26.5526
G1 X139.3 Y97.539 E26.5916
G1 X139.614 Y98.507 E26.69991
G1 X139.833 Y99.464 E26.8044
G1 X139.968 Y100.444 E26.90969
G1 X140.017 Y101.569 E27.02954
G1 X140.005 Y103.139 E27.19664
G1 X140.041 Y105.665 E27.46552
G1 X140.147 Y108.172 E27.73258
G1 X140.325 Y110.68 E28.00019
G1 X140.572 Y113.174 E28.26693
G1 X140.847 Y115.306 E28.49572
G1 X140.958 Y116.245 E28.59636
G1 X141.027 Y117.224 E28.70082
G1 X141.01 Y118.218 E28.80662
G1 X140.87 Y119.417 E28.9351
G1 X140.81 Y119.759 E28.97206
G1 X140.595 Y120.717 E29.07656
G1 X140.297 Y121.653 E29.18111
G1 X139.911 Y122.573 E29.28729
G1 X139.248 Y123.781 E29.43396
G1 X139.02 Y124.141 E29.47931
G1 X138.437 Y124.974 E29.58752
G1 X137.852 Y125.674 E29.68462
G1 X137.332 Y126.21 E29.7641
G1 X136.849 Y126.67 E29.83509
G1 X136.101 Y127.333 E29.94147
G1 X135.674 Y127.685 E30.00037
G1 X135.239 Y128.025 E30.05914
G1 X134.719 Y128.411 E30.12806
G1 X133.869 Y128.997 E30.23794
G1 X133.404 Y129.292 E30.29656
G1 X132.856 Y129.619 E30.36447
G1 X131.9 Y130.144 E30.48056
G1 X131.414 Y130.387 E30.53839
G1 X130.846 Y130.656 E30.60528
G1 X130.34 Y130.879 E30.66413
G1 X129.369 Y131.266 E30.77538
G1 X128.8 Y131.47 E30.83972
G1 X128.276 Y131.642 E30.89842
G1 X127.755 Y131.799 E30.95633
G1 X127.228 Y131.945 E31.01453
G1 X126.623 Y132.094 E31.08085
G1 X126.102 Y132.209 E31.13764
G1 X125.545 Y132.318 E31.19804
G1 X124.99 Y132.411 E31.25794
G1 X124.311 Y132.507 E31.33092
G1 X123.806 Y132.567 E31.38505
G1 X123.268 Y132.618 E31.44257
G1 X122.725 Y132.655 E31.50049
G1 X122.222 Y132.677 E31.55408
G1 X121.526 Y132.685 E31.62816
G1 X119.955 Y132.644 E31.79542
G1 X118.891 Y132.578 E31.90889
G1 X116.409 Y132.472 E32.17329
G1 X113.737 Y132.434 E32.45771
G1 X106.224 Y132.434 E33.25734
G1 X103.626 Y132.471 E33.53387
G1 X101.05 Y132.58 E33.80829
G1 X99.825 Y132.657 E33.93893
G1 X98.871 Y132.688 E34.04052
G1 X98.329 Y132.689 E34.0982
G1 X97.71 Y132.674 E34.1641
G1 X97.189 Y132.649 E34.21962
G1 X96.596 Y132.606 E34.2829
G1 X96.007 Y132.548 E34.34589
G1 X95.353 Y132.464 E34.41607
G1 X94.509 Y132.328 E34.50706
G1 X93.92 Y132.21 E34.57099
G1 X92.962 Y131.988 E34.67566
G1 X92.149 Y131.771 E34.76522
G1 X91.125 Y131.444 E34.87962
G1 X90.576 Y131.246 E34.94174
G1 X89.983 Y131.013 E35.00955
G1 X89.503 Y130.811 E35.06498
G1 X88.977 Y130.574 E35.12638
G1 X88.474 Y130.333 E35.18575
G1 X87.884 Y130.03 E35.25634
G1 X87.043 Y129.562 E35.35877
G1 X86.57 Y129.276 E35.4176
G1 X86.052 Y128.944 E35.48309
G1 X85.554 Y128.604 E35.54727
G1 X84.655 Y127.944 E35.66596
G1 X84.21 Y127.591 E35.72642
G1 X83.758 Y127.212 E35.7892
G1 X83.268 Y126.778 E35.85887
G1 X82.622 Y126.165 E35.95365
G1 X81.997 Y125.501 E36.0507
G1 X81.563 Y124.968 E36.12386
G1 X81.307 Y124.633 E36.16873
G1 X80.785 Y123.886 E36.26573
G1 X80.26 Y122.973 E36.37782
G1 X79.877 Y122.146 E36.47482
G1 X79.541 Y121.224 E36.57926
G1 X79.272 Y120.207 E36.69123
G1 X79.114 Y119.292 E36.79006
G1 X79.063 Y118.894 E36.83276
G1 X78.983 Y117.916 E36.9372
G1 X78.987 Y116.949 E37.04012
G1 X79.026 Y116.407 E37.09796
G1 X79.099 Y115.728 E37.17064
G1 X79.402 Y113.39 E37.42156
G1 X79.658 Y110.871 E37.69105
G1 X79.841 Y108.345 E37.9606
G1 X79.95 Y105.873 E38.22396
G1 X79.989 Y102.613 E38.57095
G1 X79.981 Y101.742 E38.66366
G1 X80.013 Y100.83 E38.76078
G1 X80.093 Y100.09 E38.84
G1 X80.138 Y99.774 E38.87397
G1 X80.328 Y98.774 E38.98231
G1 X80.596 Y97.829 E39.08686
G1 X80.941 Y96.92 E39.19034
G1 X81.247 Y96.268 E39.26699
G1 X81.397 Y95.976 E39.30193
G1 X81.883 Y95.124 E39.40633
G1 X82.442 Y94.315 E39.51099
G1 X83.014 Y93.623 E39.60654
G1 X83.241 Y93.372 E39.64256
G1 X83.943 Y92.663 E39.74875
G0 F6000 X84.451 Y93.281
G1 F900 X85.432 Y92.474 E39.88395
G1 X86.059 Y92.019 E39.96641
G1 X86.616 Y91.641 E40.03805
G1 X87.066 Y91.357 E40.09469
G1 X87.965 Y90.834 E40.20538
G1 X88.884 Y90.354 E40.31573
G1 X89.348 Y90.132 E40.37048
G1 X89.839 Y89.912 E40.42774
G1 X90.314 Y89.714 E40.48251
G1 X90.85 Y89.505 E40.54374
G1 X91.322 Y89.334 E40.59718
G1 X92.299 Y89.018 E40.70646
G1 X93.316 Y88.741 E40.81865
G1 X93.828 Y88.621 E40.87462
G1 X94.345 Y88.514 E40.93081
G1 X94.902 Y88.413 E40.99106
G1 X95.402 Y88.335 E41.04492
G1 X95.957 Y88.262 E41.1045
G1 X96.448 Y88.209 E41.15706
G1 X96.987 Y88.164 E41.21463
G1 X97.473 Y88.135 E41.26645
G1 X98.049 Y88.114 E41.32779
G1 X98.548 Y88.108 E41.38091
G1 X99.157 Y88.115 E41.44573
G1 X99.66 Y88.133 E41.4993
G1 X101.944 Y88.27 E41.74283
G1 X104.51 Y88.351 E42.01607
G1 X106.151 Y88.365 E42.19073
G1 X113.722 Y88.364 E42.99653
G1 X116.348 Y88.327 E43.27605
G1 X118.873 Y88.219 E43.54504
G1 X120.183 Y88.143 E43.6847
G1 X121.02 Y88.112 E43.77384
G1 X121.576 Y88.108 E43.83302
G1 X122.191 Y88.12 E43.89849
G1 X122.704 Y88.143 E43.95314
G1 X123.24 Y88.18 E44.01033
G1 X123.751 Y88.228 E44.06495
G1 X124.679 Y88.347 E44.16453
G1 X125.295 Y88.446 E44.23093
G1 X126.025 Y88.59 E44.31013
G1 X126.527 Y88.708 E44.36501
G1 X127.463 Y88.953 E44.46799
G1 X128.301 Y89.206 E44.56116
G1 X128.918 Y89.422 E44.63073
G1 X129.72 Y89.732 E44.72225
G1 X130.277 Y89.963 E44.78643
G1 X131.2 Y90.395 E44.89489
G1 X131.776 Y90.694 E44.96396
G1 X132.666 Y91.197 E45.07277
G1 X133.019 Y91.41 E45.11665
G1 X133.487 Y91.71 E45.17582
G1 X133.979 Y92.044 E45.23911
G1 X134.732 Y92.596 E45.33848
G1 X135.435 Y93.177 E45.43555
G1 X136.149 Y93.886 E45.54264
G1 X136.369 Y94.127 E45.57737
G1 X136.954 Y94.827 E45.67446
G1 X137.475 Y95.576 E45.77157
G1 X137.928 Y96.367 E45.86859
G1 X138.422 Y97.478 E45.998
G1 X138.551 Y97.821 E46.037
G1 X138.835 Y98.688 E46.1341
G1 X139.041 Y99.576 E46.23112
G1 X139.169 Y100.479 E46.32819
G1 X139.217 Y101.563 E46.44368
G1 X139.205 Y103.133 E46.61078
G1 X139.241 Y105.676 E46.88147
G1 X139.349 Y108.229 E47.15343
G1 X139.529 Y110.759 E47.42339
G1 X139.776 Y113.256 E47.69045
G1 X140.053 Y115.4 E47.92053
G1 X140.16 Y116.304 E48.01742
G1 X140.227 Y117.213 E48.11443
G1 X140.215 Y118.125 E48.2115
G1 X140.075 Y119.324 E48.33998
G1 X140.029 Y119.586 E48.3683
G1 X139.832 Y120.477 E48.46542
G1 X139.558 Y121.347 E48.5625
G1 X139.209 Y122.189 E48.65951
G1 X138.572 Y123.353 E48.80073
G1 X138.344 Y123.713 E48.84608
G1 X137.823 Y124.461 E48.9431
G1 X137.238 Y125.161 E49.0402
G1 X136.78 Y125.631 E49.11005
G1 X136.318 Y126.071 E49.17795
G1 X135.57 Y126.734 E49.28433
G1 X135.181 Y127.055 E49.33801
G1 X134.762 Y127.383 E49.39464
G1 X134.265 Y127.752 E49.46053
G1 X133.44 Y128.321 E49.56719
G1 X132.975 Y128.616 E49.6258
G1 X132.462 Y128.923 E49.68943
G1 X132.027 Y129.169 E49.74262
G1 X131.541 Y129.429 E49.80129
G1 X131.073 Y129.664 E49.85702
G1 X130.522 Y129.924 E49.92187
G1 X130.043 Y130.136 E49.97762
G1 X129.099 Y130.513 E50.08581
G1 X128.55 Y130.71 E50.14789
G1 X128.045 Y130.876 E50.20446
G1 X127.542 Y131.028 E50.26039
G1 X127.036 Y131.168 E50.31627
G1 X126.451 Y131.313 E50.38042
G1 X125.948 Y131.424 E50.43524
G1 X125.412 Y131.529 E50.49337
G1 X124.877 Y131.619 E50.55111
G1 X124.216 Y131.713 E50.62217
G1 X123.731 Y131.771 E50.67416
G1 X123.213 Y131.82 E50.72954
G1 X122.69 Y131.856 E50.78533
G1 X122.212 Y131.877 E50.83626
G1 X121.542 Y131.885 E50.90757
G1 X120.424 Y131.862 E51.02659
G1 X120.004 Y131.845 E51.07133
G1 X118.94 Y131.78 E51.18478
G1 X116.42 Y131.672 E51.45324
G1 X113.748 Y131.634 E51.73766
G1 X106.213 Y131.634 E52.53962
G1 X103.615 Y131.671 E52.81616
G1 X101.016 Y131.781 E53.09303
G1 X99.798 Y131.857 E53.22292
G1 X98.869 Y131.888 E53.32185
G1 X98.348 Y131.889 E53.3773
G1 X97.748 Y131.875 E53.44117
G1 X97.246 Y131.851 E53.49466
G1 X96.675 Y131.81 E53.55559
G1 X96.108 Y131.754 E53.61623
G1 X95.479 Y131.674 E53.68372
G1 X94.667 Y131.544 E53.77124
G1 X94.1 Y131.43 E53.8328
G1 X93.168 Y131.215 E53.9346
G1 X92.355 Y130.998 E54.02416
G1 X91.397 Y130.692 E54.13119
G1 X90.868 Y130.501 E54.19106
G1 X90.294 Y130.276 E54.25667
G1 X89.831 Y130.081 E54.31014
G1 X89.323 Y129.853 E54.36941
G1 X88.839 Y129.621 E54.42653
G1 X88.273 Y129.331 E54.49422
G1 X87.457 Y128.877 E54.59361
