;FLAVOR:Marlin
;TIME:1452
;Filament used: 1.9754m
;Layer height: 0.32
;MINX:84.845
;MINY:105.758
;MINZ:0.32
;MAXX:135.154
;MAXY:145.25
;MAXZ:31.04
;TARGET_MACHINE.NAME:Creality Ender-3 Pro
;Generated with Cura_SteamEngine 5.5.0
M82 ;absolute extrusion mode
; Ender 3 Custom Start G-code
G92 E0 ; Reset Extruder
G28 ; Home all axes
G1 Z5.0 F3000 ; Move Z Axis up a bit during heating to not damage bed
M104 S120 ; Start heating up the nozzle most of the way
M190 S70 ; Start heating the bed, wait until target temperature reached
M109 S235.0 ; Finish heating the nozzle
G1 Z2.0 F3000 ; Move Z Axis up little to prevent scratching of Heat Bed
G1 X0.1 Y20 Z0.3 F5000.0 ; Move to start position
G1 X0.1 Y200.0 Z0.3 F1500.0 E15 ; Draw the first line
G1 X0.4 Y200.0 Z0.3 F5000.0 ; Move to side a little
G1 X0.4 Y20 Z0.3 F1500.0 E30 ; Draw the second line
G92 E0 ; Reset Extruder
G1 Z2.0 F3000 ; Move Z Axis up little to prevent scratching of Heat Bed
G1 X5 Y20 Z0.3 F5000.0 ; Move over to prevent blob squish
G92 E0
G92 E0
G1 F1500 E-6.5
;LAYER_COUNT:97
;LAYER:0
M107
G1 F300 Z0.52
G0 F6000 X87.819 Y109.629 Z0.52
;TYPE:SKIRT
G1 F300 Z0.32
G1 F1500 E0
G1 F900 X88.442 Y109.131 E0.08489
G1 X89.155 Y108.617 E0.17844
G1 X89.94 Y108.114 E0.27767
G1 X90.553 Y107.764 E0.3528
G1 X91.271 Y107.395 E0.43872
G1 X91.961 Y107.083 E0.51931
G1 X92.794 Y106.754 E0.61464
G1 X93.556 Y106.497 E0.70023
G1 X94.305 Y106.285 E0.78308
G1 X95.176 Y106.083 E0.87824
G1 X95.927 Y105.949 E0.95943
G1 X96.79 Y105.84 E1.05201
G1 X97.559 Y105.781 E1.1341
G1 X98.385 Y105.758 E1.22205
G1 X99.195 Y105.776 E1.30828
G1 X100.579 Y105.891 E1.45609
G1 X102.6 Y106.13 E1.67269
G1 X105.329 Y106.376 E1.96432
G1 X107.944 Y106.538 E2.24317
G1 X110.686 Y106.63 E2.53518
G1 X112.547 Y106.649 E2.73326
G1 X128.725 Y106.651 E4.45512
G1 X129.549 Y106.667 E4.54284
G1 X130.178 Y106.725 E4.61007
G1 X130.939 Y106.915 E4.69355
G1 X131.645 Y107.21 E4.77499
G1 X132.283 Y107.613 E4.8553
G1 X132.72 Y107.965 E4.91503
G1 X133.149 Y108.361 E4.97716
G1 X133.584 Y108.822 E5.04462
G1 X133.916 Y109.293 E5.10596
G1 X134.286 Y109.902 E5.1818
G1 X134.611 Y110.581 E5.26192
G1 X134.853 Y111.263 E5.33894
G1 X135.012 Y111.896 E5.4084
G1 X135.093 Y112.394 E5.4621
G1 X135.143 Y112.986 E5.52534
G1 X135.154 Y113.532 E5.58346
G1 X135.154 Y115.593 E5.80282
G1 X135.138 Y116.437 E5.89266
G1 X135.081 Y117.073 E5.96062
G1 X134.894 Y117.822 E6.04279
G1 X134.593 Y118.537 E6.12536
G1 X134.183 Y119.205 E6.20878
G1 X133.505 Y119.949 E6.31591
G1 X132.235 Y121.087 E6.49741
G1 X130.247 Y122.942 E6.7868
G1 X128.365 Y124.8 E7.06828
G1 X126.473 Y126.775 E7.35937
G1 X124.697 Y128.74 E7.64127
G1 X122.926 Y130.813 E7.93146
G1 X121.254 Y132.888 E8.21508
G1 X119.614 Y135.046 E8.50356
G1 X118.059 Y137.214 E8.78752
G1 X116.561 Y139.431 E9.0723
G1 X115.088 Y141.752 E9.36488
G1 X114.402 Y142.866 E9.50412
G1 X113.953 Y143.49 E9.58594
G1 X113.418 Y144.028 E9.6667
G1 X112.794 Y144.488 E9.7492
G1 X112.11 Y144.845 E9.83132
G1 X111.356 Y145.099 E9.916
G1 X110.371 Y145.233 E10.02181
G1 X109.919 Y145.249 E10.06994
G1 X107.788 Y145.25 E10.29675
G1 X106.961 Y145.234 E10.38479
G1 X106.33 Y145.176 E10.45223
G1 X105.573 Y144.987 E10.53527
G1 X104.886 Y144.69 E10.61493
G1 X104.424 Y144.427 E10.67151
G1 X103.836 Y144.043 E10.74626
G1 X101.538 Y142.586 E11.03586
G1 X99.287 Y141.244 E11.31478
G1 X96.892 Y139.907 E11.60672
G1 X94.529 Y138.675 E11.89035
G1 X90.628 Y136.776 E12.35212
G1 X89.925 Y136.376 E12.43821
G1 X89.233 Y135.937 E12.52543
G1 X88.749 Y135.596 E12.58844
G1 X88.209 Y135.155 E12.66265
G1 X87.736 Y134.624 E12.73833
G1 X87.485 Y134.297 E12.78221
G1 X87.095 Y133.702 E12.85793
G1 X86.812 Y133.066 E12.93202
G1 X86.656 Y132.634 E12.9809
G1 X86.464 Y131.953 E13.05621
G1 X86.389 Y131.314 E13.12469
G1 X86.339 Y130.17 E13.24656
G1 X86.308 Y128.864 E13.3856
G1 X86.169 Y126.211 E13.66835
G1 X85.956 Y123.563 E13.9511
G1 X85.659 Y120.841 E14.24252
G1 X85.291 Y118.184 E14.52802
G1 X84.912 Y115.826 E14.7822
G1 X84.845 Y115.07 E14.86298
G1 X84.892 Y114.376 E14.93702
G1 X84.939 Y114.033 E14.97386
G1 X85.079 Y113.382 E15.04473
G1 X85.238 Y112.904 E15.09835
G1 X85.409 Y112.484 E15.14661
G1 X85.694 Y111.9 E15.21578
G1 X86.178 Y111.224 E15.30427
G1 X86.431 Y110.942 E15.34459
G1 X86.853 Y110.514 E15.40856
G1 X87.4 Y109.994 E15.48889
G1 X87.819 Y109.629 E15.54803
G0 F6000 X88.319 Y110.254
G1 F900 X88.942 Y109.756 E15.63292
G1 X89.587 Y109.291 E15.71755
G1 X90.372 Y108.788 E15.81678
G1 X90.919 Y108.475 E15.88385
G1 X91.601 Y108.124 E15.96549
G1 X92.291 Y107.812 E16.04609
G1 X93.05 Y107.512 E16.13295
G1 X93.774 Y107.267 E16.2143
G1 X94.523 Y107.055 E16.29715
G1 X95.317 Y106.871 E16.3839
G1 X96.068 Y106.737 E16.46509
G1 X96.851 Y106.638 E16.54909
G1 X97.62 Y106.579 E16.63118
G1 X98.406 Y106.558 E16.71486
G1 X99.176 Y106.576 E16.79684
G1 X100.485 Y106.685 E16.93664
G1 X102.528 Y106.927 E17.1556
G1 X105.257 Y107.173 E17.44723
G1 X107.917 Y107.338 E17.73089
G1 X110.659 Y107.43 E18.02289
G1 X112.539 Y107.449 E18.22299
G1 X128.711 Y107.451 E19.94422
G1 X129.475 Y107.464 E20.02554
G1 X130.049 Y107.517 E20.0869
G1 X130.684 Y107.675 E20.15654
G1 X131.273 Y107.922 E20.22452
G1 X131.856 Y108.29 E20.2979
G1 X132.179 Y108.554 E20.3423
G1 X132.567 Y108.91 E20.39834
G1 X132.965 Y109.332 E20.46008
G1 X133.235 Y109.712 E20.50969
G1 X133.564 Y110.247 E20.57654
G1 X133.889 Y110.926 E20.65666
G1 X134.078 Y111.462 E20.71715
G1 X134.223 Y112.028 E20.77934
G1 X134.296 Y112.463 E20.82628
G1 X134.343 Y113.002 E20.88387
G1 X134.354 Y113.548 E20.94199
G1 X134.354 Y115.58 E21.15826
G1 X134.341 Y116.365 E21.24182
G1 X134.289 Y116.942 E21.30348
G1 X134.132 Y117.571 E21.37248
G1 X133.882 Y118.165 E21.44107
G1 X133.539 Y118.723 E21.51079
G1 X132.968 Y119.356 E21.60152
G1 X132.128 Y120.117 E21.72216
G1 X131.689 Y120.502 E21.7843
G1 X129.701 Y122.357 E22.0737
G1 X127.787 Y124.247 E22.35999
G1 X125.895 Y126.222 E22.65108
G1 X124.089 Y128.22 E22.93773
G1 X122.318 Y130.293 E23.22792
G1 X120.631 Y132.386 E23.51403
G1 X118.977 Y134.562 E23.80494
G1 X117.396 Y136.766 E24.09363
G1 X115.898 Y138.983 E24.37841
G1 X114.413 Y141.323 E24.67338
G1 X113.721 Y142.446 E24.81377
G1 X113.343 Y142.968 E24.88236
G1 X112.89 Y143.424 E24.95078
G1 X112.37 Y143.807 E25.01951
G1 X111.797 Y144.106 E25.0883
G1 X111.174 Y144.316 E25.15827
G1 X110.263 Y144.44 E25.25613
G1 X109.919 Y144.449 E25.29275
G1 X107.802 Y144.45 E25.51807
G1 X107.035 Y144.437 E25.59972
G1 X106.461 Y144.384 E25.66107
G1 X105.828 Y144.226 E25.73051
G1 X105.203 Y143.956 E25.80297
G1 X104.861 Y143.757 E25.84508
G1 X104.273 Y143.373 E25.91983
G1 X101.966 Y141.91 E26.21058
G1 X99.677 Y140.545 E26.49423
G1 X97.282 Y139.208 E26.78617
G1 X94.891 Y137.962 E27.07313
G1 X91.023 Y136.08 E27.53095
G1 X90.354 Y135.7 E27.61284
G1 X89.662 Y135.261 E27.70006
G1 X89.21 Y134.942 E27.75894
G1 X88.762 Y134.574 E27.82065
G1 X88.371 Y134.137 E27.88306
G1 X88.12 Y133.81 E27.92693
G1 X87.803 Y133.323 E27.98878
G1 X87.543 Y132.74 E28.05672
G1 X87.409 Y132.365 E28.09911
G1 X87.252 Y131.803 E28.16121
G1 X87.184 Y131.221 E28.22358
G1 X87.139 Y130.151 E28.33756
G1 X87.108 Y128.845 E28.4766
G1 X86.968 Y126.169 E28.7618
G1 X86.751 Y123.476 E29.04935
G1 X86.454 Y120.754 E29.34078
G1 X86.083 Y118.074 E29.62874
G1 X85.936 Y117.19 E29.72412
G1 X85.922 Y117.059 E29.73814
G1 X85.702 Y115.698 E29.88488
G1 X85.647 Y115.06 E29.95303
G1 X85.685 Y114.485 E30.01436
G1 X85.732 Y114.142 E30.05121
G1 X85.839 Y113.632 E30.10667
G1 X85.98 Y113.203 E30.15474
G1 X86.128 Y112.835 E30.19695
G1 X86.384 Y112.31 E30.25912
G1 X86.775 Y111.757 E30.3312
G1 X87.002 Y111.503 E30.36746
G1 X87.405 Y111.093 E30.42865
G1 X87.926 Y110.597 E30.50521
G1 X88.319 Y110.254 E30.56073
G0 F6000 X88.845 Y110.857
G1 F900 X89.441 Y110.381 E30.64191
G1 X90.019 Y109.965 E30.7177
G1 X90.804 Y109.462 E30.81693
G1 X91.286 Y109.186 E30.87605
G1 X91.931 Y108.853 E30.95331
G1 X92.621 Y108.541 E31.0339
G1 X93.306 Y108.27 E31.11231
G1 X94.03 Y108.025 E31.19366
G1 X94.74 Y107.825 E31.27216
G1 X95.458 Y107.659 E31.3506
G1 X96.209 Y107.525 E31.43179
G1 X96.912 Y107.436 E31.50721
G1 X97.681 Y107.377 E31.5893
G1 X98.426 Y107.358 E31.66862
G1 X99.156 Y107.376 E31.74634
G1 X100.391 Y107.479 E31.87824
G1 X102.456 Y107.724 E32.09956
G1 X105.185 Y107.97 E32.39119
G1 X107.89 Y108.138 E32.67965
G1 X110.632 Y108.23 E32.97165
G1 X112.531 Y108.249 E33.17377
G1 X128.7 Y108.251 E34.89468
G1 X129.401 Y108.261 E34.9693
G1 X129.92 Y108.309 E35.02477
G1 X130.426 Y108.435 E35.08027
G1 X130.907 Y108.637 E35.1358
G1 X131.351 Y108.91 E35.19127
G1 X131.641 Y109.146 E35.23106
G1 X131.985 Y109.459 E35.28056
G1 X132.343 Y109.838 E35.33605
G1 X132.582 Y110.175 E35.38002
G1 X132.842 Y110.592 E35.43233
G1 X133.167 Y111.271 E35.51245
G1 X133.303 Y111.661 E35.55641
G1 X133.448 Y112.227 E35.61859
G1 X133.499 Y112.536 E35.65193
G1 X133.543 Y113.018 E35.70344
G1 X133.554 Y113.564 E35.76156
G1 X133.554 Y115.569 E35.97496
G1 X133.544 Y116.293 E36.05202
G1 X133.497 Y116.812 E36.10749
G1 X133.371 Y117.318 E36.16299
G1 X133.169 Y117.798 E36.21842
G1 X132.896 Y118.242 E36.27389
G1 X132.43 Y118.763 E36.34829
G1 X131.6 Y119.516 E36.46756
G1 X131.143 Y119.917 E36.53227
G1 X129.155 Y121.772 E36.82166
G1 X127.209 Y123.694 E37.11277
G1 X125.317 Y125.669 E37.40387
G1 X123.481 Y127.7 E37.69526
G1 X121.71 Y129.773 E37.98545
G1 X120.008 Y131.884 E38.27406
G1 X118.34 Y134.078 E38.56739
G1 X116.733 Y136.318 E38.86081
G1 X115.235 Y138.535 E39.14558
G1 X113.738 Y140.894 E39.44295
G1 X113.04 Y142.026 E39.58449
G1 X112.733 Y142.447 E39.63995
G1 X112.366 Y142.817 E39.69541
G1 X111.946 Y143.126 E39.75091
G1 X111.484 Y143.367 E39.80637
G1 X110.99 Y143.534 E39.86187
G1 X110.241 Y143.64 E39.94238
G1 X109.919 Y143.649 E39.97667
G1 X107.813 Y143.65 E40.20081
G1 X107.109 Y143.64 E40.27575
G1 X106.59 Y143.592 E40.33122
G1 X106.084 Y143.466 E40.38672
G1 X105.604 Y143.264 E40.44215
G1 X105.298 Y143.087 E40.47977
G1 X104.71 Y142.703 E40.55452
G1 X102.394 Y141.234 E40.84642
G1 X100.067 Y139.846 E41.1348
G1 X97.672 Y138.509 E41.42674
G1 X95.241 Y137.242 E41.71851
G1 X91.418 Y135.384 E42.17091
G1 X90.783 Y135.024 E42.2486
G1 X90.091 Y134.585 E42.33582
G1 X89.718 Y134.324 E42.38427
G1 X89.315 Y133.993 E42.43978
G1 X88.967 Y133.604 E42.49533
G1 X88.791 Y133.374 E42.52615
G1 X88.507 Y132.937 E42.58162
G1 X88.295 Y132.467 E42.6365
G1 X88.18 Y132.15 E42.67239
G1 X88.04 Y131.648 E42.72786
G1 X87.979 Y131.128 E42.78358
G1 X87.939 Y130.132 E42.88967
G1 X87.908 Y128.826 E43.02871
G1 X87.767 Y126.127 E43.31637
G1 X87.546 Y123.389 E43.60873
G1 X87.249 Y120.667 E43.90016
G1 X86.875 Y117.964 E44.19058
G1 X86.725 Y117.059 E44.28822
G1 X86.717 Y116.966 E44.29815
G1 X86.492 Y115.571 E44.44855
G1 X86.449 Y115.051 E44.50408
G1 X86.478 Y114.589 E44.55335
G1 X86.515 Y114.306 E44.58372
G1 X86.622 Y113.796 E44.63919
G1 X86.724 Y113.497 E44.67281
G1 X86.847 Y113.186 E44.70841
G1 X87.076 Y112.717 E44.76396
G1 X87.373 Y112.289 E44.8194
G1 X87.574 Y112.063 E44.85159
G1 X87.957 Y111.672 E44.90985
G1 X88.452 Y111.2 E44.98264
G1 X88.845 Y110.857 E45.03816
G1 F1500 E38.53816
G1 F300 Z0.52
;MESH:SteckerKlippV2-K??rper.stl
G0 F6000 X91.724 Y114.606 Z0.52
;TYPE:WALL-INNER
G1 F300 Z0.32
G1 F1500 E45.03816
G1 F1142.9 X92.172 Y114.233 E45.11959
G1 X92.586 Y113.926 E45.19159
G1 F1143.9 X92.941 Y113.687 E45.25132
G1 F1142.9 X93.519 Y113.342 E45.34535
G1 F1141.8 X93.928 Y113.13 E45.40977
G1 F1143.9 X94.297 Y112.956 E45.4667
G1 X94.874 Y112.72 E45.5537
G1 F1141.8 X95.331 Y112.562 E45.62131
G1 X95.723 Y112.444 E45.67855
G1 F1143.9 X96.206 Y112.323 E45.74804
G1 X96.703 Y112.223 E45.8188
G1 F1142.9 X97.306 Y112.139 E45.90384
G1 F1146.1 X97.702 Y112.104 E45.95922
G1 X98.337 Y112.076 E46.04776
G1 F1143.9 X98.853 Y112.084 E46.11978
G1 X99.23 Y112.105 E46.17247
G1 X99.723 Y112.158 E46.24167
G1 F1148.3 X100.22 Y112.231 E46.31151
G1 F1149.4 X100.722 Y112.338 E46.3828
G1 F1148.3 X101.226 Y112.465 E46.45506
G1 F1146.1 X101.708 Y112.615 E46.52538
G1 F1143.9 X102.201 Y112.797 E46.59872
G1 F1146.1 X102.613 Y112.973 E46.66113
G1 F1147.2 X103.141 Y113.228 E46.74272
G1 F1131 X103.798 Y113.596 E46.84902
G1 F1500 E40.34902
G1 F300 Z0.52
G0 F6000 X107.979 Y116.733 Z0.52
G1 F300 Z0.32
G1 F1500 E46.84902
G1 F1043.5 X107.979 Y116.25 E46.92292
G1 X107.997 Y115.933 E46.97149
G1 X108.121 Y115.445 E47.04853
G1 X108.537 Y114.794 E47.16673
G1 X108.779 Y114.613 E47.21296
G1 X106.342 Y114.569 E47.58588
G1 X106.562 Y114.797 E47.63435
G1 X106.874 Y115.151 E47.70655
G1 X107.279 Y115.662 E47.80631
G1 X107.52 Y115.999 E47.86969
G1 X107.829 Y116.475 E47.95652
G1 X107.979 Y116.733 E48.00218
G1 F1500 E41.50218
G1 F300 Z0.52
G0 F6000 X109.004 Y139.1 Z0.52
G1 F300 Z0.32
G1 F1500 E48.00218
G1 F1714.3 X109.004 Y130.375 E48.81472
G1 F1617.3 X108.962 Y129.706 E48.88089
G1 F1515.2 X108.954 Y129.037 E48.95139
G1 F1500 X108.954 Y125.3 E49.34913
G1 F1519 X108.964 Y124.841 E49.39738
G1 F1666.7 X109.024 Y123.299 E49.5452
G1 F1854.7 X109.038 Y122.251 E49.63542
G1 F1883.8 X109.034 Y121.691 E49.68288
G1 F1799.1 X109.007 Y120.677 E49.77289
G1 F1628.2 X108.964 Y119.657 E49.87299
G1 F1519 X108.954 Y119.178 E49.92335
G1 F1500 X108.954 Y116.103 E50.25062
G1 X109.05 Y115.778 E50.28669
G1 X109.261 Y115.447 E50.32847
G1 F1428.6 X109.612 Y115.134 E50.38103
G1 F1212.1 X109.958 Y114.904 E50.43575
G1 F1095.9 X128.807 Y114.904 E53.18166
G1 F1098.9 X128.807 Y113.812 E53.34031
G1 F1095.9 X119.339 Y113.812 E54.7196
G1 F1087.9 X109.871 Y113.813 E56.10897
G1 F1207.2 X109.294 Y113.689 E56.18701
G1 F1428.6 X108.474 Y113.633 E56.27887
G1 F1494.4 X104.536 Y113.562 E56.69964
G1 F1411.8 X104.108 Y113.628 E56.74861
G1 F1308.6 X103.827 Y113.599 E56.78307
G1 F1374.6 X104.344 Y114.115 E56.86791
G1 F1494.4 X104.733 Y114.416 E56.92046
G1 F1500 X105.145 Y114.765 E56.97792
G1 X105.496 Y115.097 E57.02935
G1 X105.829 Y115.44 E57.08023
G1 X106.179 Y115.84 E57.1368
G1 X106.485 Y116.228 E57.18939
G1 X106.726 Y116.566 E57.23357
G1 X107.009 Y117.003 E57.28898
G1 X107.295 Y117.501 E57.35011
G1 X107.479 Y117.864 E57.39342
G1 X107.691 Y118.328 E57.44772
G1 X107.894 Y118.848 E57.50713
G1 X108.044 Y119.304 E57.55822
G1 F1519 X108.166 Y119.768 E57.60864
G1 F1581 X108.251 Y120.227 E57.65578
G1 F1676 X108.318 Y120.735 E57.70459
G1 F1769.9 X108.364 Y121.228 E57.74925
G1 F1843.3 X108.393 Y121.716 E57.79159
G1 F1883.8 X108.404 Y122.282 E57.83957
G1 F1880.9 X108.393 Y122.779 E57.88176
G1 F1843.3 X108.365 Y123.259 E57.92341
G1 F1769.9 X108.317 Y123.766 E57.96934
G1 F1683 X108.262 Y124.207 E58.0115
G1 F1587.3 X108.166 Y124.731 E58.06508
G1 F1519 X108.05 Y125.175 E58.11331
G1 F1500 X107.873 Y125.709 E58.17319
G1 X107.697 Y126.157 E58.22442
G1 X107.506 Y126.578 E58.27362
G1 X107.285 Y127.018 E58.32603
G1 X107.035 Y127.453 E58.37943
G1 X106.777 Y127.857 E58.43045
G1 F1444 X106.198 Y128.686 E58.54224
G1 F1310 X105.896 Y129.17 E58.61176
G1 F1293.1 X106.352 Y129.022 E58.67095
G1 F1423.5 X106.817 Y129.006 E58.72313
G1 F1500 X107.125 Y129.066 E58.75653
G1 X107.613 Y129.265 E58.81262
G1 X107.957 Y129.482 E58.85591
G1 F1515.2 X108.234 Y129.868 E58.90597
G1 F1617.3 X108.304 Y130.375 E58.9565
G1 F1714.3 X108.304 Y139.1 E59.76904
G1 X109.004 Y139.1 E59.83423
G1 F1500 E53.33423
G1 F300 Z0.52
G0 F6000 X108.208 Y128.771 Z0.52
G1 F300 Z0.32
G1 F1500 E59.83423
G1 F1734.1 X108.208 Y126.834 E60.01256
G1 X107.951 Y127.355 E60.06604
G1 X107.681 Y127.827 E60.1161
G1 X107.345 Y128.346 E60.17302
G1 X107.898 Y128.576 E60.22816
G1 X108.208 Y128.771 E60.26188
G1 F1500 E53.76188
G1 F300 Z0.52
G0 F6000 X105.885 Y129.187 Z0.52
G1 F300 Z0.32
G1 F1500 E60.26188
G1 F1141.8 X105.584 Y129.488 E60.3214
G1 F1148.3 X105.204 Y129.847 E60.39408
G1 F1149.4 X104.819 Y130.174 E60.46424
G1 F1147.2 X104.425 Y130.472 E60.53298
G1 X104.008 Y130.764 E60.60383
G1 F1148.3 X103.572 Y131.032 E60.67498
G1 X103.147 Y131.268 E60.74256
G1 F1145 X102.557 Y131.551 E60.8338
G1 F1140.7 X102.091 Y131.744 E60.90439
G1 X101.618 Y131.913 E60.97469
G1 F1142.9 X101.248 Y132.027 E61.02877
G1 F1146.1 X100.781 Y132.151 E61.09608
G1 F1145 X100.14 Y132.28 E61.18724
G1 F1142.9 X99.725 Y132.342 E61.24586
G1 F1145 X99.22 Y132.394 E61.31664
G1 X98.646 Y132.422 E61.39677
G1 F1143.9 X98.199 Y132.421 E61.45915
