;FLAVOR:Marlin
;TIME:5039
;Filament used: 3.47759m
;Layer height: 0.2
;MINX:58.5
;MINY:73.5
;MINZ:0.2
;MAXX:161.5
;MAXY:146.5
;MAXZ:3.4
;TARGET_MACHINE.NAME:Creality Ender-3 Pro
;Generated with Cura_SteamEngine 5.5.0
M82 ;absolute extrusion mode
; Ender 3 Custom Start G-code
G92 E0 ; Reset Extruder
G28 ; Home all axes
G1 Z5.0 F3000 ; Move Z Axis up a bit during heating to not damage bed
M104 S120 ; Start heating up the nozzle most of the way
M190 S70 ; Start heating the bed, wait until target temperature reached
M109 S230 ; Finish heating the nozzle
G1 Z2.0 F3000 ; Move Z Axis up little to prevent scratching of Heat Bed
G1 X0.1 Y20 Z0.3 F5000.0 ; Move to start position
G1 X0.1 Y200.0 Z0.3 F1500.0 E15 ; Draw the first line
G1 X0.4 Y200.0 Z0.3 F5000.0 ; Move to side a little
G1 X0.4 Y20 Z0.3 F1500.0 E30 ; Draw the second line
G92 E0 ; Reset Extruder
G1 Z2.0 F3000 ; Move Z Axis up little to prevent scratching of Heat Bed
G1 X5 Y20 Z0.3 F5000.0 ; Move over to prevent blob squish
G92 E0
G92 E0
G1 F1500 E-6.5
;LAYER_COUNT:17
;LAYER:0
M107
G0 F6000 X62.703 Y81.867 Z0.2
;TYPE:SKIRT
G1 F1500 E0
G1 F900 X63.493 Y81.3 E0.03234
G1 X64.328 Y80.804 E0.06465
G1 X65.112 Y80.424 E0.09362
G1 X67.573 Y79.351 E0.18292
G1 X69.859 Y78.277 E0.26692
G1 X72.087 Y77.153 E0.34992
G1 X74.337 Y75.935 E0.43502
G1 X75.369 Y75.338 E0.47467
G1 X76.15 Y74.901 E0.50444
G1 X77.02 Y74.464 E0.53682
G1 X77.859 Y74.131 E0.56684
G1 X78.861 Y73.833 E0.60161
G1 X79.746 Y73.652 E0.63166
G1 X81.14 Y73.517 E0.67824
G1 X81.81 Y73.5 E0.70053
G1 X149.804 Y73.5 E2.96202
G1 X150.684 Y73.513 E2.99129
G1 X151.656 Y73.572 E3.02368
G1 X152.619 Y73.718 E3.05608
G1 X153.566 Y73.949 E3.0885
G1 X154.454 Y74.249 E3.11967
G1 X155.346 Y74.639 E3.15205
G1 X156.229 Y75.126 E3.18559
G1 X156.98 Y75.628 E3.21564
G1 X157.795 Y76.286 E3.25048
G1 X158.493 Y76.964 E3.28284
G1 X159.129 Y77.701 E3.31522
G1 X159.699 Y78.491 E3.34762
G1 X160.161 Y79.267 E3.37766
G1 X160.615 Y80.209 E3.41244
G1 X160.944 Y81.087 E3.44362
G1 X161.213 Y82.059 E3.47717
G1 X161.39 Y83.025 E3.50983
G1 X161.485 Y84.155 E3.54755
G1 X161.5 Y84.83 E3.57
G1 X161.499 Y134.9 E5.23534
G1 X161.488 Y135.663 E5.26072
G1 X161.431 Y136.636 E5.29314
G1 X161.286 Y137.599 E5.32553
G1 X161.057 Y138.545 E5.3579
G1 X160.746 Y139.469 E5.39033
G1 X160.354 Y140.36 E5.4227
G1 X159.886 Y141.212 E5.45503
G1 X159.364 Y141.993 E5.48628
G1 X158.731 Y142.778 E5.51982
G1 X158.106 Y143.429 E5.54983
G1 X157.317 Y144.117 E5.58465
G1 X156.557 Y144.667 E5.61585
G1 X155.69 Y145.184 E5.64943
G1 X154.812 Y145.606 E5.68183
G1 X153.901 Y145.948 E5.71419
G1 X152.962 Y146.209 E5.74661
G1 X151.996 Y146.387 E5.77928
G1 X150.845 Y146.485 E5.8177
G1 X150.17 Y146.5 E5.84016
G1 X82.05 Y146.499 E8.10584
G1 X81.328 Y146.488 E8.12985
G1 X80.34 Y146.428 E8.16277
G1 X79.376 Y146.282 E8.1952
G1 X78.429 Y146.051 E8.22762
G1 X77.573 Y145.763 E8.25766
G1 X76.626 Y145.349 E8.29204
G1 X76.007 Y145.018 E8.31538
G1 X75.461 Y144.703 E8.33635
G1 X73.231 Y143.459 E8.42128
G1 X70.959 Y142.274 E8.50651
G1 X68.721 Y141.186 E8.58927
G1 X66.331 Y140.106 E8.67651
G1 X65.094 Y139.567 E8.72138
G1 X64.282 Y139.171 E8.75143
G1 X63.386 Y138.63 E8.78624
G1 X62.602 Y138.053 E8.81862
G1 X61.923 Y137.458 E8.84865
G1 X61.201 Y136.702 E8.88342
G1 X60.617 Y135.968 E8.91462
G1 X60.079 Y135.155 E8.94704
G1 X59.601 Y134.267 E8.98058
G1 X59.217 Y133.373 E9.01294
G1 X58.933 Y132.515 E9.043
G1 X58.695 Y131.498 E9.07774
G1 X58.567 Y130.604 E9.10778
G1 X58.515 Y129.827 E9.13368
G1 X58.5 Y129.17 E9.15554
G1 X58.501 Y91.038 E10.42382
G1 X58.512 Y90.329 E10.4474
G1 X58.572 Y89.339 E10.48039
G1 X58.719 Y88.378 E10.51272
G1 X58.95 Y87.43 E10.54518
G1 X59.238 Y86.574 E10.57521
G1 X59.657 Y85.618 E10.60993
G1 X60.128 Y84.765 E10.64234
G1 X60.673 Y83.959 E10.6747
G1 X61.287 Y83.202 E10.70712
G1 X61.965 Y82.503 E10.73951
G1 X62.703 Y81.867 E10.77191
G0 F6000 X62.937 Y82.192
G1 F900 X63.698 Y81.644 E10.8031
G1 X64.503 Y81.164 E10.83427
G1 X65.272 Y80.791 E10.8627
G1 X67.733 Y79.718 E10.952
G1 X70.029 Y78.639 E11.03637
G1 X72.277 Y77.505 E11.12012
G1 X74.527 Y76.287 E11.20521
G1 X75.564 Y75.687 E11.24506
G1 X76.33 Y75.258 E11.27426
G1 X77.168 Y74.836 E11.30547
G1 X78.007 Y74.503 E11.33549
G1 X78.941 Y74.225 E11.3679
G1 X79.826 Y74.044 E11.39795
G1 X81.15 Y73.917 E11.44219
G1 X81.82 Y73.9 E11.46448
G1 X149.798 Y73.9 E13.72544
G1 X150.66 Y73.912 E13.75411
G1 X151.597 Y73.968 E13.78533
G1 X152.525 Y74.107 E13.81654
G1 X153.438 Y74.328 E13.84778
G1 X154.294 Y74.616 E13.87782
G1 X155.186 Y75.006 E13.9102
G1 X156.007 Y75.459 E13.94139
G1 X156.758 Y75.961 E13.97143
G1 X157.517 Y76.573 E14.00386
G1 X158.191 Y77.226 E14.03508
G1 X158.805 Y77.935 E14.06627
G1 X159.355 Y78.696 E14.0975
G1 X159.817 Y79.472 E14.12754
G1 X160.24 Y80.349 E14.15992
G1 X160.569 Y81.227 E14.19111
G1 X160.82 Y82.132 E14.22234
G1 X160.991 Y83.059 E14.2537
G1 X161.086 Y84.189 E14.29141
G1 X161.1 Y84.83 E14.31274
G1 X161.099 Y134.895 E15.97791
G1 X161.089 Y135.64 E16.00269
G1 X161.035 Y136.577 E16.0339
G1 X160.897 Y137.506 E16.06514
G1 X160.678 Y138.418 E16.09634
G1 X160.38 Y139.308 E16.12755
G1 X160.003 Y140.168 E16.15879
G1 X159.553 Y140.99 E16.18995
G1 X159.031 Y141.771 E16.2212
G1 X158.442 Y142.501 E16.2524
G1 X157.817 Y143.152 E16.28241
G1 X157.082 Y143.793 E16.31485
G1 X156.322 Y144.343 E16.34605
G1 X155.516 Y144.824 E16.37727
G1 X154.671 Y145.232 E16.40848
G1 X153.793 Y145.563 E16.43969
G1 X152.889 Y145.816 E16.47091
G1 X151.962 Y145.988 E16.50227
G1 X150.811 Y146.086 E16.54069
G1 X150.17 Y146.1 E16.56201
G1 X82.056 Y146.099 E18.82749
G1 X81.352 Y146.089 E18.85091
G1 X80.399 Y146.032 E18.88267
G1 X79.47 Y145.893 E18.91391
G1 X78.557 Y145.672 E18.94515
G1 X77.701 Y145.384 E18.97519
G1 X76.814 Y144.996 E19.00739
G1 X76.207 Y144.672 E19.03028
G1 X75.661 Y144.357 E19.05124
G1 X73.416 Y143.104 E19.13675
G1 X71.144 Y141.919 E19.22198
G1 X68.886 Y140.821 E19.30549
G1 X66.496 Y139.741 E19.39272
G1 X65.269 Y139.207 E19.43723
G1 X64.457 Y138.811 E19.46728
G1 X63.623 Y138.307 E19.49969
G1 X62.866 Y137.752 E19.53091
G1 X62.187 Y137.157 E19.56094
G1 X61.514 Y136.452 E19.59335
G1 X60.951 Y135.747 E19.62336
G1 X60.413 Y134.934 E19.65579
G1 X59.968 Y134.109 E19.68696
G1 X59.597 Y133.247 E19.71818
G1 X59.313 Y132.389 E19.74824
G1 X59.091 Y131.441 E19.78062
G1 X58.963 Y130.547 E19.81066
G1 X58.915 Y129.818 E19.83496
G1 X58.9 Y129.17 E19.85651
G1 X58.901 Y91.044 E21.12459
G1 X58.911 Y90.353 E21.14758
G1 X58.968 Y89.399 E21.17936
G1 X59.108 Y88.472 E21.21054
G1 X59.329 Y87.558 E21.24182
G1 X59.617 Y86.702 E21.27186
G1 X60.007 Y85.811 E21.30421
G1 X60.46 Y84.988 E21.33545
G1 X60.984 Y84.21 E21.36665
G1 X61.574 Y83.48 E21.39787
G1 X62.227 Y82.806 E21.42908
G1 X62.937 Y82.192 E21.4603
G0 F6000 X63.171 Y82.516
G1 F900 X63.903 Y81.987 E21.49034
G1 X64.678 Y81.524 E21.52037
G1 X65.432 Y81.158 E21.54825
G1 X67.893 Y80.085 E21.63754
G1 X70.199 Y79.001 E21.72229
G1 X72.467 Y77.857 E21.80678
G1 X74.717 Y76.639 E21.89187
G1 X75.76 Y76.036 E21.93194
G1 X76.51 Y75.615 E21.96055
G1 X77.316 Y75.208 E21.99058
G1 X78.155 Y74.875 E22.0206
G1 X79.021 Y74.617 E22.05066
G1 X79.906 Y74.436 E22.0807
G1 X81.16 Y74.317 E22.1226
G1 X81.83 Y74.3 E22.14489
G1 X149.793 Y74.3 E24.40535
G1 X150.637 Y74.311 E24.43342
G1 X151.539 Y74.364 E24.46348
G1 X152.432 Y74.496 E24.4935
G1 X153.31 Y74.707 E24.52353
G1 X154.166 Y74.995 E24.55357
G1 X154.993 Y75.357 E24.5836
G1 X155.785 Y75.792 E24.61365
G1 X156.536 Y76.294 E24.6437
G1 X157.239 Y76.861 E24.67374
G1 X157.889 Y77.488 E24.70377
G1 X158.481 Y78.17 E24.73381
G1 X159.011 Y78.901 E24.76384
G1 X159.473 Y79.677 E24.79388
G1 X159.866 Y80.49 E24.82391
G1 X160.184 Y81.335 E24.85394
G1 X160.427 Y82.205 E24.88399
G1 X160.592 Y83.093 E24.91403
G1 X160.687 Y84.223 E24.95174
G1 X160.7 Y84.83 E24.97194
G1 X160.699 Y134.89 E26.63694
G1 X160.69 Y135.617 E26.66112
G1 X160.639 Y136.519 E26.69117
G1 X160.508 Y137.413 E26.72122
G1 X160.299 Y138.291 E26.75124
G1 X160.013 Y139.148 E26.78129
G1 X159.652 Y139.976 E26.81133
G1 X159.22 Y140.768 E26.84134
G1 X158.719 Y141.52 E26.87139
G1 X158.153 Y142.224 E26.90144
G1 X157.528 Y142.875 E26.93145
G1 X156.847 Y143.469 E26.96151
G1 X156.116 Y144 E26.99156
G1 X155.342 Y144.464 E27.02157
G1 X154.529 Y144.858 E27.05162
G1 X153.685 Y145.178 E27.08164
G1 X152.815 Y145.423 E27.11171
G1 X151.928 Y145.589 E27.14172
G1 X150.777 Y145.687 E27.18014
G1 X150.17 Y145.7 E27.20034
G1 X82.062 Y145.699 E29.46562
G1 X81.358 Y145.689 E29.48903
G1 X80.457 Y145.636 E29.51905
G1 X79.563 Y145.504 E29.54911
G1 X78.685 Y145.293 E29.57914
G1 X77.829 Y145.005 E29.60918
G1 X77.002 Y144.643 E29.63921
G1 X76.407 Y144.326 E29.66163
G1 X75.861 Y144.011 E29.6826
G1 X73.601 Y142.749 E29.76869
G1 X71.329 Y141.564 E29.85392
G1 X69.061 Y140.461 E29.9378
G1 X66.656 Y139.374 E30.02558
G1 X65.444 Y138.847 E30.06954
G1 X64.632 Y138.451 E30.09959
G1 X63.859 Y137.984 E30.12962
G1 X63.13 Y137.451 E30.15966
G1 X62.451 Y136.856 E30.18969
G1 X61.827 Y136.202 E30.21975
G1 X61.264 Y135.497 E30.24976
G1 X60.765 Y134.744 E30.27981
G1 X60.335 Y133.95 E30.30984
G1 X59.977 Y133.121 E30.33987
G1 X59.693 Y132.263 E30.36993
G1 X59.487 Y131.384 E30.39996
G1 X59.359 Y130.49 E30.43
G1 X59.315 Y129.809 E30.45269
G1 X59.3 Y129.17 E30.47395
G1 X59.301 Y91.05 E31.74183
G1 X59.311 Y90.359 E31.76482
G1 X59.364 Y89.458 E31.79483
G1 X59.497 Y88.565 E31.82486
G1 X59.708 Y87.686 E31.85493
G1 X59.996 Y86.83 E31.88497
G1 X60.358 Y86.003 E31.91499
G1 X60.792 Y85.211 E31.94503
G1 X61.295 Y84.461 E31.97507
G1 X61.862 Y83.758 E32.00511
G1 X62.489 Y83.108 E32.03515
G1 X63.171 Y82.516 E32.06518
G1 F1500 E25.56518
;MESH:SteuerungsGeha??use-Deckel.stl
G0 F6000 X85.28 Y85.498
;TYPE:WALL-INNER
G1 F1500 E32.06518
G1 F935.1 X85.497 Y85.486 E32.07214
G1 F944.9 X85.765 Y85.495 E32.08063
G1 F1500 E25.58063
G0 F6000 X82.101 Y134.899
G1 F1500 E32.08063
G1 F900 X149.9 Y134.9 E34.33564
G1 X149.9 Y85.1 E35.99199
G1 X82.101 Y85.101 E38.247
G1 X82.096 Y90.572 E38.42896
G1 X81.966 Y90.88 E38.44008
G1 X81.826 Y91.005 E38.44633
G1 X81.541 Y91.099 E38.45631
G1 X70.1 Y91.1 E38.83684
G1 X70.1 Y128.9 E40.09407
G1 X81.541 Y128.901 E40.4746
G1 X81.847 Y129.009 E40.48539
G1 X82.002 Y129.17 E40.49282
G1 X82.098 Y129.445 E40.50251
G1 X82.101 Y134.899 E40.68391
G1 F1500 E34.18391
G0 F6000 X83.646 Y134.059
G1 F1500 E40.68391
G1 F750 X83.383 Y133.691 E40.70197
G1 X83.213 Y133.312 E40.71854
G1 F634.9 X83.027 Y132.941 E40.73811
G1 X82.941 Y133.349 E40.75777
G1 F750 X82.941 Y134.059 E40.78611
G1 X83.646 Y134.059 E40.81425
G1 F1500 E34.31425
G0 F6000 X85.715 Y134.507
G1 F1500 E40.81425
G1 F916 X86.166 Y134.499 E40.82899
G1 F900 X145.608 Y134.499 E42.80603
G1 F913.7 X146.235 Y134.505 E42.82658
G1 F918.4 X145.963 Y134.451 E42.83562
G1 F904.5 X145.637 Y134.335 E42.84707
G1 F900 X145.32 Y134.147 E42.85932
G1 X145.022 Y133.886 E42.8725
G1 X144.804 Y133.614 E42.88409
G1 X144.661 Y133.353 E42.89399
G1 X144.532 Y133.023 E42.90578
G1 X144.49 Y132.678 E42.91734
G1 X144.49 Y132.238 E42.93197
G1 X144.612 Y131.808 E42.94684
G1 X144.852 Y131.365 E42.9636
G1 X145.168 Y130.998 E42.9797
G1 X145.763 Y130.645 E43.00271
G1 X146.255 Y130.547 E43.0194
G1 X146.631 Y130.523 E43.03193
G1 X147.018 Y130.611 E43.04513
G1 X147.389 Y130.755 E43.05837
G1 X147.771 Y130.986 E43.07321
G1 X148.051 Y131.303 E43.08728
G1 X148.24 Y131.595 E43.09885
G1 F902.3 X148.36 Y131.864 E43.10862
G1 X148.431 Y132.104 E43.11693
G1 F900 X148.47 Y132.38 E43.1262
G1 X148.414 Y133.088 E43.14982
G1 X148.203 Y133.554 E43.16683
G1 X147.871 Y133.952 E43.18407
G1 X147.533 Y134.245 E43.19895
G1 X147.111 Y134.417 E43.21411
G1 F904.5 X146.72 Y134.502 E43.22735
G1 X149.5 Y134.5 E43.31935
G1 F900 X149.5 Y85.5 E44.9491
G1 X147.335 Y85.501 E45.0211
G1 F863.3 X146.946 Y85.517 E45.0346
G1 X147.294 Y85.655 E45.04758
G1 F900 X147.64 Y85.854 E45.06086
G1 X147.909 Y86.079 E45.07252
G1 X148.181 Y86.406 E45.08667
G1 X148.345 Y86.758 E45.09959
G1 F902.3 X148.42 Y87 E45.10799
G1 X148.491 Y87.399 E45.12144
G1 X148.422 Y87.937 E45.13943
G1 F900 X148.242 Y88.435 E45.15705
G1 X147.981 Y88.785 E45.17157
G1 X147.731 Y89.045 E45.18356
G1 X147.434 Y89.225 E45.19511
G1 X147.158 Y89.349 E45.20518
G1 X146.779 Y89.46 E45.21831
G1 X146.38 Y89.466 E45.23159
G1 X145.913 Y89.407 E45.24724
G1 X145.261 Y89.054 E45.2719
G1 X145.076 Y88.903 E45.27984
G1 X144.646 Y88.322 E45.30389
G1 X144.477 Y87.569 E45.32955
G1 X144.494 Y87.299 E45.33855
G1 X144.553 Y86.96 E45.35
G1 X144.66 Y86.652 E45.36084
G1 X144.804 Y86.388 E45.37084
G1 X145.007 Y86.105 E45.38243
G1 X145.271 Y85.884 E45.39388
G1 X145.52 Y85.722 E45.40376
G1 X145.843 Y85.585 E45.41543
G1 F916 X146.285 Y85.493 E45.43018
G1 X145.834 Y85.501 E45.44492
G1 F900 X86.392 Y85.501 E47.42197
G1 F913.7 X85.765 Y85.495 E47.44251
G1 F918.4 X86.037 Y85.549 E47.45155
G1 F904.5 X86.363 Y85.665 E47.463
G1 F900 X86.68 Y85.853 E47.47526
G1 X86.978 Y86.114 E47.48844
G1 X87.197 Y86.388 E47.5001
G1 X87.341 Y86.652 E47.5101
G1 X87.443 Y86.932 E47.52002
G1 X87.501 Y87.218 E47.52972
G1 X87.51 Y87.671 E47.54479
G1 X87.465 Y87.921 E47.55324
G1 X87.334 Y88.338 E47.56778
G1 X87.038 Y88.788 E47.58569
G1 X86.575 Y89.179 E47.60585
G1 X86.296 Y89.34 E47.61656
G1 X85.584 Y89.485 E47.64073
G1 X84.968 Y89.408 E47.66138
G1 X84.505 Y89.187 E47.67844
G1 X84.202 Y88.965 E47.69093
G1 X83.934 Y88.676 E47.70404
G1 X83.694 Y88.315 E47.71846
G1 X83.578 Y87.94 E47.73152
G1 X83.526 Y87.372 E47.75049
G1 X83.57 Y87.075 E47.76047
G1 X83.687 Y86.698 E47.7736
G1 X83.791 Y86.452 E47.78249
G1 X84.129 Y86.048 E47.80001
G1 X84.467 Y85.755 E47.81488
G1 X84.889 Y85.583 E47.83004
G1 F904.5 X85.28 Y85.498 E47.84328
G1 X82.502 Y85.502 E47.93522
G1 F900 X82.501 Y90.588 E48.10438
G1 X82.406 Y90.926 E48.11606
G1 X82.167 Y91.246 E48.12934
G1 X81.79 Y91.458 E48.14373
G1 X81.567 Y91.498 E48.15126
G1 X70.5 Y91.5 E48.51935
G1 X70.5 Y128.5 E49.74998
G1 X81.568 Y128.502 E50.1181
G1 X81.877 Y128.573 E50.12864
G1 X82.141 Y128.731 E50.13888
G1 X82.337 Y128.951 E50.14868
G1 X82.463 Y129.228 E50.1588
G1 X82.497 Y129.409 E50.16492
G1 X82.501 Y134.499 E50.33422
G1 X84.663 Y134.499 E50.40613
G1 F863.3 X85.053 Y134.483 E50.41966
G1 X84.704 Y134.345 E50.43267
G1 F900 X84.363 Y134.149 E50.44576
G1 X84.05 Y133.867 E50.45977
G1 X83.755 Y133.455 E50.47662
G1 X83.637 Y133.191 E50.48624
G1 X83.532 Y132.799 E50.49974
G1 X83.532 Y132.379 E50.51371
G1 X83.574 Y132.034 E50.52527
G1 X83.702 Y131.706 E50.53698
G1 X83.846 Y131.444 E50.54692
G1 X84.085 Y131.119 E50.56034
G1 X84.44 Y130.856 E50.57503
G1 X84.907 Y130.617 E50.59248
G1 X85.449 Y130.519 E50.6108
G1 X86.085 Y130.59 E50.63208
G1 X86.683 Y130.911 E50.65466
G1 X86.918 Y131.089 E50.66446
G1 X87.346 Y131.666 E50.68836
G1 X87.521 Y132.354 E50.71197
G1 X87.51 Y132.632 E50.72122
G1 X87.452 Y133.022 E50.73434
G1 X87.338 Y133.356 E50.74608
G1 X87.195 Y133.615 E50.75592
G1 X86.857 Y134.032 E50.77377
G1 X86.48 Y134.278 E50.78874
G1 X86.157 Y134.415 E50.80041
G1 F916 X85.715 Y134.507 E50.81516
G1 F949.9 X85.544 Y134.514 E50.82056
G1 F893.3 X85.053 Y134.483 E50.83704
G0 F6000 X86.173 Y134.001
G1 F900 X85.587 Y134.134 E50.85703
G1 X85.114 Y134.071 E50.8729
G1 X84.903 Y133.998 E50.88033
G1 X84.563 Y133.802 E50.89338
G1 X84.375 Y133.633 E50.90179
G1 X84.048 Y133.177 E50.92045
G1 X83.94 Y132.782 E50.93407
G1 X83.932 Y132.379 E50.94748
G1 X84.011 Y131.977 E50.9611
G1 X84.197 Y131.636 E50.97402
G1 X84.522 Y131.264 E50.99045
G1 X85.048 Y130.994 E51.01012
G1 X85.498 Y130.922 E51.02528
G1 X85.97 Y130.982 E51.0411
G1 X86.496 Y131.265 E51.06097
G1 X86.662 Y131.415 E51.06841
G1 X86.977 Y131.838 E51.08595
G1 X87.133 Y132.452 E51.10702
G1 X87.04 Y133.069 E51.12777
G1 X86.845 Y133.422 E51.14119
G1 X86.584 Y133.733 E51.15469
G1 X86.173 Y134.001 E51.17101
G0 F6000 X87.332 Y134.099
G1 F900 X144.688 Y134.099 E53.07868
G1 X144.453 Y133.806 E53.09117
G1 X144.31 Y133.545 E53.10107
G1 X144.144 Y133.121 E53.11621
G1 X144.09 Y132.678 E53.13106
G1 X144.09 Y132.379 E53.141
G1 X144.132 Y132.034 E53.15256
G1 X144.255 Y131.612 E53.16718
G1 X144.544 Y131.1 E53.18674
G1 X144.872 Y130.732 E53.20313
G1 X145.092 Y130.578 E53.21206
G1 X145.625 Y130.265 E53.23262
G1 X146.176 Y130.155 E53.25131
G1 X146.658 Y130.124 E53.26737
