;FLAVOR:Marlin
;TIME:18990
;Filament used: 33.0075m
;Layer height: 0.32
;MINX:19.566
;MINY:21.836
;MINZ:0.32
;MAXX:200.581
;MAXY:200.047
;MAXZ:26.88
;TARGET_MACHINE.NAME:Creality Ender-3 Pro
;Generated with Cura_SteamEngine 5.5.0
M82 ;absolute extrusion mode
; Ender 3 Custom Start G-code
G92 E0 ; Reset Extruder
G28 ; Home all axes
G1 Z5.0 F3000 ; Move Z Axis up a bit during heating to not damage bed
M104 S120 ; Start heating up the nozzle most of the way
M190 S70 ; Start heating the bed, wait until target temperature reached
M109 S230 ; Finish heating the nozzle
G1 Z2.0 F3000 ; Move Z Axis up little to prevent scratching of Heat Bed
G1 X0.1 Y20 Z0.3 F5000.0 ; Move to start position
G1 X0.1 Y200.0 Z0.3 F1500.0 E15 ; Draw the first line
G1 X0.4 Y200.0 Z0.3 F5000.0 ; Move to side a little
G1 X0.4 Y20 Z0.3 F1500.0 E30 ; Draw the second line
G92 E0 ; Reset Extruder
G1 Z2.0 F3000 ; Move Z Axis up little to prevent scratching of Heat Bed
G1 X5 Y20 Z0.3 F5000.0 ; Move over to prevent blob squish
G92 E0
G92 E0
G1 F1500 E-6.5
;LAYER_COUNT:84
;LAYER:0
M107
G0 F6000 X28.507 Y28.782 Z0.32
;TYPE:SKIRT
G1 F1500 E0
G1 F900 X29.231 Y28.128 E0.10384
G1 X29.856 Y27.643 E0.18804
G1 X30.702 Y27.031 E0.29917
G1 X31.623 Y26.386 E0.41884
G1 X32.361 Y25.886 E0.51372
G1 X33.188 Y25.378 E0.61702
G1 X33.776 Y25.072 E0.68757
G1 X34.716 Y24.614 E0.79886
G1 X35.701 Y24.154 E0.91456
G1 X36.491 Y23.799 E1.00675
G1 X37.46 Y23.415 E1.11768
G1 X38.114 Y23.208 E1.19069
G1 X39.019 Y22.949 E1.29088
G1 X40.879 Y22.459 E1.4956
G1 X41.962 Y22.228 E1.61346
G1 X42.685 Y22.13 E1.69111
G1 X43.524 Y22.044 E1.78088
G1 X45.599 Y21.872 E2.00248
G1 X46.634 Y21.836 E2.11271
G1 X47.367 Y21.864 E2.19078
G1 X48.519 Y21.947 E2.31371
G1 X50.25 Y22.109 E2.49875
G1 X51.343 Y22.264 E2.61624
G1 X52.054 Y22.419 E2.69369
G1 X53.131 Y22.692 E2.81194
G1 X54.855 Y23.164 E3.00219
G1 X55.874 Y23.494 E3.11619
G1 X56.545 Y23.769 E3.19337
G1 X57.335 Y24.124 E3.28555
G1 X58.651 Y24.737 E3.44006
G1 X59.364 Y25.085 E3.52451
G1 X60.47 Y25.706 E3.65951
G1 X61.431 Y26.32 E3.78088
G1 X63.586 Y27.654 E4.05063
G1 X65.768 Y28.92 E4.31913
G1 X67.939 Y30.102 E4.58222
G1 X70.134 Y31.216 E4.8442
G1 X72.404 Y32.289 E5.11144
G1 X74.678 Y33.284 E5.37562
G1 X76.991 Y34.222 E5.64127
G1 X79.36 Y35.104 E5.91032
G1 X81.677 Y35.895 E6.17089
G1 X84.014 Y36.615 E6.43116
G1 X86.498 Y37.307 E6.70561
G1 X88.864 Y37.894 E6.96506
G1 X91.341 Y38.435 E7.23491
G1 X93.733 Y38.887 E7.494
G1 X96.229 Y39.287 E7.76305
G1 X98.649 Y39.603 E8.0228
G1 X101.153 Y39.86 E8.29071
G1 X103.673 Y40.045 E8.55964
G1 X106.072 Y40.154 E8.81523
G1 X109.02 Y40.2 E9.12903
G1 X111.912 Y40.199 E9.43684
G1 X114.546 Y40.161 E9.71721
G1 X116.941 Y40.058 E9.97235
G1 X119.488 Y39.876 E10.24413
G1 X121.951 Y39.631 E10.50756
G1 X124.419 Y39.316 E10.77237
G1 X126.9 Y38.927 E11.03965
G1 X129.299 Y38.479 E11.2994
G1 X131.712 Y37.961 E11.56207
G1 X134.221 Y37.343 E11.83709
G1 X136.522 Y36.709 E12.09112
G1 X138.99 Y35.952 E12.36587
G1 X141.296 Y35.173 E12.62493
G1 X143.664 Y34.299 E12.89358
G1 X145.946 Y33.381 E13.15538
G1 X148.25 Y32.38 E13.42274
G1 X150.509 Y31.319 E13.68837
G1 X152.706 Y30.211 E13.95026
G1 X154.874 Y29.041 E14.21246
G1 X157.068 Y27.774 E14.48211
G1 X159.821 Y26.07 E14.82671
G1 X160.747 Y25.56 E14.93922
G1 X161.835 Y25.032 E15.06794
G1 X163.496 Y24.27 E15.26244
G1 X164.399 Y23.905 E15.3661
G1 X165.162 Y23.66 E15.45139
G1 X166.261 Y23.35 E15.57292
G1 X167.976 Y22.902 E15.76158
G1 X169.021 Y22.68 E15.87528
G1 X169.745 Y22.582 E15.95304
G1 X170.561 Y22.498 E16.04035
G1 X172.02 Y22.37 E16.19623
G1 X172.756 Y22.317 E16.27477
G1 X173.668 Y22.29 E16.37188
G1 X174.421 Y22.319 E16.45208
G1 X175.54 Y22.401 E16.5715
G1 X177.286 Y22.564 E16.75814
G1 X178.379 Y22.719 E16.87563
G1 X179.091 Y22.873 E16.95317
G1 X180.164 Y23.145 E17.07098
G1 X181.886 Y23.615 E17.26096
G1 X182.905 Y23.946 E17.37499
G1 X183.603 Y24.232 E17.45528
G1 X184.401 Y24.59 E17.54837
G1 X186.252 Y25.464 E17.76623
G1 X187.167 Y25.951 E17.87655
G1 X187.795 Y26.349 E17.95568
G1 X188.669 Y26.942 E18.06809
G1 X189.481 Y27.511 E18.17362
G1 X190.288 Y28.092 E18.27946
G1 X191.003 Y28.657 E18.37645
G1 X191.565 Y29.166 E18.45715
G1 X192.346 Y29.925 E18.57306
G1 X193.59 Y31.182 E18.76129
G1 X194.25 Y31.91 E18.86587
G1 X194.769 Y32.572 E18.9554
G1 X195.28 Y33.276 E19.04799
G1 X196.466 Y34.986 E19.26948
G1 X196.952 Y35.757 E19.36648
G1 X197.351 Y36.509 E19.45709
G1 X197.839 Y37.517 E19.57628
G1 X198.604 Y39.185 E19.77159
G1 X198.989 Y40.142 E19.88138
G1 X199.204 Y40.813 E19.95637
G1 X199.451 Y41.676 E20.05191
G1 X199.778 Y42.894 E20.18614
G1 X200.002 Y43.786 E20.28402
G1 X200.195 Y44.733 E20.38689
G1 X200.285 Y45.4 E20.45852
G1 X200.397 Y46.493 E20.57546
G1 X200.555 Y48.449 E20.78432
G1 X200.581 Y49.361 E20.88143
G1 X200.553 Y50.09 E20.95907
G1 X200.469 Y51.251 E21.08296
G1 X200.304 Y53.011 E21.27111
G1 X200.154 Y54.071 E21.38505
G1 X200.004 Y54.759 E21.45999
G1 X199.75 Y55.761 E21.57001
G1 X199.258 Y57.566 E21.76913
G1 X198.928 Y58.586 E21.88323
G1 X198.642 Y59.284 E21.96352
G1 X198.231 Y60.198 E22.07018
G1 X197.339 Y62.077 E22.29156
G1 X196.649 Y63.292 E22.44027
G1 X195.34 Y65.294 E22.69485
G1 X194.065 Y67.367 E22.95388
G1 X192.796 Y69.567 E23.22419
G1 X191.616 Y71.751 E23.4884
G1 X190.499 Y73.964 E23.75223
G1 X189.444 Y76.218 E24.01711
G1 X188.451 Y78.499 E24.28189
G1 X187.526 Y80.801 E24.54594
G1 X186.66 Y83.147 E24.8121
G1 X185.862 Y85.511 E25.07765
G1 X185.137 Y87.882 E25.34154
G1 X184.481 Y90.265 E25.6046
G1 X183.88 Y92.716 E25.87319
G1 X183.353 Y95.159 E26.13919
G1 X182.906 Y97.557 E26.39881
G1 X182.519 Y100.028 E26.66501
G1 X182.202 Y102.502 E26.93048
G1 X181.953 Y104.994 E27.19703
G1 X181.777 Y107.481 E27.46239
G1 X181.673 Y109.933 E27.72359
G1 X181.636 Y112.457 E27.99226
G1 X181.671 Y114.933 E28.25581
G1 X181.776 Y117.408 E28.51947
G1 X181.949 Y119.872 E28.78236
G1 X182.195 Y122.352 E29.04761
G1 X182.511 Y124.829 E29.31338
G1 X182.895 Y127.277 E29.57711
G1 X183.359 Y129.782 E29.84826
G1 X183.866 Y132.144 E30.10538
G1 X184.473 Y134.619 E30.37661
G1 X185.115 Y136.954 E30.63435
G1 X185.858 Y139.386 E30.90501
G1 X186.638 Y141.699 E31.1648
G1 X187.506 Y144.053 E31.43184
G1 X188.447 Y146.399 E31.70086
G1 X189.434 Y148.673 E31.96471
G1 X190.472 Y150.885 E32.22477
G1 X191.624 Y153.174 E32.4975
G1 X192.777 Y155.314 E32.75623
G1 X194.025 Y157.476 E33.02192
G1 X194.642 Y158.479 E33.14725
G1 X195.204 Y159.418 E33.26372
G1 X195.651 Y160.244 E33.36368
G1 X196.11 Y161.189 E33.4755
G1 X196.584 Y162.204 E33.59473
G1 X196.941 Y162.998 E33.68738
G1 X197.325 Y163.967 E33.79832
G1 X197.532 Y164.621 E33.87133
G1 X197.791 Y165.526 E33.97152
G1 X198.289 Y167.42 E34.17995
G1 X198.49 Y168.347 E34.28091
G1 X198.61 Y169.19 E34.37154
G1 X198.717 Y170.247 E34.48461
G1 X198.867 Y172.07 E34.67929
G1 X198.904 Y173.14 E34.79324
G1 X198.876 Y173.874 E34.87142
G1 X198.794 Y175.002 E34.99179
G1 X198.627 Y176.787 E35.1826
G1 X198.477 Y177.846 E35.29644
G1 X198.321 Y178.561 E35.37433
G1 X198.055 Y179.612 E35.48972
G1 X197.567 Y181.394 E35.68636
G1 X197.288 Y182.263 E35.7835
G1 X196.962 Y183.069 E35.87604
G1 X196.616 Y183.843 E35.96627
G1 X195.733 Y185.714 E36.18647
G1 X195.308 Y186.521 E36.28355
G1 X194.844 Y187.265 E36.37687
G1 X194.354 Y187.987 E36.46974
G1 X193.576 Y189.099 E36.61418
G1 X193.099 Y189.758 E36.70077
G1 X192.458 Y190.563 E36.81029
G1 X192.03 Y191.027 E36.87748
G1 X191.277 Y191.804 E36.99264
G1 X190.015 Y193.053 E37.18161
G1 X189.24 Y193.753 E37.29277
G1 X188.615 Y194.24 E37.3771
G1 X187.691 Y194.906 E37.49832
G1 X186.23 Y195.915 E37.6873
G1 X185.323 Y196.481 E37.80109
G1 X184.691 Y196.813 E37.87707
G1 X183.707 Y197.29 E37.99346
G1 X182.772 Y197.726 E38.10326
G1 X181.945 Y198.098 E38.19977
G1 X180.956 Y198.488 E38.31292
G1 X180.355 Y198.677 E38.37998
G1 X179.285 Y198.979 E38.49831
G1 X177.533 Y199.436 E38.69102
G1 X176.486 Y199.658 E38.80493
G1 X175.772 Y199.754 E38.88161
G1 X174.755 Y199.857 E38.9904
G1 X172.897 Y200.01 E39.18882
G1 X171.827 Y200.047 E39.30277
G1 X171.082 Y200.018 E39.38213
G1 X169.984 Y199.938 E39.4993
G1 X168.191 Y199.771 E39.69096
G1 X167.13 Y199.621 E39.80501
G1 X166.457 Y199.475 E39.8783
G1 X165.367 Y199.199 E39.99797
G1 X163.583 Y198.71 E40.19485
G1 X162.715 Y198.431 E40.29189
G1 X161.921 Y198.11 E40.38304
G1 X160.975 Y197.687 E40.49333
G1 X159.833 Y197.153 E40.62751
G1 X159.191 Y196.842 E40.70344
G1 X157.972 Y196.161 E40.85205
G1 X156.742 Y195.377 E41.0073
G1 X154.576 Y194.047 E41.27782
G1 X152.395 Y192.792 E41.54564
G1 X150.239 Y191.631 E41.80626
G1 X148.052 Y190.532 E42.06676
G1 X145.724 Y189.444 E42.34026
G1 X143.454 Y188.461 E42.60354
G1 X141.15 Y187.537 E42.86775
G1 X138.79 Y186.669 E43.13538
G1 X136.473 Y185.89 E43.39555
G1 X134.073 Y185.159 E43.66257
G1 X131.677 Y184.501 E43.92703
G1 X129.254 Y183.911 E44.19245
G1 X126.845 Y183.394 E44.45468
G1 X124.384 Y182.939 E44.72105
G1 X121.913 Y182.555 E44.9872
G1 X119.434 Y182.24 E45.25317
G1 X116.992 Y182 E45.51433
G1 X114.458 Y181.822 E45.78469
G1 X112.026 Y181.722 E46.04376
G1 X109.527 Y181.689 E46.30975
G1 X106.99 Y181.728 E46.57981
G1 X104.558 Y181.834 E46.83889
G1 X102.056 Y182.013 E47.10587
G1 X99.582 Y182.262 E47.37051
G1 X97.126 Y182.578 E47.63407
G1 X94.634 Y182.971 E47.90257
G1 X92.24 Y183.42 E48.16182
G1 X89.82 Y183.942 E48.42531
G1 X87.307 Y184.562 E48.70079
G1 X84.97 Y185.209 E48.95888
G1 X82.6 Y185.935 E49.22269
G1 X80.205 Y186.746 E49.49182
G1 X77.914 Y187.594 E49.75182
G1 X75.534 Y188.553 E50.02492
G1 X73.311 Y189.523 E50.28306
G1 X71.073 Y190.574 E50.54622
G1 X68.84 Y191.703 E50.81253
G1 X66.63 Y192.898 E51.07993
G1 X64.492 Y194.135 E51.34283
G1 X61.742 Y195.84 E51.68721
G1 X60.71 Y196.411 E51.81274
G1 X59.872 Y196.821 E51.91203
G1 X58.764 Y197.338 E52.04216
G1 X57.893 Y197.728 E52.14373
G1 X56.938 Y198.104 E52.25297
G1 X56.336 Y198.294 E52.32016
G1 X55.272 Y198.595 E52.43785
G1 X53.556 Y199.044 E52.62663
G1 X52.474 Y199.274 E52.74437
G1 X51.748 Y199.372 E52.82234
G1 X50.93 Y199.456 E52.90986
G1 X49.641 Y199.57 E53.04758
G1 X48.725 Y199.637 E53.14534
G1 X47.813 Y199.664 E53.24245
G1 X47.063 Y199.635 E53.32233
G1 X46.05 Y199.561 E53.43043
G1 X44.902 Y199.461 E53.55308
G1 X44.1 Y199.38 E53.63887
G1 X43.014 Y199.217 E53.75575
G1 X42.406 Y199.083 E53.82202
G1 X41.551 Y198.869 E53.91582
G1 X39.598 Y198.337 E54.13126
G1 X38.578 Y198.006 E54.2454
G1 X37.924 Y197.738 E54.32062
G1 X36.897 Y197.276 E54.44048
G1 X35.265 Y196.503 E54.63267
G1 X34.323 Y196.001 E54.74628
G1 X33.708 Y195.613 E54.82368
G1 X32.755 Y194.967 E54.94621
G1 X31.334 Y193.959 E55.13164
G1 X30.464 Y193.277 E55.2493
G1 X29.927 Y192.789 E55.32652
G1 X29.298 Y192.178 E55.41986
G1 X27.854 Y190.72 E55.63826
G1 X27.16 Y189.949 E55.74867
G1 X26.716 Y189.373 E55.82607
G1 X26.095 Y188.515 E55.9388
G1 X25.368 Y187.474 E56.07394
G1 X24.976 Y186.894 E56.14845
G1 X24.422 Y185.988 E56.26147
G1 X24.145 Y185.455 E56.32541
G1 X23.65 Y184.434 E56.44617
G1 X22.888 Y182.772 E56.64077
G1 X22.523 Y181.869 E56.74443
G1 X22.283 Y181.124 E56.82774
G1 X21.969 Y180.014 E56.95051
G1 X21.521 Y178.297 E57.13937
G1 X21.299 Y177.249 E57.25339
G1 X21.202 Y176.524 E57.33124
G1 X21.097 Y175.483 E57.4426
G1 X20.936 Y173.511 E57.65318
G1 X20.909 Y172.599 E57.75029
G1 X20.938 Y171.852 E57.82986
G1 X21.019 Y170.734 E57.94916
G1 X21.183 Y168.98 E58.13666
G1 X21.338 Y167.885 E58.25436
G1 X21.494 Y167.169 E58.33236
G1 X21.71 Y166.312 E58.42642
G1 X22.234 Y164.388 E58.63866
G1 X22.564 Y163.37 E58.75255
G1 X22.847 Y162.678 E58.83213
G1 X23.32 Y161.628 E58.9547
G1 X24.082 Y160.018 E59.14428
G1 X24.679 Y158.916 E59.27767
G1 X26.038 Y156.695 E59.5548
G1 X27.303 Y154.493 E59.82508
G1 X28.484 Y152.294 E60.09074
G1 X29.559 Y150.148 E60.3462
G1 X30.647 Y147.817 E60.61999
G1 X31.612 Y145.583 E60.879
G1 X32.546 Y143.244 E61.14706
G1 X33.404 Y140.905 E61.41222
G1 X34.193 Y138.553 E61.67626
G1 X34.913 Y136.179 E61.9403
G1 X35.58 Y133.736 E62.20983
G1 X36.168 Y131.317 E62.47478
G1 X36.671 Y128.95 E62.73234
G1 X37.131 Y126.449 E63.00299
G1 X37.512 Y123.976 E63.2693
G1 X37.822 Y121.516 E63.5332
G1 X38.059 Y119.078 E63.7939
G1 X38.233 Y116.527 E64.06604
G1 X38.331 Y114.122 E64.32222
G1 X38.361 Y111.606 E64.59003
G1 X38.319 Y109.095 E64.85732
G1 X38.211 Y106.655 E65.11726
G1 X38.026 Y104.122 E65.38758
G1 X37.774 Y101.647 E65.65236
G1 X37.458 Y99.215 E65.91338
G1 X37.062 Y96.722 E66.18204
G1 X36.607 Y94.308 E66.44349
G1 X36.079 Y91.868 E66.7092
G1 X35.481 Y89.46 E66.97327
G1 X34.821 Y87.082 E67.23594
G1 X34.071 Y84.645 E67.50732
G1 X33.288 Y82.341 E67.76631
G1 X32.419 Y80.001 E68.03198
G1 X31.48 Y77.677 E68.29876
G1 X30.478 Y75.387 E68.5648
G1 X29.415 Y73.132 E68.83013
G1 X28.293 Y70.915 E69.09459
G1 X27.111 Y68.735 E69.35853
G1 X25.867 Y66.589 E69.62253
G1 X24.558 Y64.473 E69.88735
G1 X23.894 Y63.462 E70.01609
G1 X23.468 Y62.794 E70.10041
G1 X22.802 Y61.605 E70.24546
G1 X22.422 Y60.827 E70.33761
G1 X21.571 Y58.98 E70.55406
G1 X21.157 Y57.954 E70.67181
G1 X20.933 Y57.252 E70.75024
G1 X20.631 Y56.183 E70.86847
G1 X20.186 Y54.483 E71.0555
G1 X19.956 Y53.402 E71.17313
G1 X19.859 Y52.683 E71.25035
G1 X19.754 Y51.645 E71.36139
G1 X19.603 Y49.809 E71.55746
G1 X19.566 Y48.741 E71.67119
G1 X19.593 Y48.015 E71.74852
G1 X19.669 Y46.96 E71.86109
G1 X19.786 Y45.641 E72.00203
G1 X19.851 Y45.012 E72.06933
G1 X20.015 Y43.929 E72.18591
G1 X20.151 Y43.317 E72.25264
G1 X20.414 Y42.277 E72.36681
G1 X20.889 Y40.537 E72.55878
G1 X21.219 Y39.52 E72.67258
G1 X21.502 Y38.828 E72.75215
G1 X21.971 Y37.787 E72.87367
G1 X22.743 Y36.157 E73.06563
G1 X23.199 Y35.298 E73.16914
G1 X23.622 Y34.626 E73.25365
G1 X24.262 Y33.683 E73.37495
G1 X25.304 Y32.214 E73.56664
G1 X25.863 Y31.494 E73.66366
G1 X26.437 Y30.856 E73.755
G1 X27.053 Y30.222 E73.84908
G1 X28.507 Y28.782 E74.06688
G0 F6000 X29.043 Y29.376
G1 F900 X29.767 Y28.722 E74.17072
G1 X30.325 Y28.291 E74.24577
G1 X31.161 Y27.686 E74.3556
G1 X32.072 Y27.048 E74.47397
G1 X32.78 Y26.568 E74.56501
G1 X33.607 Y26.06 E74.66831
G1 X34.126 Y25.791 E74.73053
G1 X35.054 Y25.339 E74.84039
G1 X36.029 Y24.884 E74.95491
G1 X36.819 Y24.529 E75.04709
G1 X37.754 Y24.159 E75.15411
G1 X38.334 Y23.977 E75.21881
G1 X39.223 Y23.723 E75.31721
G1 X41.083 Y23.233 E75.52193
G1 X42.07 Y23.021 E75.62938
G1 X42.767 Y22.926 E75.70424
G1 X43.59 Y22.841 E75.7923
G1 X45.629 Y22.671 E76.01007
G1 X46.603 Y22.635 E76.11381
G1 X47.309 Y22.662 E76.18901
G1 X48.444 Y22.744 E76.31012
G1 X50.175 Y22.906 E76.49516
G1 X51.173 Y23.046 E76.60242
G1 X51.858 Y23.195 E76.67703
G1 X52.92 Y23.464 E76.79363
G1 X54.644 Y23.936 E76.98387
G1 X55.571 Y24.235 E77.08754
G1 X56.217 Y24.499 E77.16182
G1 X56.997 Y24.849 E77.25281
G1 X58.301 Y25.456 E77.4059
G1 X58.972 Y25.783 E77.48534
G1 X60.078 Y26.404 E77.62034
G1 X61 Y26.994 E77.73685
G1 X63.184 Y28.346 E78.01023
G1 X65.369 Y29.614 E78.27911
G1 X67.557 Y30.805 E78.54425
G1 X69.792 Y31.939 E78.81099
G1 X72.083 Y33.022 E79.0807
G1 X74.357 Y34.017 E79.34488
G1 X76.712 Y34.972 E79.61535
G1 X79.081 Y35.854 E79.8844
G1 X81.426 Y36.654 E80.14811
G1 X83.799 Y37.386 E80.41242
G1 X86.283 Y38.078 E80.68686
G1 X88.693 Y38.676 E80.95114
G1 X91.17 Y39.217 E81.22099
G1 X93.606 Y39.677 E81.48484
G1 X96.102 Y40.077 E81.75389
G1 X98.567 Y40.399 E82.01847
G1 X101.082 Y40.657 E82.28755
G1 X103.614 Y40.843 E82.55777
G1 X106.057 Y40.954 E82.81805
G1 X109.008 Y41 E83.13217
G1 X111.924 Y40.999 E83.44253
G1 X114.558 Y40.961 E83.7229
G1 X116.998 Y40.856 E83.98283
G1 X119.552 Y40.674 E84.25535
G1 X122.052 Y40.425 E84.52275
G1 X124.52 Y40.11 E84.78756
G1 X127.034 Y39.715 E85.05841
G1 X129.464 Y39.262 E85.3215
G1 X131.901 Y38.738 E85.5868
G1 X134.412 Y38.12 E85.86203
G1 X136.757 Y37.474 E86.12091
G1 X139.225 Y36.717 E86.39566
G1 X141.573 Y35.924 E86.65943
G1 X143.941 Y35.05 E86.92808
G1 X146.265 Y34.115 E87.1947
G1 X148.569 Y33.114 E87.46206
G1 X150.849 Y32.043 E87.73017
G1 X153.086 Y30.915 E87.99682
G1 X155.269 Y29.737 E88.26083
G1 X157.468 Y28.467 E88.5311
G1 X160.207 Y26.771 E88.87398
G1 X161.133 Y26.261 E88.9865
G1 X162.169 Y25.759 E89.10902
G1 X163.796 Y25.012 E89.29957
G1 X164.699 Y24.647 E89.40323
G1 X165.379 Y24.43 E89.4792
G1 X166.463 Y24.124 E89.59908
G1 X168.178 Y23.676 E89.78774
