;FLAVOR:Marlin
;TIME:7330
;Filament used: 13.8929m
;Layer height: 0.32
;MINX:53.813
;MINY:53.813
;MINZ:0.32
;MAXX:166.187
;MAXY:159.187
;MAXZ:37.32
;TARGET_MACHINE.NAME:Creality Ender-3 Pro
;Generated with Cura_SteamEngine 5.5.0
M82 ;absolute extrusion mode
; Ender 3 Custom Start G-code
G92 E0 ; Reset Extruder
G28 ; Home all axes
G1 Z5.0 F3000 ; Move Z Axis up a bit during heating to not damage bed
M104 S120 ; Start heating up the nozzle most of the way
M190 S80 ; Start heating the bed, wait until target temperature reached
M109 S220 ; Finish heating the nozzle
G1 Z2.0 F3000 ; Move Z Axis up little to prevent scratching of Heat Bed
G1 X0.1 Y20 Z0.3 F5000.0 ; Move to start position
G1 X0.1 Y200.0 Z0.3 F1500.0 E15 ; Draw the first line
G1 X0.4 Y200.0 Z0.3 F5000.0 ; Move to side a little
G1 X0.4 Y20 Z0.3 F1500.0 E30 ; Draw the second line
G92 E0 ; Reset Extruder
G1 Z2.0 F3000 ; Move Z Axis up little to prevent scratching of Heat Bed
G1 X5 Y20 Z0.3 F5000.0 ; Move over to prevent blob squish
G92 E0
G92 E0
G1 F1500 E-6.5
;LAYER_COUNT:116
;LAYER:0
M107
G1 F300 Z0.52
G0 F6000 X62.7 Y67.809 Z0.52
;TYPE:SKIRT
G1 F300 Z0.32
G1 F1500 E0
G1 F900 X63.475 Y67.108 E0.11122
G1 X64.099 Y66.622 E0.1954
G1 X65.043 Y65.942 E0.31923
G1 X66.525 Y64.92 E0.51083
G1 X67.402 Y64.374 E0.62078
G1 X68.034 Y64.042 E0.69676
G1 X68.988 Y63.58 E0.80958
G1 X69.947 Y63.132 E0.92224
G1 X70.738 Y62.776 E1.01456
G1 X71.707 Y62.392 E1.1255
G1 X72.361 Y62.185 E1.19851
G1 X73.266 Y61.926 E1.29869
G1 X75.126 Y61.436 E1.50341
G1 X76.209 Y61.205 E1.62127
G1 X76.932 Y61.107 E1.69893
G1 X77.771 Y61.021 E1.78869
G1 X79.846 Y60.849 E2.0103
G1 X80.879 Y60.813 E2.12031
G1 X81.617 Y60.841 E2.19891
G1 X82.694 Y60.919 E2.31384
G1 X83.514 Y60.991 E2.40145
G1 X86.084 Y61.18 E2.67572
G1 X88.549 Y61.29 E2.93834
G1 X91.092 Y61.334 E3.20903
G1 X93.553 Y61.305 E3.47098
G1 X96.013 Y61.208 E3.73301
G1 X98.53 Y61.035 E4.00153
G1 X100.983 Y60.798 E4.26383
G1 X103.468 Y60.486 E4.53039
G1 X105.91 Y60.111 E4.79334
G1 X108.355 Y59.662 E5.05792
G1 X110.837 Y59.136 E5.32795
G1 X113.195 Y58.564 E5.5862
G1 X115.614 Y57.905 E5.85304
G1 X118.011 Y57.178 E6.11964
G1 X120.403 Y56.379 E6.38805
G1 X122.955 Y55.444 E6.67732
G1 X123.679 Y55.208 E6.75837
G1 X124.665 Y54.926 E6.86752
G1 X126.526 Y54.436 E7.07234
G1 X127.609 Y54.205 E7.1902
G1 X128.332 Y54.107 E7.26786
G1 X129.171 Y54.021 E7.35762
G1 X131.246 Y53.849 E7.57922
G1 X132.281 Y53.813 E7.68945
G1 X133.014 Y53.841 E7.76752
G1 X134.166 Y53.924 E7.89045
G1 X135.897 Y54.086 E8.07549
G1 X136.99 Y54.241 E8.19298
G1 X137.701 Y54.396 E8.27043
G1 X138.778 Y54.669 E8.38869
G1 X140.502 Y55.141 E8.57893
G1 X141.521 Y55.471 E8.69293
G1 X142.192 Y55.746 E8.77011
G1 X142.982 Y56.101 E8.86229
G1 X144.286 Y56.708 E9.01538
G1 X144.928 Y57.019 E9.0913
G1 X145.862 Y57.526 E9.20441
G1 X146.377 Y57.854 E9.2694
G1 X147.302 Y58.483 E9.38845
G1 X148.781 Y59.531 E9.58138
G1 X149.579 Y60.152 E9.689
G1 X150.172 Y60.689 E9.77415
G1 X150.926 Y61.422 E9.88607
G1 X152.191 Y62.7 E10.07745
G1 X152.892 Y63.475 E10.18868
G1 X153.378 Y64.099 E10.27286
G1 X154.058 Y65.043 E10.39668
G1 X155.08 Y66.525 E10.58828
G1 X155.626 Y67.402 E10.69824
G1 X155.958 Y68.034 E10.77422
G1 X156.42 Y68.988 E10.88704
G1 X156.868 Y69.947 E10.99969
G1 X157.224 Y70.738 E11.09201
G1 X157.608 Y71.707 E11.20295
G1 X157.815 Y72.361 E11.27596
G1 X158.074 Y73.266 E11.37615
G1 X158.564 Y75.126 E11.58087
G1 X158.795 Y76.209 E11.69873
G1 X158.893 Y76.932 E11.77638
G1 X158.979 Y77.77 E11.86604
G1 X159.149 Y79.806 E12.08349
G1 X159.187 Y80.876 E12.19744
G1 X159.159 Y81.612 E12.27584
G1 X159.081 Y82.694 E12.39129
G1 X159.007 Y83.536 E12.48126
G1 X158.82 Y86.084 E12.75317
G1 X158.71 Y88.549 E13.01579
G1 X158.666 Y91.11 E13.28841
G1 X158.695 Y93.554 E13.54854
G1 X158.792 Y96.008 E13.80993
G1 X158.961 Y98.496 E14.07535
G1 X159.202 Y100.983 E14.34129
G1 X159.51 Y103.442 E14.60505
G1 X159.884 Y105.884 E14.86799
G1 X160.337 Y108.351 E15.13495
G1 X160.864 Y110.837 E15.40542
G1 X161.436 Y113.195 E15.66366
G1 X162.095 Y115.614 E15.9305
G1 X162.822 Y118.011 E16.1971
G1 X163.619 Y120.399 E16.46504
G1 X164.556 Y122.956 E16.75489
G1 X164.809 Y123.736 E16.84216
G1 X165.132 Y124.879 E16.96858
G1 X165.573 Y126.564 E17.15396
G1 X165.795 Y127.61 E17.26777
G1 X165.893 Y128.332 E17.34531
G1 X165.979 Y129.17 E17.43497
G1 X166.149 Y131.206 E17.65242
G1 X166.187 Y132.278 E17.76659
G1 X166.159 Y133.009 E17.84445
G1 X166.076 Y134.166 E17.96791
G1 X165.914 Y135.897 E18.15295
G1 X165.759 Y136.989 E18.27034
G1 X165.605 Y137.694 E18.34714
G1 X165.386 Y138.568 E18.44304
G1 X164.848 Y140.539 E18.66049
G1 X164.569 Y141.408 E18.75763
G1 X164.245 Y142.211 E18.84979
G1 X163.838 Y143.115 E18.95531
G1 X163.292 Y144.286 E19.09282
G1 X162.981 Y144.928 E19.16875
G1 X162.474 Y145.862 E19.28186
G1 X162.146 Y146.377 E19.34684
G1 X161.517 Y147.302 E19.4659
G1 X160.469 Y148.781 E19.65882
G1 X159.848 Y149.579 E19.76644
G1 X159.311 Y150.172 E19.85159
G1 X158.578 Y150.926 E19.96351
G1 X157.3 Y152.191 E20.1549
G1 X156.525 Y152.892 E20.26612
G1 X155.901 Y153.378 E20.3503
G1 X154.957 Y154.058 E20.47413
G1 X153.475 Y155.08 E20.66573
G1 X152.598 Y155.626 E20.77568
G1 X151.966 Y155.958 E20.85166
G1 X151.011 Y156.421 E20.96462
G1 X150.054 Y156.867 E21.077
G1 X149.192 Y157.252 E21.17748
G1 X148.289 Y157.609 E21.28082
G1 X147.641 Y157.814 E21.35316
G1 X146.737 Y158.073 E21.45325
G1 X144.874 Y158.564 E21.6583
G1 X143.791 Y158.795 E21.77616
G1 X143.068 Y158.893 E21.85381
G1 X142.229 Y158.979 E21.94358
G1 X140.154 Y159.151 E22.16518
G1 X139.119 Y159.187 E22.27541
G1 X138.386 Y159.159 E22.35348
G1 X137.234 Y159.076 E22.47641
G1 X135.503 Y158.914 E22.66145
G1 X134.41 Y158.759 E22.77894
G1 X133.687 Y158.601 E22.85771
G1 X130.348 Y157.759 E23.22421
G1 X127.895 Y157.213 E23.49168
G1 X125.49 Y156.749 E23.75237
G1 X123.06 Y156.349 E24.01448
G1 X120.54 Y156.008 E24.28514
G1 X118.111 Y155.749 E24.54513
G1 X115.603 Y155.553 E24.81287
G1 X113.153 Y155.431 E25.07395
G1 X110.621 Y155.377 E25.3435
G1 X108.147 Y155.394 E25.60682
G1 X105.651 Y155.48 E25.87264
G1 X103.193 Y155.638 E26.13479
G1 X100.688 Y155.868 E26.40252
G1 X98.233 Y156.165 E26.66572
G1 X95.78 Y156.532 E26.9297
G1 X93.309 Y156.972 E27.19683
G1 X90.866 Y157.479 E27.46239
G1 X88.404 Y158.065 E27.73175
G1 X86.392 Y158.584 E27.9529
G1 X85.407 Y158.792 E28.06005
G1 X84.668 Y158.893 E28.13943
G1 X83.829 Y158.979 E28.22919
G1 X81.754 Y159.151 E28.4508
G1 X80.719 Y159.187 E28.56102
G1 X79.986 Y159.159 E28.6391
G1 X78.834 Y159.076 E28.76202
G1 X77.103 Y158.914 E28.94706
G1 X76.012 Y158.759 E29.06435
G1 X75.302 Y158.605 E29.14167
G1 X74.215 Y158.33 E29.26101
G1 X72.495 Y157.859 E29.45081
G1 X71.534 Y157.548 E29.55832
G1 X70.785 Y157.243 E29.64439
G1 X70.018 Y156.899 E29.73386
G1 X68.714 Y156.292 E29.88695
G1 X68.072 Y155.981 E29.96287
G1 X67.138 Y155.474 E30.07598
G1 X66.623 Y155.146 E30.14097
G1 X65.698 Y154.517 E30.26002
G1 X64.219 Y153.469 E30.45295
G1 X63.421 Y152.848 E30.56057
G1 X62.828 Y152.311 E30.64571
G1 X62.074 Y151.578 E30.75764
G1 X60.809 Y150.3 E30.94902
G1 X60.108 Y149.525 E31.06024
G1 X59.622 Y148.901 E31.14442
G1 X58.942 Y147.957 E31.26825
G1 X57.92 Y146.475 E31.45985
G1 X57.374 Y145.598 E31.5698
G1 X57.041 Y144.964 E31.64602
G1 X56.57 Y143.992 E31.76098
G1 X56.131 Y143.052 E31.8714
G1 X55.776 Y142.262 E31.96358
G1 X55.392 Y141.293 E32.07452
G1 X55.185 Y140.639 E32.14753
G1 X54.926 Y139.734 E32.24772
G1 X54.436 Y137.874 E32.45244
G1 X54.205 Y136.791 E32.57029
G1 X54.107 Y136.068 E32.64795
G1 X54.021 Y135.23 E32.73761
G1 X53.851 Y133.194 E32.95506
G1 X53.813 Y132.122 E33.06923
G1 X53.841 Y131.391 E33.14708
G1 X53.924 Y130.234 E33.27054
G1 X54.087 Y128.492 E33.45676
G1 X54.244 Y127.389 E33.57534
G1 X54.433 Y126.387 E33.68386
G1 X54.866 Y123.899 E33.95265
G1 X55.228 Y121.405 E34.22087
G1 X55.519 Y118.902 E34.48907
G1 X55.729 Y116.508 E34.74484
G1 X55.882 Y113.942 E35.01843
G1 X55.959 Y111.46 E35.28273
G1 X55.967 Y109.036 E35.54072
G1 X55.901 Y106.478 E35.81306
G1 X55.768 Y104.004 E36.07676
G1 X55.564 Y101.525 E36.3415
G1 X55.288 Y99.037 E36.60793
G1 X54.958 Y96.673 E36.86197
G1 X54.346 Y93.147 E37.24286
G1 X54.257 Y92.683 E37.29315
G1 X54.108 Y91.674 E37.4017
G1 X54.001 Y90.611 E37.51541
G1 X53.849 Y88.757 E37.7134
G1 X53.813 Y87.722 E37.82362
G1 X53.841 Y86.991 E37.90148
G1 X53.924 Y85.834 E38.02494
G1 X54.086 Y84.103 E38.20998
G1 X54.241 Y83.011 E38.32737
G1 X54.395 Y82.306 E38.40417
G1 X54.614 Y81.432 E38.50007
G1 X55.152 Y79.461 E38.71753
G1 X55.431 Y78.592 E38.81466
G1 X55.755 Y77.789 E38.90682
G1 X56.162 Y76.885 E39.01234
G1 X56.708 Y75.714 E39.14986
G1 X57.019 Y75.072 E39.22578
G1 X57.526 Y74.138 E39.33889
G1 X57.854 Y73.623 E39.40388
G1 X58.483 Y72.698 E39.52293
G1 X59.531 Y71.219 E39.71586
G1 X60.152 Y70.421 E39.82348
G1 X60.689 Y69.828 E39.90862
G1 X61.422 Y69.074 E40.02055
G1 X62.7 Y67.809 E40.21193
G0 F6000 X63.263 Y68.378
G1 F900 X64.011 Y67.702 E40.31924
G1 X64.567 Y67.271 E40.39411
G1 X65.497 Y66.6 E40.51617
G1 X66.949 Y65.598 E40.70393
G1 X67.774 Y65.082 E40.8075
G1 X68.383 Y64.762 E40.88072
G1 X69.326 Y64.305 E40.99225
G1 X70.275 Y63.862 E41.10372
G1 X71.066 Y63.506 E41.19604
G1 X72.001 Y63.136 E41.30306
G1 X72.581 Y62.954 E41.36776
G1 X73.47 Y62.7 E41.46617
G1 X75.33 Y62.21 E41.67089
G1 X76.317 Y61.998 E41.77833
G1 X77.014 Y61.903 E41.8532
G1 X77.837 Y61.818 E41.94126
G1 X79.876 Y61.648 E42.15903
G1 X80.849 Y61.612 E42.26266
G1 X81.559 Y61.639 E42.33828
G1 X82.624 Y61.716 E42.45193
G1 X83.455 Y61.789 E42.54071
G1 X86.025 Y61.978 E42.81498
G1 X88.535 Y62.09 E43.08239
G1 X91.087 Y62.134 E43.35405
G1 X93.562 Y62.105 E43.61749
G1 X96.065 Y62.006 E43.8841
G1 X98.59 Y61.833 E44.15347
G1 X101.083 Y61.592 E44.42004
G1 X103.576 Y61.279 E44.68746
G1 X106.038 Y60.901 E44.95257
G1 X108.522 Y60.445 E45.22136
G1 X111.003 Y59.919 E45.49129
G1 X113.405 Y59.336 E45.75437
G1 X115.846 Y58.671 E46.02364
G1 X118.243 Y57.944 E46.29023
G1 X120.656 Y57.138 E46.561
G1 X123.203 Y56.205 E46.8497
G1 X123.927 Y55.969 E46.93075
G1 X124.869 Y55.7 E47.03501
G1 X126.73 Y55.21 E47.23983
G1 X127.717 Y54.998 E47.34728
G1 X128.414 Y54.903 E47.42215
G1 X129.237 Y54.818 E47.51021
G1 X131.276 Y54.648 E47.72798
G1 X132.25 Y54.612 E47.83171
G1 X132.956 Y54.639 E47.90691
G1 X134.091 Y54.721 E48.02802
G1 X135.822 Y54.883 E48.21306
G1 X136.82 Y55.023 E48.32032
G1 X137.505 Y55.172 E48.39493
G1 X138.567 Y55.441 E48.51154
G1 X140.291 Y55.913 E48.70178
G1 X141.218 Y56.212 E48.80545
G1 X141.864 Y56.476 E48.87972
G1 X142.644 Y56.826 E48.97071
G1 X143.937 Y57.428 E49.12251
G1 X144.579 Y57.739 E49.19844
G1 X145.432 Y58.201 E49.30169
G1 X145.947 Y58.529 E49.36667
G1 X146.839 Y59.136 E49.48151
G1 X148.318 Y60.184 E49.67443
G1 X149.087 Y60.783 E49.77818
G1 X149.614 Y61.263 E49.85405
G1 X150.357 Y61.985 E49.96431
G1 X151.622 Y63.263 E50.1557
G1 X152.298 Y64.011 E50.26301
G1 X152.729 Y64.567 E50.33788
G1 X153.4 Y65.497 E50.45994
G1 X154.402 Y66.949 E50.6477
G1 X154.918 Y67.774 E50.75127
G1 X155.238 Y68.383 E50.82449
G1 X155.695 Y69.326 E50.93602
G1 X156.138 Y70.275 E51.04749
G1 X156.494 Y71.066 E51.13981
G1 X156.864 Y72.001 E51.24683
G1 X157.046 Y72.581 E51.31153
G1 X157.3 Y73.47 E51.40994
G1 X157.79 Y75.33 E51.61465
G1 X158.002 Y76.317 E51.7221
G1 X158.097 Y77.014 E51.79697
G1 X158.182 Y77.837 E51.88503
G1 X158.352 Y79.873 E52.10248
G1 X158.388 Y80.846 E52.20611
G1 X158.361 Y81.555 E52.28162
G1 X158.284 Y82.624 E52.39569
G1 X158.21 Y83.466 E52.48566
G1 X158.022 Y86.025 E52.75875
G1 X157.91 Y88.535 E53.02616
G1 X157.866 Y91.096 E53.29878
G1 X157.895 Y93.563 E53.56136
G1 X157.994 Y96.062 E53.82755
G1 X158.165 Y98.573 E54.09542
G1 X158.408 Y101.083 E54.36381
G1 X158.719 Y103.563 E54.62983
G1 X159.097 Y106.028 E54.89525
G1 X159.554 Y108.517 E55.16459
G1 X160.081 Y111.003 E55.43506
G1 X160.664 Y113.405 E55.69814
G1 X161.329 Y115.846 E55.96741
G1 X162.056 Y118.243 E56.234
G1 X162.861 Y120.654 E56.50453
G1 X163.795 Y123.203 E56.79347
G1 X164.039 Y123.954 E56.87751
G1 X164.358 Y125.082 E57.00228
G1 X164.799 Y126.767 E57.18766
G1 X165.002 Y127.718 E57.29115
G1 X165.097 Y128.414 E57.36592
G1 X165.182 Y129.237 E57.45398
G1 X165.352 Y131.273 E57.67143
G1 X165.388 Y132.247 E57.77516
G1 X165.361 Y132.952 E57.85025
G1 X165.279 Y134.091 E57.97179
G1 X165.117 Y135.822 E58.15683
G1 X164.977 Y136.819 E58.26399
G1 X164.829 Y137.5 E58.33816
G1 X164.614 Y138.358 E58.4323
G1 X164.086 Y140.294 E58.64588
G1 X163.807 Y141.163 E58.74302
G1 X163.515 Y141.883 E58.82572
G1 X163.113 Y142.777 E58.93004
G1 X162.572 Y143.937 E59.06627
G1 X162.261 Y144.579 E59.1422
G1 X161.799 Y145.432 E59.24544
G1 X161.471 Y145.947 E59.31043
G1 X160.864 Y146.839 E59.42526
G1 X159.816 Y148.318 E59.61819
G1 X159.217 Y149.087 E59.72194
G1 X158.737 Y149.614 E59.79781
G1 X158.015 Y150.357 E59.90807
G1 X156.737 Y151.622 E60.09946
G1 X155.989 Y152.298 E60.20676
G1 X155.433 Y152.729 E60.28164
G1 X154.503 Y153.4 E60.40369
G1 X153.051 Y154.402 E60.59146
G1 X152.226 Y154.918 E60.69503
G1 X151.617 Y155.238 E60.76825
G1 X150.673 Y155.696 E60.87992
G1 X149.727 Y156.137 E60.99101
G1 X148.898 Y156.508 E61.08767
G1 X147.995 Y156.865 E61.19102
G1 X147.421 Y157.045 E61.25505
G1 X146.533 Y157.299 E61.35335
G1 X144.67 Y157.79 E61.5584
G1 X143.683 Y158.002 E61.66585
G1 X142.986 Y158.097 E61.74072
G1 X142.163 Y158.182 E61.82878
G1 X140.124 Y158.352 E62.04654
G1 X139.15 Y158.388 E62.15028
G1 X138.444 Y158.361 E62.22548
G1 X137.309 Y158.279 E62.34659
G1 X135.578 Y158.117 E62.53163
G1 X134.58 Y157.977 E62.63889
G1 X133.883 Y157.825 E62.71482
G1 X130.544 Y156.983 E63.08132
G1 X128.069 Y156.432 E63.35119
G1 X125.629 Y155.961 E63.61568
G1 X123.167 Y155.556 E63.88124
G1 X120.647 Y155.215 E64.15189
G1 X118.173 Y154.951 E64.4167
G1 X115.665 Y154.755 E64.68445
G1 X113.175 Y154.631 E64.94979
G1 X110.633 Y154.577 E65.22041
G1 X108.119 Y154.594 E65.48798
G1 X105.623 Y154.681 E65.7538
G1 X103.12 Y154.841 E66.02074
G1 X100.615 Y155.071 E66.28848
G1 X98.127 Y155.372 E66.55521
G1 X95.639 Y155.744 E66.82296
G1 X93.168 Y156.185 E67.09011
G1 X90.689 Y156.699 E67.35957
G1 X88.204 Y157.29 E67.63143
G1 X86.227 Y157.801 E67.84876
G1 X85.242 Y158.009 E67.95591
G1 X84.586 Y158.097 E68.02635
G1 X83.763 Y158.182 E68.11441
G1 X81.724 Y158.352 E68.33218
G1 X80.75 Y158.388 E68.43592
G1 X80.044 Y158.361 E68.51112
G1 X78.909 Y158.279 E68.63223
G1 X77.178 Y158.117 E68.81727
G1 X76.181 Y157.977 E68.92442
G1 X75.498 Y157.829 E68.9988
G1 X74.426 Y157.558 E69.11649
G1 X72.706 Y157.087 E69.30629
G1 X71.781 Y156.787 E69.40979
G1 X71.112 Y156.513 E69.48674
G1 X70.356 Y156.174 E69.57492
G1 X69.063 Y155.572 E69.72672
G1 X68.421 Y155.261 E69.80264
G1 X67.568 Y154.799 E69.90589
G1 X67.053 Y154.471 E69.97088
G1 X66.161 Y153.864 E70.08571
G1 X64.682 Y152.816 E70.27864
G1 X63.913 Y152.217 E70.38238
G1 X63.386 Y151.737 E70.45825
G1 X62.643 Y151.015 E70.56852
G1 X61.378 Y149.737 E70.7599
G1 X60.702 Y148.989 E70.86721
G1 X60.271 Y148.433 E70.94208
G1 X59.6 Y147.503 E71.06414
G1 X58.598 Y146.051 E71.25191
G1 X58.082 Y145.226 E71.35547
G1 X57.761 Y144.615 E71.42893
G1 X57.295 Y143.654 E71.5426
G1 X56.861 Y142.724 E71.65183
G1 X56.506 Y141.934 E71.74402
G1 X56.136 Y140.999 E71.85104
G1 X55.954 Y140.419 E71.91574
G1 X55.7 Y139.53 E72.01414
G1 X55.21 Y137.67 E72.21886
G1 X54.998 Y136.683 E72.3263
G1 X54.903 Y135.986 E72.40117
G1 X54.818 Y135.163 E72.48923
G1 X54.648 Y133.127 E72.70668
G1 X54.612 Y132.153 E72.81042
G1 X54.639 Y131.448 E72.88551
G1 X54.721 Y130.309 E73.00705
G1 X54.884 Y128.567 E73.19327
G1 X55.03 Y127.537 E73.30399
G1 X55.219 Y126.535 E73.41251
G1 X55.658 Y124.014 E73.68487
G1 X56.02 Y121.52 E73.95309
G1 X56.314 Y118.995 E74.22365
G1 X56.528 Y116.556 E74.48423
G1 X56.681 Y113.99 E74.75782
G1 X56.759 Y111.485 E75.02457
G1 X56.767 Y109.015 E75.28746
G1 X56.701 Y106.457 E75.5598
G1 X56.567 Y103.961 E75.82584
G1 X56.361 Y101.459 E76.09303
G1 X56.083 Y98.949 E76.36181
G1 X55.746 Y96.536 E76.62113
G1 X55.132 Y92.996 E77.00352
G1 X55.043 Y92.532 E77.05381
G1 X54.904 Y91.593 E77.15484
G1 X54.798 Y90.545 E77.26695
G1 X54.648 Y88.727 E77.4611
G1 X54.612 Y87.753 E77.56484
G1 X54.639 Y87.048 E77.63993
G1 X54.721 Y85.909 E77.76147
