;FLAVOR:Marlin
;TIME:5855
;Filament used: 11.2795m
;Layer height: 0.32
;MINX:97.15
;MINY:57.84
;MINZ:0.32
;MAXX:122.85
;MAXY:162.21
;MAXZ:41.16
;TARGET_MACHINE.NAME:Creality Ender-3 Pro
;Generated with Cura_SteamEngine 5.5.0
M82 ;absolute extrusion mode
; Ender 3 Custom Start G-code
G92 E0 ; Reset Extruder
G28 ; Home all axes
G1 Z5.0 F3000 ; Move Z Axis up a bit during heating to not damage bed
M104 S120 ; Start heating up the nozzle most of the way
M190 S70 ; Start heating the bed, wait until target temperature reached
M109 S235.0 ; Finish heating the nozzle
G1 Z2.0 F3000 ; Move Z Axis up little to prevent scratching of Heat Bed
G1 X0.1 Y20 Z0.3 F5000.0 ; Move to start position
G1 X0.1 Y200.0 Z0.3 F1500.0 E15 ; Draw the first line
G1 X0.4 Y200.0 Z0.3 F5000.0 ; Move to side a little
G1 X0.4 Y20 Z0.3 F1500.0 E30 ; Draw the second line
G92 E0 ; Reset Extruder
G1 Z2.0 F3000 ; Move Z Axis up little to prevent scratching of Heat Bed
G1 X5 Y20 Z0.3 F5000.0 ; Move over to prevent blob squish
G92 E0
G92 E0
G1 F1500 E-6.5
;LAYER_COUNT:128
;LAYER:0
M107
G1 F300 Z0.52
G0 F6000 X101.793 Y59.584 Z0.52
;TYPE:SKIRT
G1 F300 Z0.32
G1 F1500 E0
G1 F900 X102.209 Y58.991 E0.0771
G1 X102.655 Y58.605 E0.13987
G1 X103.024 Y58.346 E0.18786
G1 X103.601 Y58.029 E0.25793
G1 X104.442 Y57.856 E0.34931
G1 X104.981 Y57.841 E0.4067
G1 X114.675 Y57.84 E1.43845
G1 X115.567 Y57.864 E1.53343
G1 X116.083 Y57.935 E1.58886
G1 X116.808 Y58.217 E1.67166
G1 X117.37 Y58.626 E1.74564
G1 X117.825 Y59.032 E1.81054
G1 X118.228 Y59.628 E1.88711
G1 X118.48 Y60.306 E1.9641
G1 X118.551 Y60.951 E2.03316
G1 X118.56 Y61.433 E2.08447
G1 X118.56 Y71.415 E3.14688
G1 X118.599 Y74.162 E3.43928
G1 X118.715 Y76.898 E3.73074
G1 X118.905 Y79.593 E4.01829
G1 X119.176 Y82.325 E4.31049
G1 X119.534 Y85.126 E4.61103
G1 X119.953 Y87.786 E4.89763
G1 X120.457 Y90.498 E5.19122
G1 X121.03 Y93.165 E5.48155
G1 X121.678 Y95.813 E5.7717
G1 X122.692 Y99.46 E6.17458
G1 X122.789 Y100.113 E6.24485
G1 X122.8 Y100.489 E6.28488
G1 X122.8 Y119.118 E8.26761
G1 X122.784 Y119.93 E8.35405
G1 X122.712 Y120.492 E8.41436
G1 X122.154 Y122.456 E8.63166
G1 X121.457 Y125.13 E8.92577
G1 X120.835 Y127.833 E9.22098
G1 X120.296 Y130.516 E9.51224
G1 X119.836 Y133.201 E9.80217
G1 X119.443 Y135.96 E10.09879
G1 X119.138 Y138.646 E10.3865
G1 X118.908 Y141.333 E10.67353
G1 X118.748 Y144.158 E10.97468
G1 X118.671 Y146.871 E11.26355
G1 X118.661 Y148.273 E11.41277
G1 X118.661 Y158.342 E12.48444
G1 X118.637 Y159.232 E12.5792
G1 X118.566 Y159.749 E12.63474
G1 X118.307 Y160.417 E12.711
G1 X117.887 Y161.015 E12.78877
G1 X117.365 Y161.458 E12.86164
G1 X116.993 Y161.712 E12.90958
G1 X116.42 Y162.025 E12.97907
G1 X115.593 Y162.195 E13.06893
G1 X115.127 Y162.208 E13.11855
G1 X105.296 Y162.21 E14.16489
G1 X104.405 Y162.186 E14.25975
G1 X103.888 Y162.115 E14.3153
G1 X103.171 Y161.838 E14.3971
G1 X102.54 Y161.383 E14.4799
G1 X102.086 Y160.981 E14.54444
G1 X101.678 Y160.385 E14.62132
G1 X101.424 Y159.706 E14.69847
G1 X101.35 Y159.048 E14.76895
G1 X101.34 Y158.481 E14.82931
G1 X101.34 Y148.244 E15.91885
G1 X101.301 Y145.497 E16.21125
G1 X101.185 Y142.761 E16.50271
G1 X100.991 Y140.019 E16.79528
G1 X100.724 Y137.335 E17.08236
G1 X100.366 Y134.529 E17.38343
G1 X99.946 Y131.864 E17.67057
G1 X99.443 Y129.16 E17.9633
G1 X98.858 Y126.44 E18.25942
G1 X98.22 Y123.838 E18.54456
G1 X97.331 Y120.649 E18.89691
G1 X97.222 Y120.003 E18.96664
G1 X97.2 Y119.469 E19.02352
G1 X97.199 Y100.862 E21.00391
G1 X97.217 Y100.056 E21.08972
G1 X97.295 Y99.479 E21.15169
G1 X97.969 Y97.13 E21.41178
G1 X98.65 Y94.511 E21.6998
G1 X99.271 Y91.807 E21.99509
G1 X99.804 Y89.146 E22.28393
G1 X100.275 Y86.396 E22.58088
G1 X100.652 Y83.738 E22.86661
G1 X100.966 Y80.978 E23.16226
G1 X101.195 Y78.292 E23.44917
G1 X101.351 Y75.508 E23.74594
G1 X101.439 Y71.355 E24.18806
G1 X101.439 Y61.658 E25.22013
G1 X101.463 Y60.769 E25.31478
G1 X101.534 Y60.252 E25.37033
G1 X101.793 Y59.584 E25.44658
G0 F6000 X102.503 Y59.965
G1 F900 X102.807 Y59.532 E25.50289
G1 X103.115 Y59.26 E25.54662
G1 X103.484 Y59.001 E25.59461
G1 X103.881 Y58.788 E25.64256
G1 X104.53 Y58.654 E25.71309
G1 X104.981 Y58.641 E25.76111
G1 X114.658 Y58.64 E26.79106
G1 X115.458 Y58.657 E26.87622
G1 X115.881 Y58.715 E26.92166
G1 X116.421 Y58.925 E26.98333
G1 X116.899 Y59.273 E27.04626
G1 X117.218 Y59.563 E27.09214
G1 X117.512 Y59.997 E27.14794
G1 X117.695 Y60.49 E27.20391
G1 X117.751 Y60.966 E27.25492
G1 X117.76 Y61.448 E27.30623
G1 X117.76 Y71.415 E28.36704
G1 X117.799 Y74.173 E28.66061
G1 X117.917 Y76.954 E28.95686
G1 X118.109 Y79.672 E29.24687
G1 X118.382 Y82.426 E29.54142
G1 X118.74 Y85.227 E29.84196
G1 X119.166 Y87.932 E30.13341
G1 X119.67 Y90.644 E30.427
G1 X120.253 Y93.355 E30.72213
G1 X120.907 Y96.026 E31.01481
G1 X121.677 Y98.814 E31.32265
G1 X121.902 Y99.585 E31.40814
G1 X121.989 Y100.136 E31.46751
G1 X122 Y100.512 E31.50754
G1 X122 Y119.107 E33.48665
G1 X121.99 Y119.829 E33.5635
G1 X121.926 Y120.33 E33.61726
G1 X121.384 Y122.237 E33.82827
G1 X120.677 Y124.951 E34.12676
G1 X120.055 Y127.654 E34.42197
G1 X119.507 Y130.381 E34.71801
G1 X119.047 Y133.066 E35.00795
G1 X118.651 Y135.847 E35.30692
G1 X118.343 Y138.556 E35.5971
G1 X118.109 Y141.288 E35.88894
G1 X117.949 Y144.113 E36.1901
G1 X117.871 Y146.848 E36.48131
G1 X117.861 Y148.267 E36.63234
G1 X117.861 Y158.325 E37.70284
G1 X117.844 Y159.124 E37.78789
G1 X117.786 Y159.549 E37.83355
G1 X117.597 Y160.036 E37.88915
G1 X117.29 Y160.473 E37.94599
G1 X116.914 Y160.797 E37.99881
G1 X116.542 Y161.051 E38.04676
G1 X116.143 Y161.265 E38.09495
G1 X115.501 Y161.397 E38.1647
G1 X115.127 Y161.408 E38.20453
G1 X105.313 Y161.41 E39.24905
G1 X104.513 Y161.393 E39.33422
G1 X104.088 Y161.335 E39.37987
G1 X103.556 Y161.129 E39.44059
G1 X103.008 Y160.734 E39.51249
G1 X102.69 Y160.447 E39.55808
G1 X102.393 Y160.013 E39.61405
G1 X102.207 Y159.517 E39.67043
G1 X102.15 Y159.034 E39.7222
G1 X102.14 Y158.467 E39.78255
G1 X102.14 Y148.244 E40.87061
G1 X102.101 Y145.486 E41.16418
G1 X101.983 Y142.705 E41.46044
G1 X101.789 Y139.963 E41.753
G1 X101.518 Y137.234 E42.04489
G1 X101.16 Y134.428 E42.34596
G1 X100.733 Y131.718 E42.63795
G1 X100.23 Y129.014 E42.93068
G1 X99.64 Y126.272 E43.2292
G1 X98.997 Y123.648 E43.51674
G1 X98.218 Y120.828 E43.82812
G1 X98.099 Y120.423 E43.87304
G1 X98.021 Y119.969 E43.92207
G1 X98 Y119.469 E43.97534
G1 X97.999 Y100.874 E45.95445
G1 X98.01 Y100.163 E46.03013
G1 X98.08 Y99.643 E46.08597
G1 X98.738 Y97.351 E46.33977
G1 X99.43 Y94.69 E46.63241
G1 X100.051 Y91.986 E46.92769
G1 X100.593 Y89.281 E47.22131
G1 X101.064 Y86.531 E47.51827
G1 X101.447 Y83.832 E47.8084
G1 X101.761 Y81.068 E48.10448
G1 X101.994 Y78.337 E48.3962
G1 X102.15 Y75.553 E48.69297
G1 X102.239 Y71.372 E49.13807
G1 X102.239 Y61.675 E50.17014
G1 X102.256 Y60.877 E50.25509
G1 X102.314 Y60.452 E50.30075
G1 X102.503 Y59.965 E50.35635
G0 F6000 X103.215 Y60.343
G1 F900 X103.407 Y60.069 E50.39196
G1 X103.644 Y59.86 E50.42559
G1 X103.863 Y59.706 E50.45408
G1 X104.157 Y59.548 E50.48961
G1 X104.623 Y59.452 E50.54024
G1 X104.981 Y59.441 E50.57837
G1 X114.647 Y59.44 E51.60714
G1 X115.35 Y59.45 E51.68197
G1 X115.681 Y59.495 E51.71752
G1 X116.032 Y59.632 E51.75763
G1 X116.362 Y59.866 E51.80068
G1 X116.609 Y60.09 E51.83617
G1 X116.796 Y60.367 E51.87174
G1 X116.912 Y60.68 E51.90727
G1 X116.951 Y60.981 E51.93958
G1 X116.96 Y61.463 E51.99088
G1 X116.96 Y71.415 E53.0501
G1 X116.999 Y74.184 E53.34484
G1 X117.119 Y77.01 E53.64589
G1 X117.313 Y79.751 E53.93835
G1 X117.588 Y82.527 E54.23525
G1 X117.946 Y85.328 E54.5358
G1 X118.379 Y88.078 E54.83209
G1 X118.883 Y90.79 E55.12568
G1 X119.476 Y93.545 E55.42562
G1 X120.136 Y96.239 E55.72082
G1 X120.909 Y99.038 E56.02988
G1 X121.134 Y99.809 E56.11536
G1 X121.189 Y100.159 E56.15307
G1 X121.2 Y100.535 E56.19311
G1 X121.2 Y119.096 E58.1686
G1 X121.19 Y119.818 E58.24545
G1 X121.14 Y120.171 E58.2834
G1 X120.61 Y122.035 E58.48965
G1 X119.897 Y124.772 E58.79068
G1 X119.275 Y127.475 E59.08588
G1 X118.723 Y130.224 E59.38431
G1 X118.255 Y132.953 E59.679
G1 X117.859 Y135.734 E59.97797
G1 X117.548 Y138.466 E60.27063
G1 X117.31 Y141.243 E60.56727
G1 X117.15 Y144.068 E60.86843
G1 X117.071 Y146.825 E61.16198
G1 X117.061 Y148.261 E61.31482
G1 X117.061 Y158.314 E62.38479
G1 X117.051 Y159.016 E62.45951
G1 X117.006 Y159.347 E62.49506
G1 X116.885 Y159.658 E62.53058
G1 X116.693 Y159.932 E62.56619
G1 X116.455 Y160.142 E62.59997
G1 X116.164 Y160.346 E62.6378
G1 X115.869 Y160.504 E62.67341
G1 X115.408 Y160.599 E62.72351
G1 X115.127 Y160.608 E62.75343
G1 X105.324 Y160.61 E63.79679
G1 X104.621 Y160.6 E63.87162
G1 X104.29 Y160.555 E63.90717
G1 X103.94 Y160.419 E63.94714
G1 X103.544 Y160.14 E63.99869
G1 X103.296 Y159.916 E64.03426
G1 X103.107 Y159.64 E64.06987
G1 X102.99 Y159.327 E64.10543
G1 X102.95 Y159.02 E64.13838
G1 X102.94 Y158.453 E64.19874
G1 X102.94 Y148.244 E65.28531
G1 X102.901 Y145.475 E65.58005
G1 X102.781 Y142.649 E65.8811
G1 X102.587 Y139.907 E66.17366
G1 X102.312 Y137.132 E66.47046
G1 X101.953 Y134.326 E66.77154
G1 X101.52 Y131.572 E67.06826
G1 X101.017 Y128.868 E67.36099
G1 X100.422 Y126.104 E67.66191
G1 X99.774 Y123.458 E67.95185
G1 X98.986 Y120.602 E68.26718
G1 X98.867 Y120.197 E68.31211
G1 X98.811 Y119.844 E68.35015
G1 X98.8 Y119.469 E68.39008
G1 X98.799 Y100.886 E70.36791
G1 X98.81 Y100.175 E70.44359
G1 X98.864 Y99.811 E70.48276
G1 X99.507 Y97.572 E70.73069
G1 X100.21 Y94.869 E71.02795
G1 X100.831 Y92.165 E71.32324
G1 X101.382 Y89.416 E71.62164
G1 X101.853 Y86.666 E71.91859
G1 X102.242 Y83.926 E72.21314
G1 X102.556 Y81.158 E72.50963
G1 X102.793 Y78.382 E72.80616
G1 X102.949 Y75.598 E73.10294
G1 X103.039 Y71.389 E73.55101
G1 X103.039 Y61.686 E74.58373
G1 X103.049 Y60.985 E74.65834
G1 X103.094 Y60.654 E74.6939
G1 X103.215 Y60.343 E74.72941
G1 F1500 E68.22941
G1 F300 Z0.52
;MESH:AufsatzT-St??ck 2 teilig v3.stl
G0 F6000 X115.56 Y115.56 Z0.52
;TYPE:WALL-INNER
G1 F300 Z0.32
G1 F1500 E74.72941
G1 F900 X115.56 Y104.44 E75.91294
G1 X104.44 Y104.44 E77.09647
G1 X104.44 Y115.56 E78.28
G1 X115.56 Y115.56 E79.46353
G0 F6000 X116.36 Y116.36
G1 F900 X116.36 Y103.64 E80.81735
G1 X103.64 Y103.64 E82.17117
G1 X103.64 Y116.36 E83.52499
G1 X116.36 Y116.36 E84.87881
G0 F6000 X117.16 Y117.16
G1 F900 X117.16 Y102.84 E86.40292
G1 X102.84 Y102.84 E87.92704
G1 X102.84 Y117.16 E89.45115
G1 X117.16 Y117.16 E90.97526
G0 F6000 X117.96 Y117.96
G1 F900 X117.96 Y102.04 E92.66966
G1 X102.04 Y102.04 E94.36407
G1 X102.04 Y117.96 E96.05847
G1 X117.96 Y117.96 E97.75288
G0 F6000 X118.76 Y118.76
;TYPE:WALL-OUTER
G1 F900 X118.76 Y101.24 E99.61757
G1 X101.24 Y101.24 E101.48227
G1 X101.24 Y118.76 E103.34697
G1 X118.76 Y118.76 E105.21166
G1 F1500 E98.71166
G1 F300 Z0.52
G0 F6000 X114.84 Y114.84 Z0.52
;TYPE:SKIN
G1 F300 Z0.32
G1 F1500 E105.21166
G1 F900 X105.16 Y114.84 E106.24193
G1 X105.16 Y105.16 E107.27219
G1 X114.84 Y105.16 E108.30246
G1 X114.84 Y114.84 E109.33273
G1 F1500 E102.83273
G1 F300 Z0.52
G0 F6000 X114.439 Y106.519 Z0.52
G1 F300 Z0.32
G1 F1500 E109.33273
G1 F900 X113.479 Y105.559 E109.47722
G0 F6000 X112.347 Y105.559
G1 F900 X114.439 Y107.651 E109.79211
G0 F6000 X114.439 Y108.782
G1 F900 X111.216 Y105.559 E110.27723
G0 F6000 X110.085 Y105.559
G1 F900 X114.439 Y109.914 E110.93266
G0 F6000 X114.439 Y111.045
G1 F900 X108.953 Y105.559 E111.7584
G0 F6000 X107.822 Y105.559
G1 F900 X114.439 Y112.176 E112.75438
G0 F6000 X114.439 Y113.308
G1 F900 X106.691 Y105.559 E113.92067
G0 F6000 X105.559 Y105.559
G1 F900 X114.439 Y114.439 E115.25727
G0 F6000 X113.308 Y114.439
G1 F900 X105.559 Y106.691 E116.42356
G0 F6000 X105.559 Y107.822
G1 F900 X112.176 Y114.439 E117.41954
G0 F6000 X111.045 Y114.439
G1 F900 X105.559 Y108.953 E118.24528
G0 F6000 X105.559 Y110.085
M104 S230
G1 F900 X109.914 Y114.439 E118.90072
G0 F6000 X108.782 Y114.439
G1 F900 X105.559 Y111.216 E119.38584
G0 F6000 X105.559 Y112.347
G1 F900 X107.651 Y114.439 E119.70072
G0 F6000 X106.519 Y114.439
G1 F900 X105.559 Y113.479 E119.84522
G1 F1500 E113.34522
G1 F300 Z0.52
;MESH:NONMESH
G0 F6000 X103.215 Y60.343 Z0.52
;TIME_ELAPSED:84.799597
;LAYER:1
G0 F7500 X103.215 Y60.343 Z0.84
;TYPE:SKIRT
G1 F300 Z0.64
G1 F1500 E119.84522
G1 F900 X103.407 Y60.069 E119.88083
G1 X103.644 Y59.86 E119.91446
G1 X103.863 Y59.706 E119.94295
G1 X104.157 Y59.548 E119.97848
G1 X104.623 Y59.452 E120.02912
G1 X104.981 Y59.441 E120.06724
G1 X114.647 Y59.44 E121.09601
G1 X115.35 Y59.45 E121.17084
G1 X115.681 Y59.495 E121.2064
G1 X116.032 Y59.632 E121.2465
G1 X116.362 Y59.866 E121.28955
G1 X116.609 Y60.09 E121.32504
G1 X116.796 Y60.367 E121.36062
G1 X116.912 Y60.68 E121.39614
G1 X116.951 Y60.981 E121.42845
G1 X116.96 Y61.463 E121.47976
G1 X116.96 Y71.415 E122.53897
G1 X116.999 Y74.184 E122.83371
G1 X117.119 Y77.01 E123.13476
G1 X117.313 Y79.751 E123.42722
G1 X117.588 Y82.527 E123.72412
G1 X117.946 Y85.328 E124.02467
G1 X118.379 Y88.078 E124.32096
G1 X118.883 Y90.79 E124.61455
G1 X119.476 Y93.545 E124.91449
G1 X120.136 Y96.239 E125.20969
G1 X120.909 Y99.038 E125.51875
G1 X121.134 Y99.809 E125.60423
G1 X121.189 Y100.159 E125.64194
G1 X121.2 Y100.535 E125.68198
G1 X121.2 Y119.096 E127.65747
G1 X121.19 Y119.818 E127.73432
G1 X121.14 Y120.171 E127.77227
G1 X120.61 Y122.035 E127.97852
G1 X119.897 Y124.772 E128.27955
G1 X119.275 Y127.475 E128.57475
G1 X118.723 Y130.224 E128.87318
G1 X118.255 Y132.953 E129.16787
G1 X117.859 Y135.734 E129.46685
G1 X117.548 Y138.466 E129.7595
G1 X117.31 Y141.243 E130.05614
G1 X117.15 Y144.068 E130.3573
G1 X117.071 Y146.825 E130.65085
G1 X117.061 Y148.261 E130.80369
G1 X117.061 Y158.314 E131.87366
G1 X117.051 Y159.016 E131.94838
G1 X117.006 Y159.347 E131.98393
G1 X116.885 Y159.658 E132.01945
G1 X116.693 Y159.932 E132.05506
G1 X116.455 Y160.142 E132.08884
G1 X116.164 Y160.346 E132.12667
G1 X115.869 Y160.504 E132.16228
G1 X115.408 Y160.599 E132.21238
G1 X115.127 Y160.608 E132.2423
G1 X105.324 Y160.61 E133.28566
G1 X104.621 Y160.6 E133.36049
G1 X104.29 Y160.555 E133.39604
G1 X103.94 Y160.419 E133.43601
G1 X103.544 Y160.14 E133.48757
G1 X103.296 Y159.916 E133.52313
G1 X103.107 Y159.64 E133.55874
G1 X102.99 Y159.327 E133.5943
G1 X102.95 Y159.02 E133.62725
G1 X102.94 Y158.453 E133.68761
G1 X102.94 Y148.244 E134.77418
G1 X102.901 Y145.475 E135.06892
G1 X102.781 Y142.649 E135.36997
G1 X102.587 Y139.907 E135.66253
G1 X102.312 Y137.132 E135.95933
G1 X101.953 Y134.326 E136.26041
G1 X101.52 Y131.572 E136.55713
G1 X101.017 Y128.868 E136.84986
G1 X100.422 Y126.104 E137.15078
G1 X99.774 Y123.458 E137.44072
G1 X98.986 Y120.602 E137.75605
G1 X98.867 Y120.197 E137.80098
G1 X98.811 Y119.844 E137.83902
G1 X98.8 Y119.469 E137.87895
G1 X98.799 Y100.886 E139.85678
G1 X98.81 Y100.175 E139.93246
G1 X98.864 Y99.811 E139.97163
G1 X99.507 Y97.572 E140.21956
G1 X100.21 Y94.869 E140.51682
G1 X100.831 Y92.165 E140.81211
G1 X101.382 Y89.416 E141.11051
G1 X101.853 Y86.666 E141.40746
G1 X102.242 Y83.926 E141.70201
G1 X102.556 Y81.158 E141.9985
G1 X102.793 Y78.382 E142.29503
G1 X102.949 Y75.598 E142.59181
G1 X103.039 Y71.389 E143.03988
G1 X103.039 Y61.686 E144.0726
G1 X103.049 Y60.985 E144.14721
G1 X103.094 Y60.654 E144.18277
G1 X103.215 Y60.343 E144.21828
G1 F1500 E137.71828
G1 F300 Z0.84
G0 F7500 X104.438 Y61.873 Z0.84
;TYPE:SUPPORT-INTERFACE
G1 F300 Z0.64
G1 F1500 E144.21828
G1 F1200 X105.472 Y60.839 E144.37392
G1 F1500 E137.87392
G1 F300 Z0.84
G0 F7500 X108.866 Y60.839 Z0.84
G1 F300 Z0.64
G1 F1500 E144.37392
G1 F1200 X104.438 Y65.267 E145.04042
G1 F1500 E138.54042
G1 F300 Z0.84
G0 F7500 X104.438 Y68.661 Z0.84
G1 F300 Z0.64
G1 F1500 E145.04042
G1 F1200 X112.26 Y60.839 E146.21777
G1 F1500 E139.71777
G1 F300 Z0.84
G0 F7500 X115.521 Y60.972 Z0.84
G1 F300 Z0.64
G1 F1500 E146.21777
G1 F1200 X104.438 Y72.055 E147.88596
G1 F1500 E141.38596
G1 F300 Z0.84
G0 F7500 X104.438 Y75.449 Z0.84
G1 F300 Z0.64
G1 F1500 E147.88596
G1 F1200 X115.558 Y64.329 E149.55972
G1 F1500 E143.05972
G1 F300 Z0.84
G0 F7500 X115.558 Y67.723 Z0.84
G1 F300 Z0.64
G1 F1500 E149.55972
G1 F1200 X104.438 Y78.843 E151.23349
G1 F1500 E144.73349
G1 F300 Z0.84
G0 F7500 X104.438 Y82.237 Z0.84
G1 F300 Z0.64
G1 F1500 E151.23349
G1 F1200 X115.558 Y71.117 E152.90725
G1 F1500 E146.40725
G1 F300 Z0.84
G0 F7500 X115.558 Y74.511 Z0.84
