;FLAVOR:Marlin
;TIME:5029
;Filament used: 9.42031m
;Layer height: 0.32
;MINX:97.15
;MINY:56.19
;MINZ:0.32
;MAXX:122.85
;MAXY:163.81
;MAXZ:41.16
;TARGET_MACHINE.NAME:Creality Ender-3 Pro
;Generated with Cura_SteamEngine 5.5.0
M82 ;absolute extrusion mode
; Ender 3 Custom Start G-code
G92 E0 ; Reset Extruder
G28 ; Home all axes
G1 Z5.0 F3000 ; Move Z Axis up a bit during heating to not damage bed
M104 S120 ; Start heating up the nozzle most of the way
M190 S70 ; Start heating the bed, wait until target temperature reached
M109 S235.0 ; Finish heating the nozzle
G1 Z2.0 F3000 ; Move Z Axis up little to prevent scratching of Heat Bed
G1 X0.1 Y20 Z0.3 F5000.0 ; Move to start position
G1 X0.1 Y200.0 Z0.3 F1500.0 E15 ; Draw the first line
G1 X0.4 Y200.0 Z0.3 F5000.0 ; Move to side a little
G1 X0.4 Y20 Z0.3 F1500.0 E30 ; Draw the second line
G92 E0 ; Reset Extruder
G1 Z2.0 F3000 ; Move Z Axis up little to prevent scratching of Heat Bed
G1 X5 Y20 Z0.3 F5000.0 ; Move over to prevent blob squish
G92 E0
G92 E0
G1 F1500 E-6.5
;LAYER_COUNT:128
;LAYER:0
M107
G1 F300 Z0.52
G0 F6000 X100.092 Y58.759 Z0.52
;TYPE:SKIRT
G1 F300 Z0.32
G1 F1500 E0
G1 F900 X100.507 Y58.167 E0.07695
G1 X100.922 Y57.801 E0.13584
G1 X101.537 Y57.349 E0.21707
G1 X102.581 Y56.638 E0.35151
G1 X103.086 Y56.369 E0.41241
G1 X103.939 Y56.202 E0.50492
G1 X104.604 Y56.19 E0.57571
G1 X115.216 Y56.19 E1.70517
G1 X116.108 Y56.215 E1.80014
G1 X116.673 Y56.292 E1.86083
G1 X117.461 Y56.654 E1.95313
G1 X118.495 Y57.372 E2.08711
G1 X119.177 Y57.885 E2.17794
G1 X119.563 Y58.245 E2.23412
G1 X119.959 Y58.851 E2.31117
G1 X120.196 Y59.526 E2.38731
G1 X120.257 Y60.184 E2.45764
G1 X120.261 Y77.858 E4.33873
G1 X120.3 Y80.605 E4.63113
G1 X120.416 Y83.34 E4.92248
G1 X120.606 Y86.035 E5.21003
G1 X120.878 Y88.767 E5.50224
G1 X121.236 Y91.569 E5.80289
G1 X121.655 Y94.229 E6.08949
G1 X122.158 Y96.942 E6.38316
G1 X122.748 Y99.725 E6.68594
G1 X122.789 Y100.114 E6.72758
G1 X122.8 Y100.489 E6.76751
G1 X122.8 Y119.123 E8.75077
G1 X122.779 Y120.003 E8.84445
G1 X122.723 Y120.424 E8.88966
G1 X122.431 Y121.785 E9.03781
G1 X121.893 Y124.473 E9.32957
G1 X121.423 Y127.222 E9.6264
G1 X121.04 Y129.916 E9.91601
G1 X120.734 Y132.627 E10.20638
G1 X120.505 Y135.314 E10.4934
G1 X120.348 Y138.112 E10.79167
G1 X120.261 Y142.252 E11.2324
G1 X120.261 Y159.168 E13.03281
G1 X120.237 Y160.058 E13.12757
G1 X120.166 Y160.575 E13.18311
G1 X119.908 Y161.241 E13.25913
G1 X119.489 Y161.838 E13.33676
G1 X119.007 Y162.255 E13.40459
G1 X118.168 Y162.86 E13.51468
G1 X117.571 Y163.271 E13.59182
G1 X117.021 Y163.573 E13.65861
G1 X116.795 Y163.654 E13.68416
G1 X116.062 Y163.798 E13.76366
G1 X115.396 Y163.81 E13.83456
G1 X104.788 Y163.81 E14.96359
G1 X103.896 Y163.786 E15.05857
G1 X103.332 Y163.709 E15.11915
G1 X102.543 Y163.348 E15.2115
G1 X101.504 Y162.627 E15.3461
G1 X100.822 Y162.114 E15.43693
G1 X100.439 Y161.755 E15.4928
G1 X100.045 Y161.152 E15.56946
G1 X99.804 Y160.476 E15.64585
G1 X99.743 Y159.816 E15.71639
G1 X99.739 Y142.143 E17.59737
G1 X99.7 Y139.396 E17.88977
G1 X99.584 Y136.66 E18.18123
G1 X99.39 Y133.919 E18.47369
G1 X99.122 Y131.234 E18.76089
G1 X98.763 Y128.427 E19.06208
G1 X98.344 Y125.763 E19.3491
G1 X97.842 Y123.057 E19.64202
G1 X97.251 Y120.265 E19.94576
G1 X97.21 Y119.872 E19.98782
G1 X97.2 Y119.469 E20.03072
G1 X97.199 Y100.862 E22.01111
G1 X97.22 Y99.995 E22.10341
G1 X97.276 Y99.578 E22.14819
G1 X97.568 Y98.214 E22.29666
G1 X98.106 Y95.523 E22.58873
G1 X98.576 Y92.774 E22.88556
G1 X98.956 Y90.097 E23.17334
G1 X99.268 Y87.354 E23.46717
G1 X99.495 Y84.672 E23.75364
G1 X99.652 Y81.886 E24.05063
G1 X99.739 Y77.742 E24.49178
G1 X99.739 Y60.832 E26.29155
G1 X99.763 Y59.942 E26.38631
G1 X99.834 Y59.425 E26.44186
G1 X100.092 Y58.759 E26.51787
G0 F6000 X100.803 Y59.138
G1 F900 X101.107 Y58.704 E26.57427
G1 X101.451 Y58.401 E26.62306
G1 X101.99 Y58.008 E26.69406
G1 X102.957 Y57.344 E26.8189
G1 X103.357 Y57.131 E26.86714
G1 X104.022 Y57.001 E26.93925
G1 X104.619 Y56.99 E27.00281
G1 X115.198 Y56.99 E28.12875
G1 X116 Y57.008 E28.21413
G1 X116.448 Y57.069 E28.26226
G1 X117.064 Y57.352 E28.33441
G1 X118.018 Y58.014 E28.45799
G1 X118.631 Y58.47 E28.53931
G1 X118.947 Y58.765 E28.58532
G1 X119.235 Y59.206 E28.64138
G1 X119.409 Y59.7 E28.69712
G1 X119.457 Y60.184 E28.74889
G1 X119.461 Y77.858 E30.62998
G1 X119.5 Y80.616 E30.92355
G1 X119.618 Y83.396 E31.21969
G1 X119.81 Y86.114 E31.5097
G1 X120.084 Y88.868 E31.80426
G1 X120.442 Y91.67 E32.10491
G1 X120.868 Y94.375 E32.39636
G1 X121.372 Y97.088 E32.69005
G1 X121.953 Y99.813 E32.9866
G1 X121.989 Y100.137 E33.02129
G1 X122 Y100.512 E33.06122
G1 X122 Y119.108 E35.04044
G1 X121.985 Y119.904 E35.12517
G1 X121.941 Y120.256 E35.16293
G1 X121.649 Y121.617 E35.31108
G1 X121.104 Y124.338 E35.60644
G1 X120.634 Y127.087 E35.90326
G1 X120.248 Y129.803 E36.19524
G1 X119.939 Y132.537 E36.48808
G1 X119.706 Y135.269 E36.77991
G1 X119.549 Y138.067 E37.07817
G1 X119.461 Y142.235 E37.52188
G1 X119.461 Y159.151 E39.32229
G1 X119.444 Y159.95 E39.40735
G1 X119.386 Y160.375 E39.453
G1 X119.197 Y160.862 E39.5086
G1 X118.892 Y161.297 E39.56515
G1 X118.539 Y161.606 E39.61508
G1 X117.714 Y162.201 E39.72334
G1 X117.117 Y162.612 E39.80048
G1 X116.641 Y162.869 E39.85806
G1 X115.978 Y162.999 E39.92997
G1 X115.381 Y163.01 E39.99352
G1 X104.805 Y163.01 E41.11915
G1 X104.004 Y162.993 E41.20442
G1 X103.555 Y162.932 E41.25264
G1 X102.941 Y162.651 E41.32451
G1 X101.981 Y161.985 E41.44887
G1 X101.369 Y161.53 E41.53003
G1 X101.055 Y161.236 E41.57582
G1 X100.767 Y160.795 E41.63188
G1 X100.591 Y160.301 E41.68769
G1 X100.543 Y159.816 E41.73956
G1 X100.539 Y142.143 E43.62054
G1 X100.5 Y139.385 E43.91411
G1 X100.382 Y136.604 E44.21037
G1 X100.188 Y133.863 E44.50283
G1 X99.916 Y131.133 E44.79483
G1 X99.557 Y128.326 E45.09602
G1 X99.131 Y125.617 E45.38789
G1 X98.628 Y122.911 E45.68083
G1 X98.046 Y120.177 E45.97833
G1 X98.01 Y119.851 E46.01324
G1 X98 Y119.469 E46.05391
G1 X97.999 Y100.877 E48.0327
G1 X98.014 Y100.095 E48.11595
G1 X98.058 Y99.745 E48.15349
G1 X98.35 Y98.381 E48.30196
G1 X98.895 Y95.658 E48.59752
G1 X99.365 Y92.909 E48.89435
G1 X99.751 Y90.191 E49.18653
G1 X100.063 Y87.444 E49.48078
G1 X100.294 Y84.717 E49.77206
G1 X100.451 Y81.931 E50.06905
G1 X100.539 Y77.759 E50.51319
G1 X100.539 Y60.849 E52.31296
G1 X100.556 Y60.05 E52.39802
G1 X100.614 Y59.625 E52.44367
G1 X100.803 Y59.138 E52.49927
G0 F6000 X101.515 Y59.516
G1 F900 X101.707 Y59.242 E52.53488
G1 X101.923 Y59.047 E52.56585
G1 X102.446 Y58.665 E52.63479
G1 X103.333 Y58.05 E52.74966
G1 X103.628 Y57.893 E52.78523
G1 X104.105 Y57.8 E52.83695
G1 X104.634 Y57.79 E52.89327
G1 X115.186 Y57.79 E54.01634
G1 X115.892 Y57.801 E54.09149
G1 X116.223 Y57.846 E54.12705
G1 X116.667 Y58.05 E54.17905
G1 X117.545 Y58.659 E54.29278
G1 X118.085 Y59.055 E54.36405
G1 X118.329 Y59.283 E54.39959
G1 X118.512 Y59.563 E54.43519
G1 X118.623 Y59.878 E54.47074
G1 X118.657 Y60.184 E54.50351
G1 X118.661 Y77.858 E56.3846
G1 X118.7 Y80.627 E56.67934
G1 X118.82 Y83.453 E56.98039
G1 X119.014 Y86.193 E57.27274
G1 X119.29 Y88.969 E57.56965
G1 X119.648 Y91.771 E57.8703
G1 X120.081 Y94.521 E58.1666
G1 X120.585 Y97.234 E58.46029
G1 X121.159 Y99.908 E58.75137
G1 X121.189 Y100.16 E58.77838
G1 X121.2 Y100.535 E58.81831
G1 X121.2 Y119.097 E60.79391
G1 X121.19 Y119.814 E60.87023
G1 X121.159 Y120.088 E60.89958
G1 X120.867 Y121.449 E61.04773
G1 X120.315 Y124.203 E61.34667
G1 X119.845 Y126.952 E61.6435
G1 X119.453 Y129.713 E61.94031
G1 X119.144 Y132.447 E62.23315
G1 X118.907 Y135.224 E62.52979
G1 X118.75 Y138.022 E62.82805
G1 X118.661 Y142.218 E63.27474
G1 X118.661 Y159.14 E65.07579
G1 X118.651 Y159.842 E65.15052
G1 X118.606 Y160.173 E65.18607
G1 X118.485 Y160.484 E65.22159
G1 X118.293 Y160.758 E65.2572
G1 X118.071 Y160.957 E65.28893
G1 X117.26 Y161.542 E65.39536
G1 X116.663 Y161.953 E65.4725
G1 X116.367 Y162.108 E65.50806
G1 X115.895 Y162.2 E65.55924
G1 X115.366 Y162.21 E65.61556
G1 X104.816 Y162.21 E66.73842
G1 X104.112 Y162.2 E66.81335
G1 X103.781 Y162.155 E66.84891
G1 X103.335 Y161.951 E66.90111
G1 X102.454 Y161.34 E67.01522
G1 X101.915 Y160.945 E67.08634
G1 X101.671 Y160.717 E67.12188
G1 X101.489 Y160.438 E67.15733
G1 X101.377 Y160.123 E67.19292
G1 X101.343 Y159.816 E67.22579
G1 X101.339 Y142.143 E69.10677
G1 X101.3 Y139.374 E69.40151
G1 X101.18 Y136.548 E69.70256
G1 X100.986 Y133.807 E69.99502
G1 X100.71 Y131.032 E70.29183
G1 X100.351 Y128.225 E70.59302
G1 X99.918 Y125.471 E70.88974
G1 X99.415 Y122.765 E71.18267
G1 X98.84 Y120.083 E71.47461
G1 X98.81 Y119.829 E71.50183
G1 X98.8 Y119.469 E71.54017
G1 X98.799 Y100.888 E73.51779
G1 X98.809 Y100.185 E73.59262
G1 X98.84 Y99.912 E73.62186
G1 X99.132 Y98.548 E73.77032
G1 X99.684 Y95.793 E74.06937
G1 X100.154 Y93.044 E74.3662
G1 X100.543 Y90.303 E74.66085
G1 X100.858 Y87.534 E74.95747
G1 X101.093 Y84.762 E75.25356
G1 X101.25 Y81.976 E75.55055
G1 X101.339 Y77.776 E75.99766
G1 X101.339 Y60.86 E77.79807
G1 X101.349 Y60.158 E77.8728
G1 X101.394 Y59.827 E77.90835
G1 X101.515 Y59.516 E77.94387
G1 F1500 E71.44387
G1 F300 Z0.52
G0 F6000 X103.139 Y60.381 Z0.52
G1 F300 Z0.32
G1 F1500 E77.94387
G1 F900 X103.303 Y60.265 E77.96525
G1 X103.19 Y60.39 E77.98318
G1 X103.139 Y60.585 E78.00463
G1 X103.139 Y60.381 E78.02635
G0 F6000 X104.156 Y59.662
G1 F900 X104.258 Y59.59 E78.03963
G1 X115.744 Y59.59 E79.26212
G1 X115.847 Y59.663 E79.27555
G1 X115.617 Y59.59 E79.30124
G1 X104.383 Y59.59 E80.4969
G1 X104.156 Y59.662 E80.52225
G1 F1500 E74.02225
G1 F300 Z0.52
G0 F6000 X116.693 Y60.261 Z0.52
G1 F300 Z0.32
G1 F1500 E80.52225
G1 F900 X116.86 Y60.379 E80.54401
G1 X116.861 Y97.688 E84.5149
G1 X116.862 Y97.717 E84.51799
G1 X116.893 Y98.14 E84.56313
G1 X116.904 Y98.206 E84.57025
G1 X116.975 Y98.495 E84.60192
G1 X117.054 Y98.654 E84.62082
G1 X117.172 Y98.745 E84.63668
G1 X117.172 Y98.8 E84.64253
G1 X116.861 Y98.8 E84.67563
G1 X116.86 Y60.586 E88.74284
G1 X116.82 Y60.413 E88.76174
G1 X116.693 Y60.261 E88.78282
G1 F1500 E82.28282
G1 F300 Z0.52
G0 F6000 X103.139 Y97.673 Z0.52
G1 F300 Z0.32
G1 F1500 E88.78282
G1 F900 X103.139 Y98.8 E88.90277
G1 X102.828 Y98.8 E88.93587
G1 X102.828 Y98.742 E88.94204
G1 X102.943 Y98.65 E88.95772
G1 X103.023 Y98.477 E88.97801
G1 X103.118 Y97.994 E89.0304
G1 X103.126 Y97.937 E89.03652
G1 X103.139 Y97.673 E89.06466
G1 F1500 E82.56466
G1 F300 Z0.52
G0 F6000 X103.139 Y121.2 Z0.52
G1 F300 Z0.32
G1 F1500 E89.06466
G1 F900 X103.14 Y159.414 E93.13186
G1 X103.18 Y159.587 E93.15076
G1 X103.307 Y159.739 E93.17184
G1 X103.14 Y159.621 E93.19361
G1 X103.139 Y122.312 E97.1645
G1 X103.138 Y122.283 E97.16758
G1 X103.107 Y121.86 E97.21273
G1 X103.096 Y121.794 E97.21985
G1 X103.025 Y121.505 E97.25152
G1 X102.946 Y121.346 E97.27042
G1 X102.828 Y121.255 E97.28628
G1 X102.828 Y121.2 E97.29213
G1 X103.139 Y121.2 E97.32523
G1 F1500 E90.82523
G1 F300 Z0.52
G0 F6000 X116.861 Y121.2 Z0.52
G1 F300 Z0.32
G1 F1500 E97.32523
G1 F900 X117.172 Y121.2 E97.35833
G1 X117.172 Y121.259 E97.36461
G1 X117.057 Y121.35 E97.38022
G1 X116.977 Y121.523 E97.40051
G1 X116.882 Y122.006 E97.4529
G1 X116.875 Y122.063 E97.45901
G1 X116.862 Y122.32 E97.4864
G1 X116.861 Y122.34 E97.48853
G1 X116.861 Y121.2 E97.60986
G1 F1500 E91.10986
G1 F300 Z0.52
G0 F6000 X116.861 Y159.415 Z0.52
G1 F300 Z0.32
G1 F1500 E97.60986
G1 F900 X116.861 Y159.619 E97.63157
G1 X116.697 Y159.735 E97.65295
G1 X116.81 Y159.61 E97.67089
G1 X116.861 Y159.415 E97.69234
G0 F6000 X115.844 Y160.338
G1 F900 X115.742 Y160.41 E97.70563
G1 X115.617 Y160.41 E97.71893
G1 X115.844 Y160.338 E97.74428
G1 F1500 E91.24428
G1 F300 Z0.52
G0 F6000 X104.383 Y160.41 Z0.52
G1 F300 Z0.32
G1 F1500 E97.74428
G1 F900 X104.256 Y160.41 E97.7578
G1 X104.153 Y160.337 E97.77123
G1 X104.383 Y160.41 E97.79692
G0 F6000 X104.511 Y159.61
;TYPE:SUPPORT-INTERFACE
G1 F900 X103.94 Y159.206 E97.87136
G1 X103.939 Y120.4 E102.00158
G1 X116.061 Y120.4 E103.29175
G1 X116.061 Y159.208 E107.42218
G1 X115.491 Y159.61 E107.49642
G1 X104.511 Y159.61 E108.66505
G1 F1500 E102.16505
G1 F300 Z0.52
G0 F6000 X116.061 Y99.6 Z0.52
G1 F300 Z0.32
G1 F1500 E108.66505
G1 F900 X103.939 Y99.6 E109.95522
G1 X103.939 Y60.792 E114.08565
G1 X104.509 Y60.39 E114.15989
G1 X115.489 Y60.39 E115.32852
G1 X116.06 Y60.794 E115.40296
G1 X116.061 Y99.6 E119.53318
G0 F6000 X115.66 Y98.689
G1 F900 X104.337 Y87.367 E121.23742
G1 F1500 E114.73742
G1 F300 Z0.52
G0 F6000 X104.337 Y90.761 Z0.52
G1 F300 Z0.32
G1 F1500 E121.23742
G1 F900 X112.776 Y99.2 E122.50764
G1 F1500 E116.00764
G1 F300 Z0.52
G0 F6000 X109.382 Y99.2 Z0.52
G1 F300 Z0.32
G1 F1500 E122.50764
G1 F900 X104.337 Y94.155 E123.26701
G1 F1500 E116.76701
G1 F300 Z0.52
G0 F6000 X104.337 Y97.549 Z0.52
G1 F300 Z0.32
G1 F1500 E123.26701
G1 F900 X105.988 Y99.2 E123.51551
G1 F1500 E117.01551
G1 F300 Z0.52
G0 F6000 X115.66 Y95.295 Z0.52
G1 F300 Z0.32
G1 F1500 E123.51551
G1 F900 X104.337 Y83.973 E125.21976
G1 F1500 E118.71976
G1 F300 Z0.52
G0 F6000 X104.337 Y80.579 Z0.52
G1 F300 Z0.32
G1 F1500 E125.21976
G1 F900 X115.66 Y91.901 E126.924
G1 F1500 E120.424
G1 F300 Z0.52
G0 F6000 X115.66 Y88.507 Z0.52
G1 F300 Z0.32
G1 F1500 E126.924
G1 F900 X104.337 Y77.184 E128.62832
G1 F1500 E122.12832
G1 F300 Z0.52
G0 F6000 X104.337 Y73.79 Z0.52
G1 F300 Z0.32
G1 F1500 E128.62832
G1 F900 X115.66 Y85.113 E130.33263
G1 F1500 E123.83263
G1 F300 Z0.52
G0 F6000 X115.66 Y81.718 Z0.52
G1 F300 Z0.32
G1 F1500 E130.33263
G1 F900 X104.337 Y70.396 E132.03688
G1 F1500 E125.53688
G1 F300 Z0.52
G0 F6000 X104.337 Y67.002 Z0.52
G1 F300 Z0.32
G1 F1500 E132.03688
G1 F900 X115.66 Y78.324 E133.74112
G1 F1500 E127.24112
G1 F300 Z0.52
G0 F6000 X115.66 Y74.93 Z0.52
G1 F300 Z0.32
G1 F1500 E133.74112
G1 F900 X104.337 Y63.608 E135.44536
G1 F1500 E128.94536
G1 F300 Z0.52
G0 F6000 X104.913 Y60.789 Z0.52
G1 F300 Z0.32
G1 F1500 E135.44536
G1 F900 X115.66 Y71.536 E137.06298
G1 F1500 E130.56298
G1 F300 Z0.52
G0 F6000 X115.66 Y68.142 Z0.52
G1 F300 Z0.32
G1 F1500 E137.06298
G1 F900 X108.307 Y60.789 E138.16974
G1 F1500 E131.66974
G1 F300 Z0.52
G0 F6000 X111.701 Y60.789 Z0.52
G1 F300 Z0.32
G1 F1500 E138.16974
G1 F900 X115.66 Y64.748 E138.76564
G1 F1500 E132.26564
G1 F300 Z0.52
G0 F6000 X115.66 Y61.354 Z0.52
G1 F300 Z0.32
G1 F1500 E138.76564
G1 F900 X115.095 Y60.789 E138.85068
G1 F1500 E132.35068
G1 F300 Z0.52
G0 F6000 X114.011 Y120.799 Z0.52
G1 F300 Z0.32
G1 F1500 E138.85068
G1 F900 X115.661 Y122.449 E139.09904
G1 F1500 E132.59904
G1 F300 Z0.52
G0 F6000 X115.661 Y125.843 Z0.52
G1 F300 Z0.32
G1 F1500 E139.09904
G1 F900 X110.616 Y120.799 E139.85833
G1 F1500 E133.35833
G1 F300 Z0.52
G0 F6000 X107.222 Y120.799 Z0.52
G1 F300 Z0.32
G1 F1500 E139.85833
G1 F900 X115.661 Y129.237 E141.12848
G1 F1500 E134.62848
G1 F300 Z0.52
G0 F6000 X115.661 Y132.632 Z0.52
G1 F300 Z0.32
G1 F1500 E141.12848
G1 F900 X104.339 Y121.309 E142.83272
G1 F1500 E136.33272
G1 F300 Z0.52
G0 F6000 X104.339 Y124.703 Z0.52
G1 F300 Z0.32
G1 F1500 E142.83272
G1 F900 X115.661 Y136.026 E144.53696
G1 F1500 E138.03696
G1 F300 Z0.52
G0 F6000 X115.661 Y139.42 Z0.52
G1 F300 Z0.32
G1 F1500 E144.53696
G1 F900 X104.339 Y128.098 E146.24113
G1 F1500 E139.74113
G1 F300 Z0.52
G0 F6000 X104.339 Y131.492 Z0.52
G1 F300 Z0.32
G1 F1500 E146.24113
G1 F900 X115.661 Y142.814 E147.94529
G1 F1500 E141.44529
G1 F300 Z0.52
G0 F6000 X115.661 Y146.208 Z0.52
G1 F300 Z0.32
G1 F1500 E147.94529
G1 F900 X104.339 Y134.886 E149.64946
G1 F1500 E143.14946
G1 F300 Z0.52
G0 F6000 X104.339 Y138.28 Z0.52
G1 F300 Z0.32
G1 F1500 E149.64946
G1 F900 X115.661 Y149.602 E151.35363
G1 F1500 E144.85363
G1 F300 Z0.52
G0 F6000 X115.661 Y152.996 Z0.52
G1 F300 Z0.32
G1 F1500 E151.35363
G1 F900 X104.339 Y141.674 E153.05779
G1 F1500 E146.55779
G1 F300 Z0.52
G0 F6000 X104.339 Y145.068 Z0.52
G1 F300 Z0.32
G1 F1500 E153.05779
G1 F900 X115.661 Y156.39 E154.76196
G1 F1500 E148.26196
G1 F300 Z0.52
G0 F6000 X115.085 Y159.209 Z0.52
G1 F300 Z0.32
G1 F1500 E154.76196
G1 F900 X104.339 Y148.462 E156.3795
G1 F1500 E149.8795
G1 F300 Z0.52
G0 F6000 X104.339 Y151.856 Z0.52
G1 F300 Z0.32
G1 F1500 E156.3795
G1 F900 X111.691 Y159.209 E157.48619
G1 F1500 E150.98619
G1 F300 Z0.52
G0 F6000 X108.297 Y159.209 Z0.52
G1 F300 Z0.32
G1 F1500 E157.48619
G1 F900 X104.339 Y155.25 E158.08202
G1 F1500 E151.58202
G1 F300 Z0.52
