;FLAVOR:Marlin
;TIME:6239
;Filament used: 11.8831m
;Layer height: 0.32
;MINX:96.699
;MINY:56.1
;MINZ:0.32
;MAXX:123.3
;MAXY:163.63
;MAXZ:41.8
;TARGET_MACHINE.NAME:Creality Ender-3 Pro
;Generated with Cura_SteamEngine 5.5.0
M82 ;absolute extrusion mode
; Ender 3 Custom Start G-code
G92 E0 ; Reset Extruder
G28 ; Home all axes
G1 Z5.0 F3000 ; Move Z Axis up a bit during heating to not damage bed
M104 S120 ; Start heating up the nozzle most of the way
M190 S70 ; Start heating the bed, wait until target temperature reached
M109 S235.0 ; Finish heating the nozzle
G1 Z2.0 F3000 ; Move Z Axis up little to prevent scratching of Heat Bed
G1 X0.1 Y20 Z0.3 F5000.0 ; Move to start position
G1 X0.1 Y200.0 Z0.3 F1500.0 E15 ; Draw the first line
G1 X0.4 Y200.0 Z0.3 F5000.0 ; Move to side a little
G1 X0.4 Y20 Z0.3 F1500.0 E30 ; Draw the second line
G92 E0 ; Reset Extruder
G1 Z2.0 F3000 ; Move Z Axis up little to prevent scratching of Heat Bed
G1 X5 Y20 Z0.3 F5000.0 ; Move over to prevent blob squish
G92 E0
G92 E0
G1 F1500 E-6.5
;LAYER_COUNT:130
;LAYER:0
M107
G1 F300 Z0.52
G0 F6000 X100.052 Y58.759 Z0.52
;TYPE:SKIRT
G1 F300 Z0.32
G1 F1500 E0
G1 F900 X100.467 Y58.167 E0.07695
G1 X100.886 Y57.798 E0.13637
G1 X101.902 Y57.062 E0.2699
G1 X102.591 Y56.593 E0.35861
G1 X103.172 Y56.279 E0.4289
G1 X104.033 Y56.111 E0.52226
G1 X104.687 Y56.1 E0.59188
G1 X115.126 Y56.1 E1.70293
G1 X116.016 Y56.124 E1.79769
G1 X116.574 Y56.199 E1.85761
G1 X117.354 Y56.551 E1.94869
G1 X117.987 Y56.984 E2.03032
G1 X119.109 Y57.796 E2.17773
G1 X119.574 Y58.211 E2.24406
G1 X119.979 Y58.82 E2.3219
G1 X120.224 Y59.494 E2.39823
G1 X120.291 Y60.122 E2.46545
G1 X120.3 Y60.616 E2.51804
G1 X120.3 Y72.661 E3.80001
G1 X120.339 Y75.408 E4.09241
G1 X120.455 Y78.145 E4.38398
G1 X120.645 Y80.84 E4.67153
G1 X120.916 Y83.57 E4.96352
G1 X121.274 Y86.372 E5.26416
G1 X121.693 Y89.031 E5.55066
G1 X122.197 Y91.745 E5.84446
G1 X122.763 Y94.384 E6.13172
G1 X122.973 Y95.24 E6.22553
G1 X123.243 Y96.441 E6.35654
G1 X123.289 Y96.863 E6.40172
G1 X123.3 Y97.239 E6.44176
G1 X123.3 Y122.372 E9.11673
G1 X123.276 Y123.277 E9.21308
G1 X123.204 Y123.758 E9.26484
G1 X122.881 Y125.081 E9.40979
G1 X122.257 Y127.78 E9.70463
G1 X121.716 Y130.487 E9.99844
G1 X121.249 Y133.213 E10.2928
G1 X120.862 Y135.93 E10.5849
G1 X120.557 Y138.616 E10.87261
G1 X120.328 Y141.304 E11.15974
G1 X120.168 Y144.127 E11.46068
G1 X120.091 Y146.842 E11.74976
G1 X120.081 Y148.238 E11.89834
G1 X120.081 Y159.177 E13.06261
G1 X120.057 Y160.067 E13.15737
G1 X119.986 Y160.584 E13.21291
G1 X119.727 Y161.253 E13.28926
G1 X119.312 Y161.843 E13.36603
G1 X118.818 Y162.271 E13.4356
G1 X118.157 Y162.743 E13.52205
G1 X117.547 Y163.15 E13.6001
G1 X116.962 Y163.46 E13.67056
G1 X116.156 Y163.615 E13.75792
G1 X115.639 Y163.63 E13.81297
G1 X104.706 Y163.63 E14.97659
G1 X103.815 Y163.605 E15.07146
G1 X103.249 Y163.528 E15.13226
G1 X102.471 Y163.172 E15.22332
G1 X101.75 Y162.676 E15.31646
G1 X101.153 Y162.237 E15.39533
G1 X100.625 Y161.759 E15.47113
G1 X100.23 Y161.149 E15.54848
G1 X99.994 Y160.486 E15.62338
G1 X99.931 Y159.909 E15.68516
G1 X99.922 Y159.565 E15.72178
G1 X99.92 Y148.182 E16.93331
G1 X99.881 Y145.435 E17.2257
G1 X99.765 Y142.699 E17.51717
G1 X99.571 Y139.957 E17.80973
G1 X99.304 Y137.273 E18.09681
G1 X98.946 Y134.467 E18.39788
G1 X98.526 Y131.802 E18.68502
G1 X98.023 Y129.098 E18.97775
G1 X97.438 Y126.378 E19.27387
G1 X96.78 Y123.675 E19.56996
G1 X96.725 Y123.298 E19.61051
G1 X96.7 Y122.719 E19.67219
G1 X96.699 Y97.616 E22.34396
G1 X96.709 Y96.907 E22.41943
G1 X96.796 Y96.229 E22.49218
G1 X97.522 Y93.116 E22.8324
G1 X98.063 Y90.41 E23.1261
G1 X98.53 Y87.684 E23.42046
G1 X98.917 Y84.967 E23.71256
G1 X99.223 Y82.266 E24.00187
G1 X99.453 Y79.578 E24.28901
G1 X99.612 Y76.77 E24.58835
G1 X99.689 Y74.055 E24.87743
G1 X99.699 Y72.654 E25.02654
G1 X99.699 Y60.832 E26.28479
G1 X99.723 Y59.942 E26.37955
G1 X99.794 Y59.425 E26.43509
G1 X100.052 Y58.759 E26.51111
G0 F6000 X100.763 Y59.138
G1 F900 X101.066 Y58.706 E26.56727
G1 X101.356 Y58.446 E26.60872
G1 X102.356 Y57.721 E26.74018
G1 X102.972 Y57.297 E26.81978
G1 X103.447 Y57.04 E26.87726
G1 X104.115 Y56.91 E26.94969
G1 X104.701 Y56.9 E27.01207
G1 X115.109 Y56.9 E28.11981
G1 X115.909 Y56.917 E28.20498
G1 X116.353 Y56.977 E28.25266
G1 X116.959 Y57.25 E28.32341
G1 X117.52 Y57.633 E28.3957
G1 X118.576 Y58.393 E28.53418
G1 X118.965 Y58.74 E28.58966
G1 X119.259 Y59.183 E28.64625
G1 X119.439 Y59.677 E28.7022
G1 X119.491 Y60.137 E28.75148
G1 X119.5 Y60.631 E28.80406
G1 X119.5 Y72.661 E30.08444
G1 X119.539 Y75.419 E30.37801
G1 X119.657 Y78.201 E30.67437
G1 X119.849 Y80.919 E30.96438
G1 X120.122 Y83.671 E31.25872
G1 X120.48 Y86.473 E31.55937
G1 X120.906 Y89.177 E31.85071
G1 X121.41 Y91.891 E32.14451
G1 X121.986 Y94.575 E32.43667
G1 X122.193 Y95.418 E32.52906
G1 X122.448 Y96.534 E32.6509
G1 X122.489 Y96.886 E32.68862
G1 X122.5 Y97.262 E32.72866
G1 X122.5 Y122.356 E35.39947
G1 X122.484 Y123.165 E35.48559
G1 X122.427 Y123.568 E35.52891
G1 X122.101 Y124.901 E35.67497
G1 X121.478 Y127.6 E35.96978
G1 X120.927 Y130.352 E36.2685
G1 X120.46 Y133.078 E36.56286
G1 X120.07 Y135.817 E36.85732
G1 X119.762 Y138.526 E37.1475
G1 X119.529 Y141.259 E37.43943
G1 X119.369 Y144.082 E37.74038
G1 X119.291 Y146.819 E38.0318
G1 X119.281 Y148.232 E38.18219
G1 X119.281 Y159.16 E39.34529
G1 X119.264 Y159.959 E39.43034
G1 X119.206 Y160.384 E39.476
G1 X119.017 Y160.871 E39.5316
G1 X118.713 Y161.304 E39.58791
G1 X118.353 Y161.62 E39.63889
G1 X117.709 Y162.08 E39.72312
G1 X117.172 Y162.443 E39.79211
G1 X116.693 Y162.697 E39.84981
G1 X116.068 Y162.817 E39.91755
G1 X115.616 Y162.83 E39.96568
G1 X104.724 Y162.83 E41.12494
G1 X103.923 Y162.812 E41.21021
G1 X103.474 Y162.751 E41.25844
G1 X102.863 Y162.472 E41.32993
G1 X102.224 Y162.031 E41.41256
G1 X101.627 Y161.592 E41.49143
G1 X101.239 Y161.236 E41.54748
G1 X100.953 Y160.795 E41.60342
G1 X100.779 Y160.306 E41.65866
G1 X100.731 Y159.887 E41.70355
G1 X100.722 Y159.565 E41.73783
G1 X100.72 Y148.182 E42.94935
G1 X100.681 Y145.424 E43.24292
G1 X100.563 Y142.643 E43.53918
G1 X100.369 Y139.901 E43.83175
G1 X100.098 Y137.172 E44.12363
G1 X99.74 Y134.366 E44.4247
G1 X99.313 Y131.656 E44.71669
G1 X98.81 Y128.952 E45.00942
G1 X98.22 Y126.21 E45.30794
G1 X97.572 Y123.56 E45.59829
G1 X97.517 Y123.183 E45.63884
G1 X97.5 Y122.719 E45.68826
G1 X97.499 Y97.627 E48.35886
G1 X97.509 Y96.918 E48.43433
G1 X97.573 Y96.421 E48.48767
G1 X97.682 Y95.98 E48.53601
G1 X98.301 Y93.296 E48.82918
G1 X98.852 Y90.545 E49.12779
G1 X99.319 Y87.819 E49.42215
G1 X99.709 Y85.08 E49.71661
G1 X100.018 Y82.356 E50.00839
G1 X100.252 Y79.623 E50.30033
G1 X100.411 Y76.815 E50.59968
G1 X100.489 Y74.078 E50.8911
G1 X100.499 Y72.66 E51.04202
G1 X100.499 Y60.849 E52.2991
G1 X100.516 Y60.05 E52.38416
G1 X100.574 Y59.625 E52.42981
G1 X100.763 Y59.138 E52.48541
G0 F6000 X101.475 Y59.516
G1 F900 X101.667 Y59.242 E52.52102
G1 X101.89 Y59.042 E52.5529
G1 X102.81 Y58.38 E52.67353
G1 X103.426 Y57.956 E52.75312
G1 X103.722 Y57.801 E52.78869
G1 X104.196 Y57.709 E52.84008
G1 X104.715 Y57.7 E52.89532
G1 X115.098 Y57.7 E54.00041
G1 X115.801 Y57.71 E54.07524
G1 X116.132 Y57.755 E54.11079
G1 X116.567 Y57.951 E54.16158
G1 X117.053 Y58.282 E54.22416
G1 X118.109 Y59.042 E54.36263
G1 X118.355 Y59.268 E54.39819
G1 X118.54 Y59.546 E54.43373
G1 X118.654 Y59.86 E54.46928
G1 X118.691 Y60.152 E54.50061
G1 X118.7 Y60.646 E54.5532
G1 X118.7 Y72.661 E55.83198
G1 X118.739 Y75.43 E56.12672
G1 X118.859 Y78.257 E56.42788
G1 X119.053 Y80.998 E56.72034
G1 X119.328 Y83.772 E57.01703
G1 X119.686 Y86.574 E57.31768
G1 X120.119 Y89.323 E57.61387
G1 X120.623 Y92.037 E57.90766
G1 X121.209 Y94.766 E58.20474
G1 X121.414 Y95.598 E58.29594
G1 X121.654 Y96.635 E58.40923
G1 X121.689 Y96.909 E58.43863
G1 X121.7 Y97.285 E58.47866
G1 X121.7 Y122.345 E61.14586
G1 X121.69 Y123.064 E61.22239
G1 X121.65 Y123.378 E61.25608
G1 X121.321 Y124.721 E61.40325
G1 X120.699 Y127.42 E61.69804
G1 X120.138 Y130.217 E62.00166
G1 X119.671 Y132.943 E62.29602
G1 X119.278 Y135.704 E62.59284
G1 X118.967 Y138.436 E62.88549
G1 X118.73 Y141.214 E63.18223
G1 X118.57 Y144.037 E63.48318
G1 X118.491 Y146.796 E63.77694
G1 X118.481 Y148.226 E63.92914
G1 X118.481 Y159.149 E65.09171
G1 X118.471 Y159.851 E65.16643
G1 X118.426 Y160.182 E65.20198
G1 X118.305 Y160.493 E65.2375
G1 X118.113 Y160.767 E65.27311
G1 X117.887 Y160.969 E65.30537
G1 X117.261 Y161.417 E65.3873
G1 X116.724 Y161.78 E65.45629
G1 X116.427 Y161.933 E65.49185
G1 X115.98 Y162.019 E65.5403
G1 X115.593 Y162.03 E65.5815
G1 X104.736 Y162.03 E66.73704
G1 X104.031 Y162.019 E66.81208
G1 X103.7 Y161.974 E66.84764
G1 X103.258 Y161.772 E66.89936
G1 X102.698 Y161.386 E66.97175
G1 X102.101 Y160.947 E67.05062
G1 X101.857 Y160.718 E67.08623
G1 X101.675 Y160.438 E67.12178
G1 X101.563 Y160.123 E67.15736
G1 X101.531 Y159.863 E67.18524
G1 X101.522 Y159.565 E67.21697
G1 X101.52 Y148.182 E68.42849
G1 X101.481 Y145.413 E68.72323
G1 X101.361 Y142.587 E69.02428
G1 X101.167 Y139.845 E69.31685
G1 X100.892 Y137.07 E69.61365
G1 X100.533 Y134.264 E69.91473
G1 X100.1 Y131.51 E70.21145
G1 X99.597 Y128.806 E70.50418
G1 X99.002 Y126.042 E70.80509
G1 X98.349 Y123.37 E71.09785
G1 X98.31 Y123.077 E71.12931
G1 X98.3 Y122.719 E71.16743
G1 X98.299 Y97.638 E73.83686
G1 X98.309 Y96.929 E73.91233
G1 X98.35 Y96.613 E73.94624
G1 X98.459 Y96.172 E73.99459
G1 X99.08 Y93.476 E74.28905
G1 X99.641 Y90.68 E74.59256
G1 X100.108 Y87.954 E74.88692
G1 X100.501 Y85.193 E75.18375
G1 X100.813 Y82.446 E75.478
G1 X101.051 Y79.668 E75.77475
G1 X101.21 Y76.86 E76.07409
G1 X101.289 Y74.101 E76.36786
G1 X101.299 Y72.666 E76.52059
G1 X101.299 Y60.86 E77.77713
G1 X101.309 Y60.158 E77.85186
G1 X101.354 Y59.827 E77.88741
G1 X101.475 Y59.516 E77.92293
G1 F1500 E71.42293
G1 F300 Z0.52
G0 F6000 X103.099 Y60.381 Z0.52
G1 F300 Z0.32
G1 F1500 E77.92293
G1 F900 X104.345 Y59.5 E78.08534
G1 X115.657 Y59.5 E79.28931
G1 X116.9 Y60.379 E79.45134
G1 X116.901 Y94.75 E83.10953
G1 X116.728 Y94.79 E83.12843
G1 X116.589 Y94.9 E83.14729
G1 X116.511 Y95.06 E83.16624
G1 X116.501 Y95.15 E83.17588
G1 X115.631 Y95.15 E83.26847
G1 X115.336 Y95.164 E83.2999
G1 X115.302 Y95.167 E83.30354
G1 X114.752 Y95.24 E83.36259
G1 X114.586 Y95.302 E83.38145
G1 X114.462 Y95.43 E83.40042
G1 X114.453 Y95.461 E83.40385
G1 X105.806 Y95.461 E84.32417
G1 X105.717 Y95.349 E84.3394
G1 X105.542 Y95.268 E84.35992
G1 X105.129 Y95.189 E84.40468
G1 X105.087 Y95.183 E84.40919
G1 X104.697 Y95.151 E84.45084
G1 X104.664 Y95.15 E84.45435
G1 X103.499 Y95.15 E84.57835
G1 X103.46 Y94.977 E84.59722
G1 X103.349 Y94.838 E84.61615
G1 X103.189 Y94.76 E84.6351
G1 X103.099 Y94.75 E84.64474
G1 X103.099 Y60.381 E88.30271
G0 F6000 X103.899 Y60.795
G1 F900 X104.599 Y60.3 E88.39396
G1 X115.403 Y60.3 E89.54386
G1 X116.1 Y60.793 E89.63472
G1 X116.101 Y94.263 E93.19702
G1 X116.061 Y94.293 E93.20234
G1 X116.016 Y94.35 E93.21007
G1 X115.65 Y94.35 E93.24902
G1 X115.593 Y94.351 E93.25509
G1 X115.298 Y94.365 E93.28652
G1 X115.197 Y94.374 E93.29731
G1 X114.647 Y94.447 E93.35637
G1 X114.348 Y94.527 E93.38931
G1 X114.115 Y94.661 E93.41792
G1 X106.12 Y94.661 E94.26884
G1 X106.081 Y94.63 E94.27415
G1 X105.692 Y94.482 E94.31844
G1 X105.279 Y94.403 E94.3632
G1 X105.152 Y94.386 E94.37683
G1 X104.762 Y94.354 E94.41848
G1 X104.664 Y94.35 E94.42892
G1 X103.986 Y94.35 E94.50108
G1 X103.956 Y94.31 E94.5064
G1 X103.899 Y94.265 E94.51413
G1 X103.899 Y60.795 E98.07643
G0 F6000 X104.699 Y61.208
G1 F900 X104.852 Y61.1 E98.09636
G1 X115.149 Y61.1 E99.19229
G1 X115.3 Y61.207 E99.21199
G1 X115.301 Y93.564 E102.65583
G1 X115.26 Y93.566 E102.66019
G1 X115.092 Y93.581 E102.67815
G1 X114.542 Y93.654 E102.7372
G1 X114.153 Y93.746 E102.77974
G1 X113.905 Y93.861 E102.80884
G1 X106.317 Y93.861 E103.61645
G1 X106.191 Y93.797 E103.63149
G1 X105.843 Y93.697 E103.67002
G1 X105.43 Y93.618 E103.71478
G1 X105.218 Y93.589 E103.73755
G1 X104.828 Y93.557 E103.7792
G1 X104.699 Y93.551 E103.79294
G1 X104.699 Y61.208 E107.23529
G0 F6000 X105.499 Y61.9
G1 F900 X114.5 Y61.9 E108.19329
G1 X114.501 Y92.853 E111.48769
G1 X114.437 Y92.861 E111.49456
G1 X113.975 Y92.963 E111.54491
G1 X113.734 Y93.061 E111.5726
G1 X106.5 Y93.061 E112.34253
G1 X105.993 Y92.911 E112.39881
G1 X105.58 Y92.832 E112.44356
G1 X105.499 Y92.821 E112.45226
G1 X105.499 Y61.9 E115.74326
G0 F6000 X106.299 Y62.7
G1 F900 X113.7 Y62.7 E116.53096
G1 X113.701 Y92.217 E119.67253
G1 X113.583 Y92.261 E119.68593
G1 X106.61 Y92.261 E120.42809
G1 X106.299 Y92.17 E120.46258
G1 X106.299 Y62.7 E123.59914
G1 F1500 E117.09914
G1 F300 Z0.52
G0 F6000 X104.119 Y124.45 Z0.52
G1 F300 Z0.32
G1 F1500 E123.59914
G1 F900 X114.898 Y124.45 E124.74637
G1 X114.99 Y124.566 E124.76213
G1 X115.159 Y124.646 E124.78203
G1 X115.546 Y124.726 E124.82409
G1 X115.627 Y124.734 E124.83276
G1 X116.009 Y124.734 E124.87341
G1 X116.031 Y124.762 E124.8772
G1 X116.191 Y124.84 E124.89615
G1 X116.281 Y124.85 E124.90579
G1 X116.321 Y125.023 E124.92468
G1 X116.431 Y125.162 E124.94355
G1 X116.591 Y125.24 E124.9625
G1 X116.681 Y125.25 E124.97213
G1 X116.681 Y159.627 E128.63096
G1 X115.816 Y160.23 E128.74319
G1 X104.179 Y160.23 E129.98174
G1 X103.32 Y159.617 E130.09406
G1 X103.319 Y125.25 E133.75182
G1 X103.492 Y125.211 E133.7707
G1 X103.631 Y125.1 E133.78963
G1 X103.709 Y124.94 E133.80857
G1 X103.719 Y124.85 E133.81821
G1 X103.892 Y124.811 E133.83709
G1 X104.031 Y124.7 E133.85602
G1 X104.109 Y124.54 E133.87496
G1 X104.119 Y124.45 E133.8846
G0 F6000 X104.604 Y125.25
G1 F900 X114.581 Y125.25 E134.94648
G1 X114.626 Y125.285 E134.95255
G1 X114.997 Y125.429 E134.9949
G1 X115.384 Y125.509 E135.03696
G1 X115.627 Y125.534 E135.06296
G1 X115.707 Y125.534 E135.07148
G1 X115.824 Y125.69 E135.09223
G1 X115.881 Y125.735 E135.09996
G1 X115.881 Y159.21 E138.66279
G1 X115.566 Y159.43 E138.70368
G1 X104.435 Y159.43 E139.88838
G1 X104.12 Y159.205 E139.92958
G1 X104.119 Y125.737 E143.49166
G1 X104.159 Y125.707 E143.49698
G1 X104.349 Y125.465 E143.52973
G1 X104.559 Y125.307 E143.5577
G1 X104.604 Y125.25 E143.56543
G0 F6000 X104.919 Y126.05
G1 F900 X114.382 Y126.05 E144.5726
G1 X114.516 Y126.118 E144.58859
G1 X114.835 Y126.213 E144.62402
G1 X115.081 Y126.264 E144.65076
G1 X115.081 Y158.63 E148.09555
G1 X104.92 Y158.63 E149.17701
G1 X104.919 Y126.05 E152.64458
G0 F6000 X105.719 Y126.85
G1 F900 X114.193 Y126.85 E153.54649
G1 X114.281 Y126.877 E153.55628
G1 X114.281 Y157.83 E156.85069
G1 X105.72 Y157.83 E157.76185
G1 X105.719 Y126.85 E161.05913
G0 F6000 X106.519 Y127.65
G1 F900 X113.481 Y127.65 E161.80011
G1 X113.481 Y157.03 E164.9271
G1 X106.52 Y157.03 E165.66797
G1 X106.519 Y127.65 E168.79496
G1 F1500 E162.29496
G1 F300 Z0.52
G0 F6000 X107.719 Y128.85 Z0.52
;TYPE:SUPPORT
G1 F300 Z0.32
G1 F1500 E168.79496
G1 F900 X107.959 Y128.77 E168.82189
G1 X108.119 Y128.45 E168.85996
G1 X111.881 Y128.45 E169.26036
G1 X112.041 Y128.77 E169.29844
G1 X112.281 Y128.85 E169.32537
G1 X112.361 Y129.09 E169.35229
G1 X112.681 Y129.25 E169.39037
G1 X112.681 Y156.23 E172.26192
G1 X107.32 Y156.23 E172.8325
G1 X107.319 Y129.25 E175.70405
G1 X107.639 Y129.09 E175.74213
G1 X107.719 Y128.85 E175.76905
G1 F1500 E169.26905
G1 F300 Z0.52
G0 F6000 X112 Y128.917 Z0.52
G1 F300 Z0.32
G1 F1500 E175.76905
G1 F900 X112 Y156.07 E178.65901
G1 F1500 E172.15901
G1 F300 Z0.52
G0 F6000 X112.52 Y144 Z0.52
G1 F300 Z0.32
G1 F1500 E178.65901
G1 F900 X107.478 Y144 E179.19564
G1 F1500 E172.69564
G1 F300 Z0.52
G0 F6000 X107.499 Y91.461 Z0.52
G1 F300 Z0.32
G1 F1500 E179.19564
G1 F900 X107.499 Y91.15 E179.22875
G1 X107.414 Y90.902 E179.25665
G1 X107.099 Y90.75 E179.29387
G1 X107.099 Y63.5 E182.19416
G1 X112.9 Y63.5 E182.81157
G1 X112.901 Y90.75 E185.71186
G1 X112.586 Y90.902 E185.74908
G1 X112.501 Y91.15 E185.77698
G1 X112.501 Y91.461 E185.81008
G1 X107.499 Y91.461 E186.34246
G1 F1500 E179.84246
G1 F300 Z0.52
G0 F6000 X112 Y91.301 Z0.52
G1 F300 Z0.32
G1 F1500 E186.34246
G1 F900 X112 Y63.66 E189.28436
G0 F6000 X112.741 Y64
G1 F900 X107.259 Y64 E189.86782
G1 F1500 E183.36782
G1 F300 Z0.52
G0 F6000 X107.259 Y80 Z0.52
G1 F300 Z0.32
G1 F1500 E189.86782
G1 F900 X112.741 Y80 E190.45128
G1 F1500 E183.95128
G1 F300 Z0.52
;MESH:AufsatzT-St??ck 2 teilig v4.stl
G0 F6000 X116.06 Y118.81 Z0.52
