;FLAVOR:Marlin
;TIME:1444
;Filament used: 3.09813m
;Layer height: 0.32
;MINX:75.5
;MINY:75.5
;MINZ:0.32
;MAXX:144.5
;MAXY:144.5
;MAXZ:5.12
;TARGET_MACHINE.NAME:Creality Ender-3 Pro
;Generated with Cura_SteamEngine 5.5.0
M82 ;absolute extrusion mode
; Ender 3 Custom Start G-code
G92 E0 ; Reset Extruder
G28 ; Home all axes
G1 Z5.0 F3000 ; Move Z Axis up a bit during heating to not damage bed
M104 S120 ; Start heating up the nozzle most of the way
M190 S70 ; Start heating the bed, wait until target temperature reached
M109 S230 ; Finish heating the nozzle
G1 Z2.0 F3000 ; Move Z Axis up little to prevent scratching of Heat Bed
G1 X0.1 Y20 Z0.3 F5000.0 ; Move to start position
G1 X0.1 Y200.0 Z0.3 F1500.0 E15 ; Draw the first line
G1 X0.4 Y200.0 Z0.3 F5000.0 ; Move to side a little
G1 X0.4 Y20 Z0.3 F1500.0 E30 ; Draw the second line
G92 E0 ; Reset Extruder
G1 Z2.0 F3000 ; Move Z Axis up little to prevent scratching of Heat Bed
G1 X5 Y20 Z0.3 F5000.0 ; Move over to prevent blob squish
G92 E0
G92 E0
G1 F1500 E-6.5
;LAYER_COUNT:16
;LAYER:0
M107
G0 F6000 X79.123 Y78.927 Z0.32
;TYPE:SKIRT
G1 F1500 E0
G1 F900 X80.02 Y78.134 E0.12743
G1 X80.868 Y77.515 E0.23917
G1 X81.707 Y77.006 E0.34362
G1 X82.65 Y76.538 E0.45566
G1 X83.696 Y76.132 E0.57508
G1 X84.64 Y75.858 E0.6797
G1 X85.769 Y75.638 E0.80212
G1 X87.126 Y75.516 E0.94713
G1 X87.794 Y75.5 E1.01825
G1 X131.814 Y75.5 E5.70341
G1 X132.734 Y75.513 E5.80134
G1 X133.644 Y75.566 E5.89835
G1 X134.825 Y75.741 E6.02542
G1 X135.78 Y75.971 E6.12997
G1 X136.843 Y76.329 E6.24935
G1 X137.806 Y76.752 E6.3613
G1 X138.607 Y77.187 E6.45831
G1 X139.602 Y77.846 E6.58533
G1 X140.419 Y78.504 E6.69698
G1 X141.081 Y79.132 E6.7941
G1 X141.871 Y80.028 E6.92124
G1 X142.489 Y80.876 E7.03292
G1 X142.997 Y81.714 E7.13722
G1 X143.436 Y82.593 E7.24179
G1 X143.872 Y83.708 E7.36921
G1 X144.145 Y84.652 E7.4738
G1 X144.363 Y85.778 E7.59587
G1 X144.484 Y87.126 E7.73992
G1 X144.5 Y87.83 E7.81487
G1 X144.499 Y131.913 E12.50673
G1 X144.488 Y132.712 E12.59177
G1 X144.43 Y133.692 E12.69626
G1 X144.266 Y134.799 E12.81537
G1 X144.057 Y135.686 E12.91236
G1 X143.682 Y136.82 E13.03948
G1 X143.321 Y137.657 E13.1365
G1 X142.827 Y138.584 E13.24829
G1 X142.168 Y139.585 E13.37585
G1 X141.512 Y140.402 E13.48737
G1 X140.835 Y141.113 E13.59186
G1 X140.048 Y141.811 E13.70382
G1 X139.142 Y142.478 E13.82356
G1 X138.303 Y142.988 E13.92806
G1 X137.298 Y143.485 E14.04739
G1 X136.449 Y143.818 E14.14445
G1 X135.304 Y144.155 E14.27148
G1 X134.243 Y144.36 E14.3865
G1 X132.874 Y144.484 E14.5328
G1 X132.17 Y144.5 E14.60775
G1 X88.052 Y144.499 E19.30333
G1 X87.281 Y144.488 E19.3854
G1 X86.234 Y144.422 E19.49706
G1 X85.263 Y144.278 E19.60153
G1 X84.173 Y144.017 E19.72082
G1 X83.307 Y143.731 E19.81789
G1 X82.21 Y143.256 E19.94512
G1 X81.287 Y142.752 E20.05705
G1 X80.526 Y142.25 E20.15408
G1 X79.594 Y141.509 E20.28081
G1 X78.932 Y140.882 E20.37785
G1 X78.139 Y139.987 E20.50512
G1 X77.558 Y139.196 E20.60958
G1 X77.045 Y138.362 E20.71379
G1 X76.512 Y137.291 E20.84112
G1 X76.134 Y136.31 E20.95301
G1 X75.86 Y135.367 E21.05753
G1 X75.639 Y134.234 E21.18039
G1 X75.513 Y132.805 E21.33307
G1 X75.5 Y132.158 E21.40195
G1 X75.501 Y88.011 E26.10062
G1 X75.512 Y87.274 E26.17907
G1 X75.578 Y86.226 E26.29083
G1 X75.71 Y85.324 E26.38785
G1 X75.987 Y84.162 E26.51499
G1 X76.299 Y83.231 E26.6195
G1 X76.748 Y82.202 E26.73899
G1 X77.252 Y81.282 E26.85064
G1 X77.754 Y80.521 E26.94767
G1 X78.496 Y79.589 E27.07446
G1 X79.123 Y78.927 E27.17151
G0 F6000 X79.704 Y79.477
G1 F900 X80.493 Y78.779 E27.28363
G1 X81.285 Y78.198 E27.38817
G1 X82.063 Y77.723 E27.48519
G1 X83.006 Y77.255 E27.59723
G1 X83.921 Y76.9 E27.70169
G1 X84.796 Y76.643 E27.79875
G1 X85.842 Y76.435 E27.91226
G1 X87.145 Y76.316 E28.05152
G1 X87.813 Y76.3 E28.12264
G1 X131.803 Y76.3 E32.8046
G1 X132.687 Y76.312 E32.8987
G1 X133.597 Y76.365 E32.99571
G1 X134.638 Y76.519 E33.10772
G1 X135.593 Y76.749 E33.21226
G1 X136.523 Y77.062 E33.3167
G1 X137.424 Y77.455 E33.42132
G1 X138.225 Y77.89 E33.51834
G1 X139.102 Y78.47 E33.63024
G1 X139.868 Y79.084 E33.73473
G1 X140.53 Y79.712 E33.83185
G1 X141.226 Y80.501 E33.94383
G1 X141.806 Y81.293 E34.04831
G1 X142.281 Y82.071 E34.14532
G1 X142.72 Y82.95 E34.2499
G1 X143.103 Y83.93 E34.36188
G1 X143.376 Y84.874 E34.46647
G1 X143.566 Y85.851 E34.57241
G1 X143.684 Y87.145 E34.7107
G1 X143.7 Y87.83 E34.78363
G1 X143.699 Y131.903 E39.47442
G1 X143.689 Y132.665 E39.55553
G1 X143.631 Y133.645 E39.66002
G1 X143.487 Y134.616 E39.76449
G1 X143.278 Y135.503 E39.86149
G1 X142.947 Y136.503 E39.9736
G1 X142.586 Y137.34 E40.07061
G1 X142.122 Y138.206 E40.17518
G1 X141.543 Y139.086 E40.2873
G1 X140.931 Y139.852 E40.39165
G1 X140.304 Y140.514 E40.48869
G1 X139.517 Y141.212 E40.60065
G1 X138.726 Y141.794 E40.70517
G1 X137.887 Y142.304 E40.80967
G1 X137.006 Y142.74 E40.9143
G1 X136.157 Y143.073 E41.01136
G1 X135.149 Y143.37 E41.1232
G1 X134.17 Y143.563 E41.22941
G1 X132.855 Y143.684 E41.36996
G1 X132.17 Y143.7 E41.44288
G1 X88.063 Y143.699 E46.1373
G1 X87.329 Y143.689 E46.21543
G1 X86.349 Y143.63 E46.31992
G1 X85.447 Y143.499 E46.41693
G1 X84.424 Y143.257 E46.52881
G1 X83.558 Y142.971 E46.62588
G1 X82.592 Y142.553 E46.73791
G1 X81.728 Y142.084 E46.84254
G1 X80.967 Y141.582 E46.93957
G1 X80.144 Y140.928 E47.05145
G1 X79.482 Y140.301 E47.1485
G1 X78.784 Y139.513 E47.26054
G1 X78.203 Y138.722 E47.36499
G1 X77.727 Y137.944 E47.46207
G1 X77.258 Y137.001 E47.57416
G1 X76.902 Y136.085 E47.67876
G1 X76.645 Y135.21 E47.77582
G1 X76.436 Y134.163 E47.88945
G1 X76.313 Y132.789 E48.03628
G1 X76.3 Y132.158 E48.10345
G1 X76.301 Y88.022 E52.80095
G1 X76.311 Y87.322 E52.87546
G1 X76.37 Y86.342 E52.97995
G1 X76.502 Y85.44 E53.07698
G1 X76.746 Y84.416 E53.18902
G1 X77.058 Y83.485 E53.29352
G1 X77.45 Y82.585 E53.398
G1 X77.92 Y81.723 E53.5025
G1 X78.422 Y80.962 E53.59953
G1 X79.077 Y80.139 E53.71148
G1 X79.704 Y79.477 E53.80852
G0 F6000 X80.285 Y80.027
G1 F900 X80.968 Y79.423 E53.90556
G1 X81.702 Y78.881 E54.00267
G1 X82.48 Y78.406 E54.09969
G1 X83.297 Y78 E54.19679
G1 X84.146 Y77.668 E54.29382
G1 X85.021 Y77.411 E54.39088
G1 X85.915 Y77.232 E54.48792
G1 X87.218 Y77.113 E54.62718
G1 X87.83 Y77.1 E54.69233
G1 X131.793 Y77.1 E59.37142
G1 X132.64 Y77.111 E59.46157
G1 X133.55 Y77.164 E59.55859
G1 X134.453 Y77.297 E59.65574
G1 X135.34 Y77.508 E59.75278
G1 X136.205 Y77.796 E59.84981
G1 X137.042 Y78.158 E59.94687
G1 X137.843 Y78.593 E60.04388
G1 X138.604 Y79.096 E60.14097
G1 X139.317 Y79.664 E60.23799
G1 X139.979 Y80.292 E60.33511
G1 X140.582 Y80.976 E60.43216
G1 X141.123 Y81.71 E60.52921
G1 X141.598 Y82.488 E60.62623
G1 X142.003 Y83.305 E60.72328
G1 X142.335 Y84.155 E60.8204
G1 X142.591 Y85.03 E60.91743
G1 X142.769 Y85.924 E61.01445
G1 X142.887 Y87.218 E61.15275
G1 X142.9 Y87.83 E61.2179
G1 X142.899 Y131.893 E65.90763
G1 X142.89 Y132.62 E65.98501
G1 X142.839 Y133.53 E66.08202
G1 X142.708 Y134.433 E66.17913
G1 X142.499 Y135.32 E66.27613
G1 X142.212 Y136.186 E66.37323
G1 X141.851 Y137.023 E66.47024
G1 X141.418 Y137.826 E66.56734
G1 X140.917 Y138.588 E66.6644
G1 X140.35 Y139.302 E66.76144
G1 X139.723 Y139.964 E66.85849
G1 X139.041 Y140.569 E66.95552
G1 X138.308 Y141.112 E67.05261
G1 X137.53 Y141.588 E67.14968
G1 X136.714 Y141.995 E67.24673
G1 X135.865 Y142.328 E67.3438
G1 X134.991 Y142.586 E67.44079
G1 X134.097 Y142.766 E67.53785
G1 X132.782 Y142.887 E67.6784
G1 X132.17 Y142.9 E67.74355
G1 X88.073 Y142.899 E72.4369
G1 X87.375 Y142.89 E72.51119
G1 X86.464 Y142.838 E72.60831
G1 X85.562 Y142.707 E72.70532
G1 X84.675 Y142.497 E72.80234
G1 X83.809 Y142.211 E72.8994
G1 X82.972 Y141.849 E72.99646
G1 X82.169 Y141.416 E73.09356
G1 X81.408 Y140.914 E73.19059
G1 X80.694 Y140.347 E73.28763
G1 X80.032 Y139.72 E73.38468
G1 X79.427 Y139.037 E73.48179
G1 X78.885 Y138.304 E73.57881
G1 X78.409 Y137.526 E73.67589
G1 X78.003 Y136.709 E73.77299
G1 X77.67 Y135.86 E73.87005
G1 X77.413 Y134.985 E73.96711
G1 X77.233 Y134.091 E74.06417
G1 X77.113 Y132.772 E74.20514
G1 X77.1 Y132.158 E74.2705
G1 X77.101 Y88.033 E78.96683
G1 X77.11 Y87.368 E79.03761
G1 X77.162 Y86.458 E79.13463
G1 X77.294 Y85.556 E79.23165
G1 X77.505 Y84.668 E79.32879
G1 X77.792 Y83.803 E79.42579
G1 X78.154 Y82.966 E79.52285
G1 X78.588 Y82.164 E79.61991
G1 X79.09 Y81.403 E79.71694
G1 X79.658 Y80.689 E79.81404
G1 X80.285 Y80.027 E79.91109
G1 F1500 E73.41109
;MESH:Lampenhalter-Haupttra??gerKlemme.stl
G0 F6000 X130.5 Y130.5
;TYPE:WALL-INNER
G1 F1500 E79.91109
G1 F900 X130.5 Y89.5 E84.27482
G1 X125.476 Y89.501 E84.80954
G1 X125.478 Y90.257 E84.89
G1 X125.417 Y90.647 E84.93201
G1 X125.275 Y91.14 E84.98662
G1 X124.977 Y91.709 E85.05498
G1 X124.634 Y92.105 E85.11074
G1 X124.404 Y92.32 E85.14425
G1 X124.161 Y92.484 E85.17545
G1 X123.816 Y92.683 E85.21784
G1 X123.589 Y92.796 E85.24483
G1 X123.29 Y92.9 E85.27852
G1 X122.616 Y93.006 E85.35114
G1 X122.256 Y92.982 E85.38954
G1 X121.469 Y92.824 E85.47497
G1 X121.087 Y92.643 E85.51996
G1 X120.598 Y92.329 E85.58181
G1 X120.354 Y92.091 E85.61809
G1 X119.92 Y91.536 E85.69308
G1 X119.764 Y91.234 E85.72926
G1 X119.657 Y90.921 E85.76446
G1 X119.561 Y90.534 E85.8069
G1 X119.506 Y89.893 E85.87537
G1 X119.555 Y89.501 E85.91742
G1 X100.476 Y89.501 E87.94804
G1 X100.478 Y90.257 E88.02851
G1 X100.417 Y90.647 E88.07052
G1 X100.32 Y91.025 E88.11206
G1 X100.194 Y91.304 E88.14464
G1 X100.052 Y91.565 E88.17626
G1 X99.862 Y91.861 E88.2137
G1 X99.527 Y92.212 E88.26534
G1 X99.293 Y92.408 E88.29783
G1 X98.653 Y92.774 E88.3763
G1 X98.279 Y92.896 E88.41817
G1 X97.742 Y92.989 E88.47617
G1 X97.372 Y93.002 E88.51558
G1 X96.556 Y92.846 E88.604
G1 X96.244 Y92.725 E88.63961
G1 X96.009 Y92.595 E88.6682
G1 X95.757 Y92.433 E88.70008
G1 X95.492 Y92.229 E88.73568
G1 X95.248 Y91.963 E88.77409
G1 X95.007 Y91.647 E88.81639
G1 X94.864 Y91.432 E88.84387
G1 X94.746 Y91.193 E88.87224
G1 X94.657 Y90.921 E88.9027
G1 X94.561 Y90.534 E88.94514
G1 X94.506 Y89.893 E89.01361
G1 X94.555 Y89.501 E89.05566
G1 X89.5 Y89.5 E89.59368
G1 X89.5 Y130.5 E93.95741
G1 X130.5 Y130.5 E98.32114
G0 F6000 X131.3 Y131.3
G1 F900 X131.3 Y88.7 E102.85516
G1 X124.255 Y88.701 E103.60497
G1 X124.379 Y88.874 E103.62763
G1 X124.55 Y89.229 E103.66957
G1 X124.686 Y89.664 E103.71807
G1 X124.687 Y90.135 E103.7682
G1 X124.627 Y90.525 E103.8102
G1 X124.541 Y90.821 E103.84301
G1 X124.303 Y91.269 E103.897
G1 X123.931 Y91.693 E103.95703
G1 X123.325 Y92.042 E104.03146
G1 X123.101 Y92.12 E104.05671
G1 X122.63 Y92.196 E104.10749
G1 X122.364 Y92.19 E104.13581
G1 X121.772 Y92.073 E104.20003
G1 X121.488 Y91.951 E104.23293
G1 X121.151 Y91.734 E104.27559
G1 X120.948 Y91.555 E104.3044
G1 X120.591 Y91.095 E104.36637
G1 X120.462 Y90.845 E104.39631
G1 X120.337 Y90.339 E104.45178
G1 X120.295 Y89.846 E104.50445
G1 X120.411 Y89.28 E104.56594
G1 X120.637 Y88.848 E104.61783
G1 X120.749 Y88.7 E104.63758
G1 X99.255 Y88.701 E106.92524
G1 X99.379 Y88.874 E106.9479
G1 X99.55 Y89.229 E106.98983
G1 X99.686 Y89.664 E107.03834
G1 X99.687 Y90.135 E107.08847
G1 X99.627 Y90.525 E107.13047
G1 X99.553 Y90.809 E107.16171
G1 X99.293 Y91.284 E107.21934
G1 X98.919 Y91.697 E107.27864
G1 X98.235 Y92.094 E107.36281
G1 X97.656 Y92.194 E107.42535
G1 X97.39 Y92.193 E107.45366
G1 X96.769 Y92.073 E107.52098
G1 X96.534 Y91.981 E107.54784
G1 X96.074 Y91.686 E107.606
G1 X95.884 Y91.478 E107.63598
G1 X95.582 Y91.083 E107.68891
G1 X95.46 Y90.833 E107.71851
G1 X95.337 Y90.339 E107.7727
G1 X95.295 Y89.846 E107.82536
G1 X95.411 Y89.28 E107.88685
G1 X95.637 Y88.848 E107.93874
G1 X95.749 Y88.7 E107.95849
G1 X88.7 Y88.7 E108.70874
G1 X88.7 Y131.3 E113.24276
G1 X131.3 Y131.3 E117.77678
G0 F6000 X132.1 Y132.1
;TYPE:WALL-OUTER
G1 F900 X132.1 Y87.9 E122.48109
G1 X123.774 Y87.901 E123.36725
G1 F931.4 X122.394 Y87.873 E123.5092
G1 X121.321 Y87.9 E123.61958
G1 F900 X98.774 Y87.901 E126.01931
G1 F931.4 X97.394 Y87.873 E126.16126
G1 X96.321 Y87.9 E126.27164
G1 F900 X87.9 Y87.9 E127.16791
G1 X87.9 Y132.1 E131.87223
G1 X132.1 Y132.1 E136.57654
G1 F1500 E130.07654
G0 F6000 X122.505 Y91.405
G1 F1500 E136.57654
G1 F900 X121.936 Y91.287 E136.63839
G1 X121.559 Y91.045 E136.68607
G1 X121.227 Y90.605 E136.74473
G1 X121.095 Y90.074 E136.80297
G1 X121.141 Y89.672 E136.84603
G1 X121.278 Y89.328 E136.88544
G1 X121.56 Y88.95 E136.93564
G1 F914.9 X121.909 Y88.734 E136.97861
G1 F939.9 X122.354 Y88.614 E137.02558
G1 F944.9 X122.832 Y88.649 E137.07417
G1 F930.2 X123.32 Y88.857 E137.12879
G1 F910.2 X123.627 Y89.157 E137.17397
G1 F900 X123.829 Y89.576 E137.22347
G1 X123.907 Y89.941 E137.2632
G1 X123.826 Y90.467 E137.31984
G1 X123.622 Y90.837 E137.36481
G1 X123.41 Y91.065 E137.39795
G1 X122.944 Y91.336 E137.45532
G1 X122.505 Y91.405 E137.50262
G1 F1500 E131.00262
G0 F6000 X97.515 Y91.405
G1 F1500 E137.50262
G1 F900 X96.928 Y91.285 E137.56639
G1 X96.55 Y91.034 E137.61468
G1 X96.226 Y90.601 E137.67224
G1 X96.095 Y90.074 E137.73003
G1 X96.141 Y89.672 E137.7731
G1 X96.278 Y89.328 E137.81251
G1 X96.56 Y88.95 E137.8627
G1 F914.9 X96.909 Y88.734 E137.90568
G1 F939.9 X97.354 Y88.614 E137.95265
G1 F944.9 X97.832 Y88.649 E138.00123
G1 F930.2 X98.32 Y88.857 E138.05586
G1 F910.2 X98.627 Y89.157 E138.10103
G1 F900 X98.829 Y89.576 E138.15054
G1 X98.907 Y89.941 E138.19026
G1 X98.828 Y90.457 E138.24582
G1 X98.648 Y90.796 E138.28667
G1 X98.416 Y91.066 E138.32456
G1 X97.96 Y91.329 E138.38059
G1 X97.515 Y91.405 E138.42864
G1 F1500 E131.92864
G0 F6000 X129.78 Y129.78
;TYPE:SKIN
G1 F1500 E138.42864
G1 F900 X90.22 Y129.78 E142.6391
G1 X90.221 Y90.221 E146.84946
G1 X93.817 Y90.221 E147.23219
G1 X93.852 Y90.653 E147.27832
G1 X93.965 Y91.12 E147.32946
G1 X94.079 Y91.465 E147.36813
G1 X94.229 Y91.77 E147.40431
G1 X94.435 Y92.085 E147.44437
G1 X94.671 Y92.395 E147.48584
G1 X94.982 Y92.74 E147.53527
G1 X95.339 Y93.02 E147.58356
G1 X95.617 Y93.199 E147.61875
G1 X95.919 Y93.367 E147.65553
G1 X96.234 Y93.494 E147.69168
G1 X96.55 Y93.579 E147.72651
G1 X97.327 Y93.721 E147.81058
G1 X97.849 Y93.701 E147.86618
G1 X98.45 Y93.597 E147.93109
G1 X98.931 Y93.442 E147.98488
G1 X99.583 Y93.071 E148.06472
G1 X99.943 Y92.816 E148.11167
G1 X100.295 Y92.451 E148.16564
G1 X100.472 Y92.238 E148.19512
G1 X100.692 Y91.899 E148.23813
G1 X100.835 Y91.631 E148.27046
G1 X100.987 Y91.295 E148.30971
G1 X101.131 Y90.756 E148.36909
G1 X101.211 Y90.221 E148.42667
G1 X118.817 Y90.22 E150.30052
G1 X118.853 Y90.655 E150.34697
G1 X118.957 Y91.096 E150.3952
G1 X119.093 Y91.494 E150.43996
G1 X119.315 Y91.935 E150.49251
G1 X119.804 Y92.556 E150.57664
G1 X120.169 Y92.909 E150.63068
G1 X120.726 Y93.267 E150.70115
G1 X121.148 Y93.473 E150.75113
G1 X121.505 Y93.568 E150.79045
G1 X122.186 Y93.699 E150.86426
G1 X122.655 Y93.73 E150.91429
G1 X123.44 Y93.606 E150.99887
G1 X123.973 Y93.426 E151.05875
G1 X124.511 Y93.112 E151.12505
G1 X124.827 Y92.902 E151.16543
G1 X125.245 Y92.512 E151.22628
G1 X125.489 Y92.215 E151.26719
G1 X125.678 Y91.922 E151.30429
G1 X125.922 Y91.468 E151.35915
G1 X126.121 Y90.798 E151.43354
G1 X126.214 Y90.221 E151.49574
G1 X129.78 Y90.221 E151.87528
G1 X129.78 Y129.78 E156.08564
G1 F1500 E149.58564
G0 F6000 X129.379 Y90.912
G1 F1500 E156.08564
G1 F900 X129.087 Y90.621 E156.12952
G0 F6000 X127.955 Y90.62
G1 F900 X129.379 Y92.044 E156.34386
G0 F6000 X129.379 Y93.175
G1 F900 X126.824 Y90.62 E156.72843
G0 F6000 X126.384 Y91.311
G1 F900 X129.379 Y94.306 E157.17923
G0 F6000 X129.379 Y95.438
G1 F900 X126.036 Y92.095 E157.68242
G0 F6000 X125.559 Y92.749
G1 F900 X129.379 Y96.569 E158.25739
G0 F6000 X129.379 Y97.7
G1 F900 X124.967 Y93.289 E158.92141
G0 F6000 X124.264 Y93.717
G1 F900 X129.379 Y98.832 E159.69131
G0 F6000 X129.379 Y99.963
G1 F900 X123.428 Y94.012 E160.58704
G0 F6000 X122.396 Y94.112
G1 F900 X129.379 Y101.095 E161.63811
G0 F6000 X129.379 Y102.226
G1 F900 X120.993 Y93.84 E162.90035
G1 F1500 E156.40035
G0 F6000 X118.682 Y91.529
G1 F1500 E162.90035
G1 F900 X117.772 Y90.619 E163.03733
G0 F6000 X116.641 Y90.619
G1 F900 X129.379 Y103.357 E164.95463
G0 F6000 X129.379 Y104.489
G1 F900 X115.51 Y90.619 E167.04224
G0 F6000 X114.378 Y90.619
G1 F900 X129.379 Y105.62 E169.30016
G0 F6000 X129.379 Y106.751
G1 F900 X113.247 Y90.619 E171.72832
G0 F6000 X112.116 Y90.619
G1 F900 X129.379 Y107.883 E174.32679
G0 F6000 X129.379 Y109.014
