;FLAVOR:Marlin
;TIME:7077
;Filament used: 15.5016m
;Layer height: 0.32
;MINX:3.993
;MINY:50.103
;MINZ:0.32
;MAXX:218.744
;MAXY:142.211
;MAXZ:45.12
;TARGET_MACHINE.NAME:Creality Ender-3 Pro
;Generated with Cura_SteamEngine 5.5.0
M82 ;absolute extrusion mode
; Ender 3 Custom Start G-code
G92 E0 ; Reset Extruder
G28 ; Home all axes
G1 Z5.0 F3000 ; Move Z Axis up a bit during heating to not damage bed
M104 S120 ; Start heating up the nozzle most of the way
M190 S70 ; Start heating the bed, wait until target temperature reached
M109 S230 ; Finish heating the nozzle
G1 Z2.0 F3000 ; Move Z Axis up little to prevent scratching of Heat Bed
G1 X0.1 Y20 Z0.3 F5000.0 ; Move to start position
G1 X0.1 Y200.0 Z0.3 F1500.0 E15 ; Draw the first line
G1 X0.4 Y200.0 Z0.3 F5000.0 ; Move to side a little
G1 X0.4 Y20 Z0.3 F1500.0 E30 ; Draw the second line
G92 E0 ; Reset Extruder
G1 Z2.0 F3000 ; Move Z Axis up little to prevent scratching of Heat Bed
G1 X5 Y20 Z0.3 F5000.0 ; Move over to prevent blob squish
G92 E0
G92 E0
G1 F1500 E-6.5
;LAYER_COUNT:141
;LAYER:0
M107
G0 F6000 X46.904 Y57.243 Z0.32
;TYPE:SKIRT
G1 F1500 E0
G1 F900 X47.425 Y56.843 E0.06991
G1 X48.266 Y56.234 E0.18042
G1 X49.215 Y55.569 E0.30376
G1 X49.918 Y55.091 E0.39424
G1 X50.823 Y54.538 E0.50712
G1 X51.373 Y54.251 E0.57315
G1 X52.388 Y53.76 E0.69315
G1 X54.058 Y52.994 E0.8887
G1 X54.96 Y52.629 E0.99226
G1 X55.718 Y52.385 E1.07702
G1 X56.787 Y52.083 E1.19524
G1 X58.487 Y51.638 E1.38228
G1 X59.568 Y51.408 E1.4999
G1 X60.287 Y51.311 E1.57712
G1 X61.325 Y51.206 E1.68816
G1 X63.163 Y51.055 E1.88445
G1 X64.232 Y51.018 E1.99829
G1 X64.957 Y51.045 E2.07551
G1 X65.826 Y51.106 E2.16822
G1 X67.329 Y51.238 E2.32881
G1 X67.958 Y51.303 E2.39611
G1 X69.04 Y51.467 E2.51259
G1 X69.649 Y51.601 E2.57895
G1 X70.491 Y51.813 E2.67137
G1 X72.431 Y52.341 E2.88536
G1 X73.45 Y52.671 E2.99936
G1 X74.146 Y52.956 E3.0794
G1 X74.983 Y53.33 E3.17698
G1 X76.787 Y54.181 E3.38927
G1 X77.473 Y54.534 E3.47138
G1 X77.9 Y54.772 E3.52341
G1 X80.209 Y56.012 E3.80236
G1 X82.384 Y57.101 E4.06125
G1 X84.683 Y58.172 E4.33118
G1 X86.914 Y59.136 E4.58985
G1 X89.309 Y60.09 E4.86424
G1 X91.562 Y60.916 E5.11964
G1 X93.968 Y61.72 E5.38963
G1 X96.313 Y62.433 E5.6505
G1 X98.748 Y63.097 E5.91912
G1 X101.139 Y63.678 E6.18101
G1 X103.649 Y64.211 E6.45411
G1 X106.01 Y64.644 E6.70959
G1 X108.489 Y65.028 E6.97658
G1 X111.021 Y65.346 E7.24819
G1 X113.409 Y65.577 E7.50353
G1 X115.942 Y65.752 E7.77377
G1 X118.414 Y65.85 E8.03708
G1 X120.878 Y65.88 E8.29934
G1 X123.419 Y65.837 E8.56983
G1 X125.872 Y65.728 E8.83116
G1 X128.346 Y65.547 E9.09518
G1 X130.871 Y65.29 E9.36531
G1 X133.264 Y64.979 E9.62215
G1 X135.781 Y64.578 E9.89342
G1 X138.193 Y64.123 E10.15466
G1 X140.634 Y63.591 E10.42056
G1 X143.069 Y62.99 E10.6875
G1 X145.464 Y62.324 E10.95208
G1 X147.85 Y61.588 E11.21783
G1 X150.16 Y60.802 E11.47753
G1 X152.515 Y59.927 E11.74492
G1 X154.839 Y58.987 E12.01174
G1 X157.117 Y57.989 E12.27644
G1 X159.395 Y56.915 E12.54449
G1 X161.559 Y55.817 E12.80276
G1 X163.829 Y54.586 E13.0776
G1 X165.399 Y53.691 E13.26994
G1 X166.058 Y53.343 E13.34926
G1 X167.085 Y52.846 E13.47069
G1 X168.749 Y52.083 E13.66553
G1 X169.652 Y51.718 E13.76919
G1 X170.396 Y51.478 E13.85239
G1 X171.51 Y51.163 E13.97561
G1 X173.227 Y50.715 E14.16447
G1 X174.275 Y50.493 E14.27849
G1 X175 Y50.396 E14.35634
G1 X176.031 Y50.291 E14.46664
G1 X177.088 Y50.198 E14.57957
G1 X178.017 Y50.13 E14.67871
G1 X178.929 Y50.103 E14.77582
G1 X179.681 Y50.132 E14.85592
G1 X180.695 Y50.206 E14.96413
G1 X181.797 Y50.302 E15.08186
G1 X182.715 Y50.396 E15.18008
G1 X183.618 Y50.528 E15.27721
G1 X184.344 Y50.686 E15.35629
G1 X185.182 Y50.896 E15.44823
G1 X187.137 Y51.428 E15.66388
G1 X188.155 Y51.758 E15.77777
G1 X188.847 Y52.041 E15.85735
G1 X189.888 Y52.51 E15.97887
G1 X191.471 Y53.259 E16.16526
G1 X192.414 Y53.761 E16.27896
G1 X193.034 Y54.153 E16.35703
G1 X193.992 Y54.802 E16.48019
G1 X195.409 Y55.807 E16.66508
G1 X196.232 Y56.449 E16.77618
G1 X196.821 Y56.982 E16.86072
G1 X197.434 Y57.577 E16.95165
G1 X198.335 Y58.476 E17.08711
G1 X198.971 Y59.13 E17.18421
G1 X199.577 Y59.811 E17.28123
G1 X200.027 Y60.392 E17.35944
G1 X200.619 Y61.21 E17.46691
G1 X201.284 Y62.159 E17.59025
G1 X201.774 Y62.88 E17.68303
G1 X202.292 Y63.716 E17.7877
G1 X202.904 Y64.807 E17.92084
G1 X204.203 Y67.044 E18.19616
G1 X205.52 Y69.168 E18.46216
G1 X206.876 Y71.229 E18.72473
G1 X208.302 Y73.265 E18.98929
G1 X209.823 Y75.312 E19.26072
G1 X211.338 Y77.232 E19.52103
G1 X212.508 Y78.66 E19.71751
G1 X212.92 Y79.195 E19.78938
G1 X213.615 Y80.161 E19.91604
G1 X214.637 Y81.643 E20.10764
G1 X215.183 Y82.52 E20.21759
G1 X215.513 Y83.148 E20.2931
G1 X215.97 Y84.091 E20.40463
G1 X216.425 Y85.065 E20.51905
G1 X216.781 Y85.856 E20.61137
G1 X217.165 Y86.825 E20.72231
G1 X217.372 Y87.479 E20.79532
G1 X217.631 Y88.384 E20.8955
G1 X218.121 Y90.244 E21.10022
G1 X218.352 Y91.327 E21.21808
G1 X218.45 Y92.054 E21.29616
G1 X218.555 Y93.097 E21.40773
G1 X218.708 Y94.96 E21.60668
G1 X218.744 Y95.995 E21.7169
G1 X218.716 Y96.727 E21.79487
G1 X218.633 Y97.884 E21.91833
G1 X218.471 Y99.615 E22.10337
G1 X218.316 Y100.707 E22.22076
G1 X218.162 Y101.412 E22.29756
G1 X217.943 Y102.286 E22.39346
G1 X217.405 Y104.257 E22.61091
G1 X217.126 Y105.126 E22.70805
G1 X216.806 Y105.918 E22.79897
G1 X216.415 Y106.79 E22.90068
G1 X215.85 Y108.001 E23.04291
G1 X215.511 Y108.7 E23.12559
G1 X214.997 Y109.642 E23.2398
G1 X213.916 Y111.42 E23.46127
G1 X212.671 Y113.59 E23.72754
G1 X211.479 Y115.809 E23.99563
G1 X210.355 Y118.05 E24.26247
G1 X209.318 Y120.277 E24.52393
G1 X208.341 Y122.537 E24.78598
G1 X207.798 Y123.904 E24.94253
G1 X207.29 Y125.129 E25.08368
G1 X206.917 Y125.965 E25.18111
G1 X206.295 Y127.301 E25.33796
G1 X205.98 Y127.951 E25.41484
G1 X205.474 Y128.882 E25.52762
G1 X205.137 Y129.413 E25.59455
G1 X204.627 Y130.166 E25.69135
G1 X203.447 Y131.835 E25.9089
G1 X202.888 Y132.555 E26.00591
G1 X202.311 Y133.195 E26.09762
G1 X201.578 Y133.949 E26.20955
G1 X200.296 Y135.218 E26.40153
G1 X199.477 Y135.957 E26.51894
G1 X198.948 Y136.368 E26.59024
G1 X198.208 Y136.905 E26.68755
G1 X197.127 Y137.664 E26.82814
G1 X196.453 Y138.122 E26.91487
G1 X195.514 Y138.697 E27.03205
G1 X194.977 Y138.975 E27.09641
G1 X194.036 Y139.433 E27.2078
G1 X193.055 Y139.891 E27.32303
G1 X192.258 Y140.249 E27.41602
G1 X191.289 Y140.633 E27.52696
G1 X190.638 Y140.84 E27.59966
G1 X189.521 Y141.156 E27.72321
G1 X187.84 Y141.596 E27.90815
G1 X186.913 Y141.796 E28.00909
G1 X186.075 Y141.916 E28.09919
G1 X185.216 Y142.005 E28.1911
G1 X183.796 Y142.129 E28.34281
G1 X183.031 Y142.184 E28.42444
G1 X182.119 Y142.211 E28.52155
G1 X181.37 Y142.182 E28.60133
G1 X180.259 Y142.101 E28.71989
G1 X178.45 Y141.932 E28.91326
G1 X177.547 Y141.808 E29.01027
G1 X176.702 Y141.629 E29.1022
G1 X175.657 Y141.365 E29.21692
G1 X174.652 Y141.096 E29.32765
G1 X173.751 Y140.84 E29.42734
G1 X172.455 Y140.439 E29.57173
G1 X169.922 Y139.683 E29.85307
G1 X167.524 Y139.042 E30.11726
G1 X165.131 Y138.472 E30.37908
G1 X162.661 Y137.96 E30.64756
G1 X160.233 Y137.526 E30.91007
G1 X157.772 Y137.158 E31.17491
G1 X155.325 Y136.863 E31.43724
G1 X152.804 Y136.63 E31.7067
G1 X150.329 Y136.471 E31.97066
G1 X147.882 Y136.385 E32.23126
G1 X145.384 Y136.368 E32.49714
G1 X142.832 Y136.423 E32.76881
G1 X140.411 Y136.542 E33.0268
G1 X137.894 Y136.736 E33.29548
G1 X135.465 Y136.997 E33.5555
G1 X132.941 Y137.338 E33.82657
G1 X129.952 Y137.829 E34.14896
G1 X128.992 Y137.949 E34.25193
G1 X128.316 Y137.987 E34.32399
G1 X127.67 Y138 E34.39276
G1 X95.52 Y137.999 E37.81457
G1 X94.777 Y137.987 E37.89366
G1 X93.675 Y137.914 E38.0112
G1 X92.556 Y137.735 E38.13181
G1 X91.855 Y137.586 E38.20809
G1 X89.321 Y137.079 E38.48313
G1 X86.846 Y136.655 E38.75039
G1 X84.378 Y136.304 E39.01571
G1 X81.869 Y136.02 E39.28445
G1 X79.482 Y135.816 E39.53944
G1 X76.94 Y135.674 E39.81041
G1 X74.426 Y135.602 E40.07809
G1 X71.997 Y135.602 E40.33661
G1 X69.466 Y135.674 E40.6061
G1 X66.996 Y135.814 E40.86941
G1 X64.527 Y136.024 E41.13314
G1 X62.021 Y136.309 E41.40158
G1 X59.589 Y136.656 E41.66305
G1 X57.096 Y137.083 E41.93225
G1 X54.735 Y137.557 E42.18855
G1 X52.229 Y138.133 E42.46222
G1 X49.729 Y138.768 E42.73675
G1 X48.722 Y138.974 E42.84615
G1 X48.073 Y139.06 E42.91583
G1 X47.056 Y139.163 E43.02462
G1 X45.198 Y139.316 E43.22305
G1 X44.128 Y139.353 E43.337
G1 X43.383 Y139.324 E43.41635
G1 X42.285 Y139.244 E43.53352
G1 X40.492 Y139.077 E43.72518
G1 X39.431 Y138.927 E43.83923
G1 X38.708 Y138.769 E43.91799
G1 X37.886 Y138.562 E44.00821
G1 X35.888 Y138.016 E44.22866
G1 X35.019 Y137.738 E44.32577
G1 X34.221 Y137.416 E44.41736
G1 X33.218 Y136.965 E44.5344
G1 X31.586 Y136.192 E44.7266
G1 X30.644 Y135.69 E44.84021
G1 X30.024 Y135.3 E44.91817
G1 X29.072 Y134.653 E45.04067
G1 X27.655 Y133.648 E45.22557
G1 X26.785 Y132.966 E45.34323
G1 X26.242 Y132.472 E45.42136
G1 X25.472 Y131.722 E45.53576
G1 X24.145 Y130.377 E45.73686
G1 X23.247 Y129.346 E45.88238
G1 X22.75 Y128.703 E45.96887
G1 X21.167 Y126.715 E46.23935
G1 X19.523 Y124.766 E46.51072
G1 X17.864 Y122.908 E46.77583
G1 X16.217 Y121.165 E47.03107
G1 X14.351 Y119.299 E47.31193
G1 X12.254 Y117.271 E47.62242
G1 X10.985 Y115.989 E47.81441
G1 X10.246 Y115.17 E47.93182
G1 X9.835 Y114.641 E48.00311
G1 X9.298 Y113.901 E48.10043
G1 X8.539 Y112.82 E48.24101
G1 X8.081 Y112.146 E48.32774
G1 X7.506 Y111.208 E48.44484
G1 X7.224 Y110.665 E48.50996
G1 X6.766 Y109.72 E48.62173
G1 X6.311 Y108.746 E48.73615
G1 X5.941 Y107.922 E48.83228
G1 X5.571 Y106.988 E48.93921
G1 X5.362 Y106.33 E49.01269
G1 X5.039 Y105.186 E49.13921
G1 X4.614 Y103.563 E49.31777
G1 X4.384 Y102.482 E49.4354
G1 X4.287 Y101.766 E49.5123
G1 X4.198 Y100.899 E49.60506
G1 X4.03 Y98.866 E49.82218
G1 X3.993 Y97.795 E49.93623
G1 X4.021 Y97.067 E50.01377
G1 X4.102 Y95.952 E50.13276
G1 X4.271 Y94.143 E50.32613
G1 X4.395 Y93.24 E50.42314
G1 X4.575 Y92.394 E50.5152
G1 X4.855 Y91.287 E50.63673
G1 X5.32 Y89.589 E50.82411
G1 X5.651 Y88.571 E50.93804
G1 X5.912 Y87.932 E51.0115
G1 X6.28 Y87.11 E51.10736
G1 X7.163 Y85.239 E51.32756
G1 X7.588 Y84.432 E51.42463
G1 X8.052 Y83.688 E51.51795
G1 X8.542 Y82.966 E51.61082
G1 X9.32 Y81.854 E51.75527
G1 X9.796 Y81.196 E51.8417
G1 X10.361 Y80.481 E51.9387
G1 X10.866 Y79.924 E52.01872
G1 X11.472 Y79.3 E52.11129
G1 X12.933 Y77.853 E52.33015
G1 X13.656 Y77.2 E52.43384
G1 X14.279 Y76.715 E52.51787
G1 X15.227 Y76.033 E52.64217
G1 X16.712 Y75.008 E52.83421
G1 X17.485 Y74.523 E52.93134
G1 X18.205 Y74.138 E53.01824
G1 X19.115 Y73.696 E53.12591
G1 X20.261 Y73.164 E53.26039
G1 X20.992 Y72.836 E53.34566
G1 X22.101 Y72.371 E53.47365
G1 X23.081 Y71.979 E53.58599
G1 X25.337 Y71.003 E53.84761
G1 X27.61 Y69.942 E54.11459
G1 X29.852 Y68.818 E54.38152
G1 X32.013 Y67.654 E54.64276
G1 X34.2 Y66.397 E54.91124
G1 X36.315 Y65.101 E55.17524
G1 X38.409 Y63.736 E55.44128
G1 X40.458 Y62.314 E55.70673
G1 X42.449 Y60.848 E55.96989
G1 X44.37 Y59.347 E56.22936
G1 X46.18 Y57.835 E56.48037
G1 X46.904 Y57.243 E56.57991
G0 F6000 X47.392 Y57.877
G1 F900 X47.894 Y57.491 E56.64731
G1 X48.735 Y56.882 E56.75782
G1 X49.665 Y56.231 E56.87864
G1 X50.368 Y55.753 E56.96912
G1 X51.193 Y55.247 E57.07213
G1 X51.722 Y54.971 E57.13563
G1 X52.722 Y54.487 E57.25388
G1 X54.358 Y53.736 E57.44547
G1 X55.26 Y53.371 E57.54903
G1 X55.935 Y53.155 E57.62447
G1 X56.99 Y52.857 E57.74114
G1 X58.69 Y52.412 E57.92818
G1 X59.676 Y52.201 E58.03549
G1 X60.368 Y52.107 E58.10982
G1 X61.391 Y52.003 E58.21926
G1 X63.229 Y51.852 E58.41555
G1 X64.202 Y51.817 E58.51917
G1 X64.901 Y51.843 E58.59362
G1 X65.756 Y51.903 E58.68484
G1 X67.247 Y52.034 E58.84414
G1 X67.876 Y52.099 E58.91145
G1 X68.868 Y52.248 E59.01821
G1 X69.454 Y52.377 E59.08208
G1 X70.281 Y52.585 E59.17284
G1 X72.221 Y53.113 E59.38683
G1 X73.148 Y53.412 E59.49049
G1 X73.819 Y53.686 E59.56763
G1 X74.642 Y54.054 E59.66359
G1 X76.446 Y54.905 E59.87588
G1 X77.084 Y55.233 E59.95223
G1 X77.522 Y55.477 E60.0056
G1 X79.831 Y56.717 E60.28454
G1 X82.046 Y57.826 E60.54819
G1 X84.345 Y58.897 E60.81813
G1 X86.618 Y59.879 E61.08166
G1 X89.022 Y60.837 E61.35709
G1 X91.308 Y61.675 E61.61623
G1 X93.714 Y62.479 E61.88622
G1 X96.103 Y63.205 E62.15197
G1 X98.538 Y63.869 E62.4206
G1 X100.973 Y64.461 E62.68731
G1 X103.482 Y64.994 E62.96031
G1 X105.888 Y65.435 E63.22065
G1 X108.375 Y65.82 E63.4885
G1 X110.921 Y66.14 E63.76161
G1 X113.349 Y66.375 E64.02124
G1 X115.89 Y66.55 E64.29232
G1 X118.404 Y66.65 E64.5601
G1 X120.881 Y66.68 E64.82376
G1 X123.432 Y66.637 E65.0953
G1 X125.931 Y66.526 E65.36154
G1 X128.416 Y66.344 E65.62673
G1 X130.952 Y66.086 E65.89804
G1 X133.39 Y65.769 E66.15971
G1 X135.912 Y65.367 E66.43152
G1 X138.363 Y64.905 E66.69698
G1 X140.819 Y64.37 E66.96451
G1 X143.261 Y63.767 E67.23222
G1 X145.678 Y63.095 E67.49923
G1 X148.099 Y62.348 E67.76888
G1 X150.439 Y61.552 E68.03195
G1 X152.809 Y60.671 E68.30106
G1 X155.139 Y59.729 E68.56855
G1 X157.451 Y58.716 E68.8372
G1 X159.736 Y57.639 E69.10606
G1 X161.93 Y56.526 E69.3679
G1 X164.226 Y55.281 E69.64589
G1 X165.773 Y54.398 E69.83547
G1 X166.407 Y54.063 E69.91179
G1 X167.419 Y53.573 E70.03146
G1 X169.049 Y52.825 E70.22234
G1 X169.952 Y52.46 E70.326
G1 X170.614 Y52.248 E70.39999
G1 X171.712 Y51.937 E70.52145
G1 X173.429 Y51.489 E70.71031
G1 X174.382 Y51.286 E70.81402
G1 X175.081 Y51.192 E70.88908
G1 X176.101 Y51.088 E70.9982
G1 X177.147 Y50.996 E71.10996
G1 X178.041 Y50.93 E71.20537
G1 X178.953 Y50.903 E71.30248
G1 X179.623 Y50.93 E71.37385
G1 X180.626 Y51.003 E71.48088
G1 X181.716 Y51.098 E71.59733
G1 X182.599 Y51.188 E71.6918
G1 X183.502 Y51.32 E71.78893
G1 X184.15 Y51.462 E71.85954
G1 X184.972 Y51.668 E71.94973
G1 X186.927 Y52.2 E72.16537
G1 X187.853 Y52.499 E72.26894
G1 X188.519 Y52.771 E72.34551
G1 X189.546 Y53.233 E72.46536
G1 X191.129 Y53.982 E72.65175
G1 X191.987 Y54.438 E72.75517
G1 X192.585 Y54.815 E72.83041
G1 X193.529 Y55.455 E72.95179
G1 X194.946 Y56.46 E73.13669
G1 X195.74 Y57.08 E73.24391
G1 X196.264 Y57.556 E73.31925
G1 X196.869 Y58.143 E73.40897
G1 X197.762 Y59.034 E73.54323
G1 X198.373 Y59.662 E73.63649
G1 X198.979 Y60.343 E73.73351
G1 X199.379 Y60.861 E73.80317
G1 X199.971 Y61.679 E73.91064
G1 X200.622 Y62.609 E74.03146
G1 X201.112 Y63.33 E74.12424
G1 X201.594 Y64.108 E74.22165
G1 X202.212 Y65.209 E74.35603
G1 X203.523 Y67.466 E74.63383
G1 X204.84 Y69.59 E74.89983
G1 X206.221 Y71.688 E75.16716
G1 X207.66 Y73.742 E75.43408
G1 X209.184 Y75.793 E75.70604
G1 X210.719 Y77.739 E75.96983
G1 X211.874 Y79.148 E76.16374
G1 X212.271 Y79.663 E76.23295
G1 X212.957 Y80.615 E76.35784
G1 X213.959 Y82.067 E76.54561
G1 X214.475 Y82.893 E76.64926
G1 X214.793 Y83.497 E76.72191
G1 X215.245 Y84.429 E76.83216
G1 X215.695 Y85.393 E76.94539
G1 X216.051 Y86.184 E77.03771
G1 X216.421 Y87.119 E77.14473
G1 X216.603 Y87.699 E77.20943
G1 X216.857 Y88.588 E77.30784
G1 X217.347 Y90.448 E77.51255
G1 X217.559 Y91.435 E77.62
G1 X217.654 Y92.135 E77.69519
G1 X217.758 Y93.163 E77.80516
G1 X217.909 Y94.99 E78.00027
G1 X217.945 Y95.964 E78.10401
G1 X217.918 Y96.67 E78.1792
G1 X217.836 Y97.809 E78.30074
G1 X217.674 Y99.54 E78.48578
G1 X217.534 Y100.537 E78.59294
G1 X217.386 Y101.218 E78.66711
G1 X217.171 Y102.076 E78.76125
G1 X216.643 Y104.012 E78.97483
G1 X216.364 Y104.881 E79.07197
G1 X216.076 Y105.591 E79.15352
G1 X215.69 Y106.452 E79.25394
G1 X215.13 Y107.653 E79.39498
G1 X214.809 Y108.317 E79.47348
G1 X214.313 Y109.226 E79.58369
G1 X213.232 Y111.004 E79.80516
G1 X211.966 Y113.211 E80.07596
G1 X210.774 Y115.43 E80.34405
G1 X209.64 Y117.691 E80.61326
G1 X208.593 Y119.939 E80.8772
G1 X207.607 Y122.219 E81.14159
G1 X207.059 Y123.598 E81.29952
G1 X206.56 Y124.803 E81.43833
G1 X206.192 Y125.627 E81.53438
G1 X205.575 Y126.952 E81.68995
G1 X205.26 Y127.602 E81.76682
G1 X204.799 Y128.453 E81.86983
G1 X204.474 Y128.965 E81.93438
G1 X203.974 Y129.704 E82.02934
G1 X202.815 Y131.344 E82.24308
G1 X202.256 Y132.064 E82.3401
G1 X201.737 Y132.637 E82.42238
G1 X201.015 Y133.38 E82.53265
G1 X199.733 Y134.649 E82.72464
G1 X198.986 Y135.325 E82.83186
G1 X198.457 Y135.736 E82.90316
G1 X197.749 Y136.25 E82.99628
G1 X196.677 Y137.002 E83.13565
G1 X196.003 Y137.46 E83.22238
G1 X195.146 Y137.987 E83.32946
G1 X194.627 Y138.256 E83.39167
