;FLAVOR:Marlin
;TIME:1293
;Filament used: 2.38722m
;Layer height: 0.32
;MINX:75.5
;MINY:94
;MINZ:0.32
;MAXX:144.5
;MAXY:126
;MAXZ:30.08
;TARGET_MACHINE.NAME:Creality Ender-3 Pro
;Generated with Cura_SteamEngine 5.5.0
M82 ;absolute extrusion mode
; Ender 3 Custom Start G-code
G92 E0 ; Reset Extruder
G28 ; Home all axes
G1 Z5.0 F3000 ; Move Z Axis up a bit during heating to not damage bed
M104 S120 ; Start heating up the nozzle most of the way
M190 S70 ; Start heating the bed, wait until target temperature reached
M109 S230 ; Finish heating the nozzle
G1 Z2.0 F3000 ; Move Z Axis up little to prevent scratching of Heat Bed
G1 X0.1 Y20 Z0.3 F5000.0 ; Move to start position
G1 X0.1 Y200.0 Z0.3 F1500.0 E15 ; Draw the first line
G1 X0.4 Y200.0 Z0.3 F5000.0 ; Move to side a little
G1 X0.4 Y20 Z0.3 F1500.0 E30 ; Draw the second line
G92 E0 ; Reset Extruder
G1 Z2.0 F3000 ; Move Z Axis up little to prevent scratching of Heat Bed
G1 X5 Y20 Z0.3 F5000.0 ; Move over to prevent blob squish
G92 E0
G92 E0
G1 F1500 E-6.5
;LAYER_COUNT:94
;LAYER:0
M107
G0 F6000 X80.02 Y96.634 Z0.32
;TYPE:SKIRT
G1 F1500 E0
G1 F900 X80.868 Y96.015 E0.11174
G1 X81.707 Y95.506 E0.21619
G1 X82.65 Y95.038 E0.32823
G1 X83.696 Y94.632 E0.44765
G1 X84.64 Y94.358 E0.55227
G1 X85.769 Y94.138 E0.6747
G1 X87.126 Y94.016 E0.81971
G1 X87.794 Y94 E0.89082
G1 X131.814 Y94 E5.57598
G1 X132.734 Y94.013 E5.67391
G1 X133.644 Y94.066 E5.77092
G1 X134.825 Y94.241 E5.89799
G1 X135.78 Y94.471 E6.00254
G1 X136.843 Y94.829 E6.12192
G1 X137.806 Y95.252 E6.23387
G1 X138.607 Y95.687 E6.33088
G1 X139.602 Y96.346 E6.4579
G1 X140.419 Y97.004 E6.56955
G1 X141.081 Y97.632 E6.66667
G1 X141.871 Y98.528 E6.79381
G1 X142.489 Y99.376 E6.90549
G1 X142.997 Y100.214 E7.00979
G1 X143.436 Y101.093 E7.11436
G1 X143.872 Y102.208 E7.24178
G1 X144.145 Y103.152 E7.34637
G1 X144.363 Y104.278 E7.46844
G1 X144.484 Y105.626 E7.61249
G1 X144.5 Y106.33 E7.68744
G1 X144.499 Y113.413 E8.4413
G1 X144.488 Y114.212 E8.52635
G1 X144.43 Y115.192 E8.63083
G1 X144.266 Y116.299 E8.74994
G1 X144.057 Y117.186 E8.84693
G1 X143.682 Y118.32 E8.97405
G1 X143.321 Y119.157 E9.07107
G1 X142.827 Y120.084 E9.18287
G1 X142.168 Y121.085 E9.31042
G1 X141.512 Y121.902 E9.42194
G1 X140.835 Y122.613 E9.52643
G1 X140.048 Y123.311 E9.63839
G1 X139.142 Y123.978 E9.75813
G1 X138.303 Y124.488 E9.86263
G1 X137.298 Y124.985 E9.98196
G1 X136.449 Y125.318 E10.07902
G1 X135.304 Y125.655 E10.20606
G1 X134.243 Y125.86 E10.32107
G1 X132.874 Y125.984 E10.46737
G1 X132.17 Y126 E10.54232
G1 X128.021 Y125.999 E10.98391
G1 X127.242 Y125.986 E11.06683
G1 X126.332 Y125.932 E11.16385
G1 X125.633 Y125.843 E11.23885
G1 X124.812 Y125.715 E11.32729
G1 X123.57 Y125.504 E11.46137
G1 X121.129 Y125.158 E11.72377
G1 X118.631 Y124.876 E11.99133
G1 X116.199 Y124.669 E12.25111
G1 X113.679 Y124.529 E12.51973
G1 X111.167 Y124.458 E12.78719
G1 X108.734 Y124.46 E13.04614
G1 X106.207 Y124.533 E13.31521
G1 X103.699 Y124.676 E13.58258
G1 X101.288 Y124.882 E13.84012
G1 X98.77 Y125.169 E14.10985
G1 X96.267 Y125.527 E14.37896
G1 X94.39 Y125.838 E14.58146
G1 X93.377 Y125.958 E14.69003
G1 X92.816 Y125.987 E14.74982
G1 X92.17 Y126 E14.81859
G1 X88.052 Y125.999 E15.25688
G1 X87.281 Y125.988 E15.33895
G1 X86.234 Y125.922 E15.4506
G1 X85.263 Y125.778 E15.55508
G1 X84.173 Y125.517 E15.67437
G1 X83.307 Y125.231 E15.77144
G1 X82.21 Y124.756 E15.89867
G1 X81.287 Y124.252 E16.0106
G1 X80.526 Y123.75 E16.10763
G1 X79.594 Y123.009 E16.23435
G1 X78.932 Y122.382 E16.3314
G1 X78.139 Y121.487 E16.45867
G1 X77.558 Y120.696 E16.56312
G1 X77.045 Y119.862 E16.66734
G1 X76.512 Y118.791 E16.79466
G1 X76.134 Y117.81 E16.90656
G1 X75.86 Y116.867 E17.01107
G1 X75.639 Y115.734 E17.13393
G1 X75.513 Y114.305 E17.28661
G1 X75.5 Y113.658 E17.35549
G1 X75.501 Y106.511 E18.11616
G1 X75.512 Y105.774 E18.19461
G1 X75.578 Y104.726 E18.30637
G1 X75.71 Y103.824 E18.4034
G1 X75.987 Y102.662 E18.53054
G1 X76.299 Y101.731 E18.63504
G1 X76.748 Y100.702 E18.75453
G1 X77.252 Y99.782 E18.86618
G1 X77.754 Y99.021 E18.96321
G1 X78.496 Y98.089 E19.09001
G1 X79.123 Y97.427 E19.18705
G1 X80.02 Y96.634 E19.31448
G0 F6000 X80.493 Y97.279
G1 F900 X81.285 Y96.698 E19.41902
G1 X82.063 Y96.223 E19.51604
G1 X83.006 Y95.755 E19.62809
G1 X83.921 Y95.4 E19.73255
G1 X84.796 Y95.143 E19.82961
G1 X85.842 Y94.935 E19.94312
G1 X87.145 Y94.816 E20.08237
G1 X87.813 Y94.8 E20.15349
G1 X131.803 Y94.8 E24.83545
G1 X132.687 Y94.812 E24.92955
G1 X133.597 Y94.865 E25.02657
G1 X134.638 Y95.019 E25.13857
G1 X135.593 Y95.249 E25.24312
G1 X136.523 Y95.562 E25.34756
G1 X137.424 Y95.955 E25.45218
G1 X138.225 Y96.39 E25.54919
G1 X139.102 Y96.97 E25.6611
G1 X139.868 Y97.584 E25.76558
G1 X140.53 Y98.212 E25.8627
G1 X141.226 Y99.001 E25.97468
G1 X141.806 Y99.793 E26.07916
G1 X142.281 Y100.571 E26.17618
G1 X142.72 Y101.45 E26.28075
G1 X143.103 Y102.43 E26.39274
G1 X143.376 Y103.374 E26.49733
G1 X143.566 Y104.351 E26.60326
G1 X143.684 Y105.645 E26.74155
G1 X143.7 Y106.33 E26.81448
G1 X143.699 Y113.403 E27.56728
G1 X143.689 Y114.165 E27.64838
G1 X143.631 Y115.145 E27.75287
G1 X143.487 Y116.116 E27.85735
G1 X143.278 Y117.003 E27.95434
G1 X142.947 Y118.003 E28.06645
G1 X142.586 Y118.84 E28.16347
G1 X142.122 Y119.706 E28.26803
G1 X141.543 Y120.586 E28.38015
G1 X140.931 Y121.352 E28.4845
G1 X140.304 Y122.014 E28.58155
G1 X139.517 Y122.712 E28.69351
G1 X138.726 Y123.294 E28.79803
G1 X137.887 Y123.804 E28.90253
G1 X137.006 Y124.24 E29.00715
G1 X136.157 Y124.573 E29.10421
G1 X135.149 Y124.87 E29.21606
G1 X134.17 Y125.063 E29.32226
G1 X132.855 Y125.184 E29.46281
G1 X132.17 Y125.2 E29.53573
G1 X128.034 Y125.199 E29.97594
G1 X127.289 Y125.187 E30.05524
G1 X126.379 Y125.133 E30.15227
G1 X125.757 Y125.053 E30.21901
G1 X124.946 Y124.926 E30.30638
G1 X123.704 Y124.715 E30.44046
G1 X121.223 Y124.363 E30.70717
G1 X118.716 Y124.08 E30.97569
G1 X116.243 Y123.87 E31.23984
G1 X113.708 Y123.729 E31.51007
G1 X111.189 Y123.658 E31.77828
G1 X108.711 Y123.66 E32.04202
G1 X106.173 Y123.733 E32.31225
G1 X103.653 Y123.877 E32.5809
G1 X101.197 Y124.087 E32.84325
G1 X98.674 Y124.375 E33.11352
G1 X96.154 Y124.735 E33.38446
G1 X94.295 Y125.044 E33.58503
G1 X93.335 Y125.159 E33.68794
G1 X92.799 Y125.187 E33.74506
G1 X92.17 Y125.2 E33.81202
G1 X88.063 Y125.199 E34.24914
G1 X87.329 Y125.189 E34.32727
G1 X86.349 Y125.13 E34.43176
G1 X85.447 Y124.999 E34.52877
G1 X84.424 Y124.757 E34.64065
G1 X83.558 Y124.471 E34.73772
G1 X82.592 Y124.053 E34.84975
G1 X81.728 Y123.584 E34.95438
G1 X80.967 Y123.082 E35.05141
G1 X80.144 Y122.428 E35.16329
G1 X79.482 Y121.801 E35.26034
G1 X78.784 Y121.013 E35.37238
G1 X78.203 Y120.222 E35.47684
G1 X77.727 Y119.444 E35.57391
G1 X77.258 Y118.501 E35.686
G1 X76.902 Y117.585 E35.7906
G1 X76.645 Y116.71 E35.88766
G1 X76.436 Y115.663 E36.00129
G1 X76.313 Y114.289 E36.14812
G1 X76.3 Y113.658 E36.21529
G1 X76.301 Y106.522 E36.97479
G1 X76.311 Y105.822 E37.0493
G1 X76.37 Y104.842 E37.1538
G1 X76.502 Y103.94 E37.25082
G1 X76.746 Y102.916 E37.36286
G1 X77.058 Y101.985 E37.46736
G1 X77.45 Y101.085 E37.57184
G1 X77.92 Y100.223 E37.67634
G1 X78.422 Y99.462 E37.77337
G1 X79.077 Y98.639 E37.88532
G1 X79.704 Y97.977 E37.98236
G1 X80.493 Y97.279 E38.09448
G0 F6000 X80.968 Y97.923
G1 F900 X81.702 Y97.381 E38.1916
G1 X82.48 Y96.906 E38.28861
G1 X83.297 Y96.5 E38.38571
G1 X84.146 Y96.168 E38.48274
G1 X85.021 Y95.911 E38.5798
G1 X85.915 Y95.732 E38.67684
G1 X87.218 Y95.613 E38.8161
G1 X87.83 Y95.6 E38.88125
G1 X131.793 Y95.6 E43.56034
G1 X132.64 Y95.611 E43.65049
G1 X133.55 Y95.664 E43.74751
G1 X134.453 Y95.797 E43.84466
G1 X135.34 Y96.008 E43.9417
G1 X136.205 Y96.296 E44.03873
G1 X137.042 Y96.658 E44.13579
G1 X137.843 Y97.093 E44.2328
G1 X138.604 Y97.596 E44.32989
G1 X139.317 Y98.164 E44.42691
G1 X139.979 Y98.792 E44.52403
G1 X140.582 Y99.476 E44.62108
G1 X141.123 Y100.21 E44.71813
G1 X141.598 Y100.988 E44.81515
G1 X142.003 Y101.805 E44.9122
G1 X142.335 Y102.655 E45.00932
G1 X142.591 Y103.53 E45.10636
G1 X142.769 Y104.424 E45.20337
G1 X142.887 Y105.718 E45.34167
G1 X142.9 Y106.33 E45.40682
G1 X142.899 Y113.393 E46.15855
G1 X142.89 Y114.12 E46.23593
G1 X142.839 Y115.03 E46.33294
G1 X142.708 Y115.933 E46.43006
G1 X142.499 Y116.82 E46.52705
G1 X142.212 Y117.686 E46.62415
G1 X141.851 Y118.523 E46.72116
G1 X141.418 Y119.326 E46.81826
G1 X140.917 Y120.088 E46.91532
G1 X140.35 Y120.802 E47.01236
G1 X139.723 Y121.464 E47.10941
G1 X139.041 Y122.069 E47.20644
G1 X138.308 Y122.612 E47.30353
G1 X137.53 Y123.088 E47.4006
G1 X136.714 Y123.495 E47.49765
G1 X135.865 Y123.828 E47.59472
G1 X134.991 Y124.086 E47.69171
G1 X134.097 Y124.266 E47.78877
G1 X132.782 Y124.387 E47.92932
G1 X132.17 Y124.4 E47.99447
G1 X128.046 Y124.399 E48.4334
G1 X127.336 Y124.388 E48.50897
G1 X126.426 Y124.334 E48.606
G1 X125.881 Y124.263 E48.66449
G1 X125.08 Y124.137 E48.75079
G1 X123.838 Y123.926 E48.88487
G1 X121.317 Y123.568 E49.15588
G1 X118.801 Y123.284 E49.42537
G1 X116.287 Y123.071 E49.6939
G1 X113.738 Y122.929 E49.96561
G1 X111.21 Y122.858 E50.23478
G1 X108.688 Y122.86 E50.5032
G1 X106.139 Y122.933 E50.77461
G1 X103.607 Y123.078 E51.04454
G1 X101.106 Y123.292 E51.3117
G1 X98.578 Y123.581 E51.58251
G1 X96.034 Y123.944 E51.85602
G1 X94.198 Y124.25 E52.05413
G1 X93.293 Y124.36 E52.15116
G1 X92.782 Y124.387 E52.20562
G1 X92.17 Y124.4 E52.27077
G1 X88.073 Y124.399 E52.70682
G1 X87.375 Y124.39 E52.78112
G1 X86.464 Y124.338 E52.87824
G1 X85.562 Y124.207 E52.97525
G1 X84.675 Y123.997 E53.07226
G1 X83.809 Y123.711 E53.16933
G1 X82.972 Y123.349 E53.26639
G1 X82.169 Y122.916 E53.36349
G1 X81.408 Y122.414 E53.46052
G1 X80.694 Y121.847 E53.55756
G1 X80.032 Y121.22 E53.6546
G1 X79.427 Y120.537 E53.75171
G1 X78.885 Y119.804 E53.84874
G1 X78.409 Y119.026 E53.94581
G1 X78.003 Y118.209 E54.04291
G1 X77.67 Y117.36 E54.13998
G1 X77.413 Y116.485 E54.23704
G1 X77.233 Y115.591 E54.3341
G1 X77.113 Y114.272 E54.47506
G1 X77.1 Y113.658 E54.54043
G1 X77.101 Y106.533 E55.29876
G1 X77.11 Y105.868 E55.36954
G1 X77.162 Y104.958 E55.46655
G1 X77.294 Y104.056 E55.56358
G1 X77.505 Y103.168 E55.66072
G1 X77.792 Y102.303 E55.75772
G1 X78.154 Y101.466 E55.85478
G1 X78.588 Y100.664 E55.95183
G1 X79.09 Y99.903 E56.04886
G1 X79.658 Y99.189 E56.14597
G1 X80.285 Y98.527 E56.24301
G1 X80.968 Y97.923 E56.34006
G1 F1500 E49.84006
;MESH:Lampenhalter-Lampenklemme.stl
G0 F6000 X90.45 Y111.95
;TYPE:WALL-INNER
G1 F1500 E56.34006
G1 F800 X90.45 Y109 E56.69328
G1 F790.3 X90.475 Y108.61 E56.74064
G1 F780.9 X90.693 Y108.062 E56.81299
G1 X89.562 Y108.062 E56.95172
G1 F790.3 X89.55 Y109 E57.06541
G1 F800 X89.55 Y111.95 E57.41864
G1 X90.45 Y111.95 E57.5264
G1 F1500 E51.0264
G0 F6000 X128.7 Y112.8
G1 F1500 E57.5264
G1 F900 X131.3 Y112.8 E57.80312
G1 X131.3 Y107.2 E58.39914
G1 X128.326 Y107.2 E58.71567
G1 F960 X127.5 Y107.15 E58.79824
G1 F1025.6 X109.869 Y107.152 E60.44488
G1 F1016.9 X92.238 Y107.155 E62.10559
G1 F970.4 X91.675 Y107.187 E62.16126
G1 F914.9 X90.849 Y107.2 E62.24776
G1 F900 X88.701 Y107.201 E62.47637
G1 X88.7 Y112.8 E63.07229
G1 X91.3 Y112.8 E63.34901
G1 X91.3 Y108.826 E63.77197
G1 X91.486 Y108.357 E63.82567
G1 F914.9 X91.892 Y107.979 E63.88376
G1 F974.3 X92.338 Y107.85 E63.9294
G1 F1025.6 X127.5 Y107.85 E67.21334
G1 F960 X128.115 Y107.968 E67.27582
G1 F900 X128.515 Y108.357 E67.33521
G1 X128.7 Y108.826 E67.38887
G1 X128.7 Y112.8 E67.81183
G0 F6000 X129.55 Y111.95
G1 F800 X130.45 Y111.95 E67.91959
G1 X130.45 Y109 E68.27282
G1 F790.3 X130.439 Y108.061 E68.38663
G1 F780.1 X129.306 Y108.061 E68.52576
G1 X129.524 Y108.61 E68.59829
G1 F790.3 X129.55 Y109 E68.64567
G1 F800 X129.55 Y111.95 E68.99889
G1 F1500 E62.49889
G0 F6000 X127.9 Y113.6
;TYPE:WALL-OUTER
G1 F1500 E68.99889
G1 F900 X132.1 Y113.6 E69.44591
G1 X132.1 Y106.4 E70.21222
G1 X87.901 Y106.401 E74.91643
G1 X87.9 Y113.6 E75.68263
G1 X92.1 Y113.6 E76.12965
G1 X92.1 Y108.942 E76.62541
G1 X92.162 Y108.785 E76.64338
G1 X92.295 Y108.656 E76.6631
G1 X92.43 Y108.605 E76.67846
G1 X127.5 Y108.6 E80.41104
G1 X127.705 Y108.656 E80.43366
G1 X127.839 Y108.785 E80.45346
G1 X127.9 Y108.942 E80.47138
G1 X127.9 Y113.6 E80.96715
M104 S230
G1 F1500 E74.46715
;MESH:NONMESH
G0 F300 X127.9 Y113.6 Z0.64
G0 F6000 X80.968 Y97.923
;TIME_ELAPSED:59.468983
;LAYER:1
;TYPE:SKIRT
G1 F1500 E80.96715
G1 F900 X81.702 Y97.381 E81.06426
G1 X82.48 Y96.906 E81.16128
G1 X83.297 Y96.5 E81.25838
G1 X84.146 Y96.168 E81.3554
G1 X85.021 Y95.911 E81.45246
G1 X85.915 Y95.732 E81.5495
G1 X87.218 Y95.613 E81.68876
G1 X87.83 Y95.6 E81.75391
G1 X131.793 Y95.6 E86.433
G1 X132.64 Y95.611 E86.52316
G1 X133.55 Y95.664 E86.62017
G1 X134.453 Y95.797 E86.71732
G1 X135.34 Y96.008 E86.81436
G1 X136.205 Y96.296 E86.91139
G1 X137.042 Y96.658 E87.00845
G1 X137.843 Y97.093 E87.10546
G1 X138.604 Y97.596 E87.20255
G1 X139.317 Y98.164 E87.29958
G1 X139.979 Y98.792 E87.39669
G1 X140.582 Y99.476 E87.49374
G1 X141.123 Y100.21 E87.59079
G1 X141.598 Y100.988 E87.68781
G1 X142.003 Y101.805 E87.78486
G1 X142.335 Y102.655 E87.88199
G1 X142.591 Y103.53 E87.97902
G1 X142.769 Y104.424 E88.07604
G1 X142.887 Y105.718 E88.21433
G1 X142.9 Y106.33 E88.27948
G1 X142.899 Y113.393 E89.03122
G1 X142.89 Y114.12 E89.1086
G1 X142.839 Y115.03 E89.2056
G1 X142.708 Y115.933 E89.30272
G1 X142.499 Y116.82 E89.39971
G1 X142.212 Y117.686 E89.49681
G1 X141.851 Y118.523 E89.59383
G1 X141.418 Y119.326 E89.69092
G1 X140.917 Y120.088 E89.78798
G1 X140.35 Y120.802 E89.88502
G1 X139.723 Y121.464 E89.98207
G1 X139.041 Y122.069 E90.0791
G1 X138.308 Y122.612 E90.17619
G1 X137.53 Y123.088 E90.27326
G1 X136.714 Y123.495 E90.37032
G1 X135.865 Y123.828 E90.46738
G1 X134.991 Y124.086 E90.56437
G1 X134.097 Y124.266 E90.66143
G1 X132.782 Y124.387 E90.80198
G1 X132.17 Y124.4 E90.86713
G1 X128.046 Y124.399 E91.30606
G1 X127.336 Y124.388 E91.38163
G1 X126.426 Y124.334 E91.47866
G1 X125.881 Y124.263 E91.53715
G1 X125.08 Y124.137 E91.62345
G1 X123.838 Y123.926 E91.75754
G1 X121.317 Y123.568 E92.02855
G1 X118.801 Y123.284 E92.29803
G1 X116.287 Y123.071 E92.56656
G1 X113.738 Y122.929 E92.83828
G1 X111.21 Y122.858 E93.10744
G1 X108.688 Y122.86 E93.37587
G1 X106.139 Y122.933 E93.64727
G1 X103.607 Y123.078 E93.9172
G1 X101.106 Y123.292 E94.18436
G1 X98.578 Y123.581 E94.45518
G1 X96.034 Y123.944 E94.72868
G1 X94.198 Y124.25 E94.92679
G1 X93.293 Y124.36 E95.02382
G1 X92.782 Y124.387 E95.07828
G1 X92.17 Y124.4 E95.14343
G1 X88.073 Y124.399 E95.57949
G1 X87.375 Y124.39 E95.65378
G1 X86.464 Y124.338 E95.7509
G1 X85.562 Y124.207 E95.84791
G1 X84.675 Y123.997 E95.94492
G1 X83.809 Y123.711 E96.04199
G1 X82.972 Y123.349 E96.13905
G1 X82.169 Y122.916 E96.23615
G1 X81.408 Y122.414 E96.33318
G1 X80.694 Y121.847 E96.43022
G1 X80.032 Y121.22 E96.52726
G1 X79.427 Y120.537 E96.62437
G1 X78.885 Y119.804 E96.7214
G1 X78.409 Y119.026 E96.81847
G1 X78.003 Y118.209 E96.91557
G1 X77.67 Y117.36 E97.01264
G1 X77.413 Y116.485 E97.1097
G1 X77.233 Y115.591 E97.20676
G1 X77.113 Y114.272 E97.34772
G1 X77.1 Y113.658 E97.41309
G1 X77.101 Y106.533 E98.17142
G1 X77.11 Y105.868 E98.2422
G1 X77.162 Y104.958 E98.33921
G1 X77.294 Y104.056 E98.43624
G1 X77.505 Y103.168 E98.53338
G1 X77.792 Y102.303 E98.63038
G1 X78.154 Y101.466 E98.72744
G1 X78.588 Y100.664 E98.8245
G1 X79.09 Y99.903 E98.92153
G1 X79.658 Y99.189 E99.01863
G1 X80.285 Y98.527 E99.11568
G1 X80.968 Y97.923 E99.21272
G1 F1500 E92.71272
;MESH:Lampenhalter-Lampenklemme.stl
G0 F7500 X90.45 Y111.95
;TYPE:WALL-INNER
G1 F1500 E99.21272
G1 F1066.7 X90.45 Y109 E99.56594
G1 F1053.8 X90.475 Y108.61 E99.61331
G1 F1041.2 X90.693 Y108.062 E99.68565
G1 X89.562 Y108.062 E99.82438
G1 F1053.8 X89.55 Y109 E99.93808
G1 F1066.7 X89.55 Y111.95 E100.2913
G1 X90.45 Y111.95 E100.39906
G1 F1500 E93.89906
G0 F7500 X128.7 Y112.8
G1 F1500 E100.39906
G1 F1200 X131.3 Y112.8 E100.67579
G1 X131.3 Y107.2 E101.27181
G1 X128.326 Y107.2 E101.58834
G1 F1280 X127.5 Y107.15 E101.67091
G1 F1367.5 X109.869 Y107.152 E103.31754
G1 F1355.9 X92.238 Y107.155 E104.97826
G1 F1293.8 X91.675 Y107.187 E105.03392
G1 F1219.8 X90.849 Y107.2 E105.12042
G1 F1200 X88.701 Y107.201 E105.34904
G1 X88.7 Y112.8 E105.94495
G1 X91.3 Y112.8 E106.22167
G1 X91.3 Y108.826 E106.64464
G1 X91.486 Y108.357 E106.69834
