;FLAVOR:Marlin
;TIME:4524
;Filament used: 9.48171m
;Layer height: 0.32
;MINX:80.432
;MINY:37.388
;MINZ:0.4
;MAXX:122.377
;MAXY:183.014
;MAXZ:45.68
;TARGET_MACHINE.NAME:Creality Ender-3 Pro
;Generated with Cura_SteamEngine 5.5.0
M82 ;absolute extrusion mode
; Ender 3 Custom Start G-code
G92 E0 ; Reset Extruder
G28 ; Home all axes
G1 Z5.0 F3000 ; Move Z Axis up a bit during heating to not damage bed
M104 S120 ; Start heating up the nozzle most of the way
M190 S90 ; Start heating the bed, wait until target temperature reached
M109 S235.0 ; Finish heating the nozzle
G1 Z2.0 F3000 ; Move Z Axis up little to prevent scratching of Heat Bed
G1 X0.1 Y20 Z0.3 F5000.0 ; Move to start position
G1 X0.1 Y200.0 Z0.3 F1500.0 E15 ; Draw the first line
G1 X0.4 Y200.0 Z0.3 F5000.0 ; Move to side a little
G1 X0.4 Y20 Z0.3 F1500.0 E30 ; Draw the second line
G92 E0 ; Reset Extruder
G1 Z2.0 F3000 ; Move Z Axis up little to prevent scratching of Heat Bed
G1 X5 Y20 Z0.3 F5000.0 ; Move over to prevent blob squish
G92 E0
G92 E0
G1 F1500 E-6.5
;LAYER_COUNT:140
;LAYER:0
M107
G1 F300 Z1.2
G0 F6000 X83.207 Y47.207 Z1.2
;TYPE:SKIRT
G1 F300 Z0.4
G1 F1500 E0
G1 F900 X83.846 Y46.258 E0.15221
G1 X84.916 Y44.757 E0.39745
G1 X85.249 Y44.357 E0.46669
G1 X85.985 Y43.591 E0.60802
G1 X87.24 Y42.349 E0.84292
G1 X87.821 Y41.857 E0.94421
G1 X88.576 Y41.31 E1.06825
G1 X90.184 Y40.204 E1.3279
G1 X90.601 Y39.962 E1.39204
G1 X91.479 Y39.53 E1.52222
G1 X92.568 Y39.023 E1.68204
G1 X93.323 Y38.689 E1.79187
G1 X93.893 Y38.484 E1.87246
G1 X94.867 Y38.208 E2.00714
G1 X96.517 Y37.775 E2.23409
G1 X97.269 Y37.638 E2.33579
G1 X98.11 Y37.552 E2.44826
G1 X100.086 Y37.392 E2.71201
G1 X100.606 Y37.388 E2.78119
G1 X101.647 Y37.457 E2.91999
G1 X103.577 Y37.641 E3.17792
G1 X104.087 Y37.728 E3.24675
G1 X105.146 Y37.991 E3.39192
G1 X106.956 Y38.49 E3.64171
G1 X107.451 Y38.668 E3.71169
G1 X108.397 Y39.089 E3.84945
G1 X110.127 Y39.909 E4.10415
G1 X110.584 Y40.17 E4.17417
G1 X111.451 Y40.753 E4.31317
G1 X112.356 Y41.387 E4.46018
G1 X113.056 Y41.896 E4.57532
G1 X113.472 Y42.248 E4.64782
G1 X114.135 Y42.888 E4.77042
G1 X115.491 Y44.262 E5.02725
G1 X115.922 Y44.777 E5.11659
G1 X116.523 Y45.608 E5.25303
G1 X117.526 Y47.063 E5.48814
G1 X117.847 Y47.612 E5.57275
G1 X118.264 Y48.464 E5.69895
G1 X118.758 Y49.521 E5.85417
G1 X119.096 Y50.284 E5.9652
G1 X119.263 Y50.742 E6.03005
G1 X119.559 Y51.771 E6.1725
G1 X120.035 Y53.61 E6.42523
G1 X120.136 Y54.177 E6.50185
G1 X120.226 Y55.038 E6.61702
G1 X120.389 Y57.055 E6.88624
G1 X120.388 Y57.699 E6.97192
G1 X120.321 Y58.631 E7.09623
G1 X120.217 Y59.811 E7.25383
G1 X120.14 Y60.546 E7.35215
G1 X120.099 Y60.83 E7.39032
G1 X119.735 Y62.707 E7.64469
G1 X119.278 Y65.346 E8.00101
G1 X118.885 Y68.059 E8.36572
G1 X118.579 Y70.704 E8.71996
G1 X118.335 Y73.495 E9.09269
G1 X118.172 Y74.397 E9.21464
G1 X118.102 Y74.649 E9.24943
G1 X117.92 Y75.185 E9.32474
G1 X116.877 Y77.765 E9.69497
G1 X115.943 Y80.277 E10.05152
G1 X115.078 Y82.824 E10.40939
G1 X114.293 Y85.365 E10.76321
G1 X113.575 Y87.951 E11.12026
G1 X112.912 Y90.635 E11.48808
G1 X112.344 Y93.242 E11.84305
G1 X111.853 Y95.85 E12.19612
G1 X111.428 Y98.524 E12.55633
G1 X111.087 Y101.147 E12.90823
G1 X110.81 Y103.878 E13.27343
G1 X110.616 Y106.533 E13.6276
G1 X110.498 Y109.181 E13.98024
G1 X110.453 Y111.923 E14.34508
G1 X110.486 Y114.618 E14.70365
G1 X110.591 Y117.238 E15.0525
G1 X110.774 Y119.925 E15.41081
G1 X111.034 Y122.608 E15.76943
G1 X111.366 Y125.247 E16.12329
G1 X111.782 Y127.942 E16.48608
G1 X112.268 Y130.592 E16.84452
G1 X112.816 Y133.169 E17.19503
G1 X113.458 Y135.81 E17.55662
G1 X114.164 Y138.399 E17.91364
G1 X114.938 Y140.952 E18.26856
G1 X115.804 Y143.536 E18.63113
G1 X116.725 Y146.053 E18.98771
G1 X117.734 Y148.583 E19.35008
G1 X118.766 Y150.971 E19.69618
G1 X120.738 Y155.174 E20.31383
G1 X121.081 Y155.943 E20.42586
G1 X121.251 Y156.409 E20.49185
G1 X121.55 Y157.45 E20.63595
G1 X121.995 Y159.15 E20.86974
G1 X122.132 Y159.9 E20.97117
G1 X122.216 Y160.721 E21.08096
G1 X122.377 Y162.716 E21.34724
G1 X122.377 Y163.355 E21.43226
G1 X122.311 Y164.286 E21.55643
G1 X122.204 Y165.499 E21.71843
G1 X122.139 Y166.128 E21.80256
G1 X122.015 Y166.833 E21.89779
G1 X121.803 Y167.675 E22.01331
G1 X121.32 Y169.447 E22.25766
G1 X121.06 Y170.174 E22.36038
G1 X120.654 Y171.081 E22.49258
G1 X119.858 Y172.755 E22.73919
G1 X119.6 Y173.207 E22.80843
G1 X119.003 Y174.095 E22.95079
G1 X117.942 Y175.591 E23.19479
G1 X117.57 Y176.043 E23.27267
G1 X116.828 Y176.812 E23.41484
G1 X115.484 Y178.138 E23.66602
G1 X115.086 Y178.475 E23.7354
G1 X114.235 Y179.095 E23.87548
G1 X113.271 Y179.77 E24.03205
G1 X112.628 Y180.202 E24.13511
G1 X112.211 Y180.444 E24.19925
G1 X111.279 Y180.902 E24.33741
G1 X110.249 Y181.382 E24.48859
G1 X109.54 Y181.698 E24.59186
G1 X108.919 Y181.922 E24.67969
G1 X107.945 Y182.198 E24.81437
G1 X106.295 Y182.631 E25.04132
G1 X105.543 Y182.768 E25.14301
G1 X104.702 Y182.854 E25.25549
G1 X102.723 Y183.014 E25.51963
G1 X102.082 Y183.014 E25.60491
G1 X101.165 Y182.949 E25.72721
G1 X99.235 Y182.765 E25.98515
G1 X98.726 Y182.678 E26.05385
G1 X97.66 Y182.414 E26.19995
G1 X95.855 Y181.916 E26.44906
G1 X95.361 Y181.738 E26.51892
G1 X94.415 Y181.317 E26.65668
G1 X92.685 Y180.497 E26.91138
G1 X92.228 Y180.236 E26.9814
G1 X91.361 Y179.653 E27.1204
G1 X90.456 Y179.019 E27.26741
G1 X89.756 Y178.51 E27.38255
G1 X89.34 Y178.158 E27.45505
G1 X88.677 Y177.518 E27.57765
G1 X87.321 Y176.144 E27.83448
G1 X86.89 Y175.629 E27.92382
G1 X86.288 Y174.797 E28.06045
G1 X85.253 Y173.292 E28.30345
G1 X84.993 Y172.847 E28.37202
G1 X84.5 Y171.84 E28.52118
G1 X83.778 Y170.267 E28.75145
G1 X83.534 Y169.615 E28.84407
G1 X83.253 Y168.635 E28.9797
G1 X82.777 Y166.796 E29.23242
G1 X82.676 Y166.229 E29.30904
G1 X82.586 Y165.368 E29.42422
G1 X82.423 Y163.351 E29.69343
G1 X82.424 Y162.705 E29.77938
G1 X82.493 Y161.75 E29.90676
G1 X82.664 Y159.931 E30.14983
G1 X82.786 Y159.232 E30.24423
G1 X83.01 Y158.346 E30.36582
G1 X83.48 Y156.624 E30.60329
G1 X83.74 Y155.9 E30.70563
G1 X84.164 Y154.952 E30.8438
G1 X85.232 Y152.463 E31.20413
G1 X86.249 Y149.896 E31.57147
G1 X87.15 Y147.417 E31.92239
G1 X87.992 Y144.879 E32.27814
G1 X88.775 Y142.283 E32.63888
G1 X89.46 Y139.746 E32.98849
G1 X90.106 Y137.06 E33.35603
G1 X90.656 Y134.441 E33.71206
G1 X91.134 Y131.805 E34.06848
G1 X91.538 Y129.141 E34.42695
G1 X91.863 Y126.499 E34.78109
G1 X92.119 Y123.809 E35.14059
G1 X92.296 Y121.12 E35.49911
G1 X92.396 Y118.466 E35.85245
G1 X92.423 Y116.149 E36.16073
G1 X92.423 Y108.481 E37.18088
G1 X92.384 Y105.713 E37.54917
G1 X92.271 Y103.063 E37.90205
G1 X92.08 Y100.36 E38.26256
G1 X91.823 Y97.777 E38.6079
G1 X91.47 Y95.014 E38.97848
G1 X91.06 Y92.409 E39.32931
G1 X90.561 Y89.724 E39.69264
G1 X89.997 Y87.099 E40.04984
G1 X89.364 Y84.518 E40.4034
G1 X88.655 Y81.941 E40.75898
G1 X87.861 Y79.347 E41.11989
G1 X87.003 Y76.807 E41.47658
G1 X86.064 Y74.262 E41.83748
G1 X85.088 Y71.831 E42.18599
G1 X83.988 Y69.301 E42.55302
G1 X82.823 Y66.817 E42.91803
G1 X82.527 Y66.206 E43.00836
G1 X81.794 Y64.611 E43.24189
G1 X81.53 Y63.897 E43.34317
G1 X81.277 Y63.012 E43.46563
G1 X80.817 Y61.255 E43.70726
G1 X80.68 Y60.502 E43.80908
G1 X80.585 Y59.573 E43.93332
G1 X80.488 Y58.467 E44.08103
G1 X80.434 Y57.704 E44.18279
G1 X80.432 Y57.155 E44.25583
G1 X80.501 Y56.128 E44.39277
G1 X80.602 Y54.978 E44.54636
G1 X80.673 Y54.282 E44.63943
G1 X80.797 Y53.572 E44.73532
G1 X81.025 Y52.666 E44.85962
G1 X81.492 Y50.955 E45.09557
G1 X81.752 Y50.23 E45.19804
G1 X82.173 Y49.291 E45.33495
G1 X82.949 Y47.659 E45.57537
G1 X83.207 Y47.207 E45.64461
G0 F6000 X83.902 Y47.604
G1 F900 X84.498 Y46.722 E45.78623
G1 X85.531 Y45.269 E46.02341
G1 X85.864 Y44.869 E46.09265
G1 X86.548 Y44.16 E46.22372
G1 X87.803 Y42.918 E46.45863
G1 X88.29 Y42.505 E46.54358
G1 X89.03 Y41.969 E46.66514
G1 X90.586 Y40.896 E46.9166
G1 X91.003 Y40.654 E46.98074
G1 X91.817 Y40.255 E47.10135
G1 X92.893 Y39.754 E47.25926
G1 X93.596 Y39.441 E47.36164
G1 X94.111 Y39.254 E47.43453
G1 X95.07 Y38.982 E47.56715
G1 X96.72 Y38.549 E47.7941
G1 X97.351 Y38.434 E47.87943
G1 X98.175 Y38.349 E47.98964
G1 X100.092 Y38.192 E48.24553
G1 X100.612 Y38.188 E48.31471
G1 X101.572 Y38.253 E48.44272
G1 X103.442 Y38.43 E48.69262
G1 X103.952 Y38.517 E48.76145
G1 X104.934 Y38.762 E48.8961
G1 X106.685 Y39.243 E49.13769
G1 X107.18 Y39.421 E49.20767
G1 X108.055 Y39.812 E49.33517
G1 X109.73 Y40.604 E49.58167
G1 X110.187 Y40.865 E49.65169
G1 X110.992 Y41.409 E49.78095
G1 X111.887 Y42.035 E49.92625
G1 X112.541 Y42.509 E50.03371
G1 X112.916 Y42.824 E50.09887
G1 X113.579 Y43.464 E50.22147
G1 X114.922 Y44.824 E50.47575
G1 X115.274 Y45.246 E50.54886
G1 X115.865 Y46.063 E50.68301
G1 X116.835 Y47.467 E50.91005
G1 X117.156 Y48.016 E50.99465
G1 X117.539 Y48.802 E51.11098
G1 X118.027 Y49.847 E51.26442
G1 X118.344 Y50.558 E51.36799
G1 X118.511 Y51.016 E51.43284
G1 X118.785 Y51.972 E51.56515
G1 X119.247 Y53.75 E51.80955
G1 X119.348 Y54.317 E51.88617
G1 X119.429 Y55.103 E51.9913
G1 X119.589 Y57.056 E52.25199
G1 X119.59 Y57.642 E52.32996
G1 X119.524 Y58.561 E52.45254
G1 X119.421 Y59.728 E52.6084
G1 X119.348 Y60.432 E52.70256
G1 X119.307 Y60.716 E52.74074
G1 X118.95 Y62.554 E52.98983
G1 X118.486 Y65.231 E53.35129
G1 X118.093 Y67.944 E53.716
G1 X117.784 Y70.612 E54.07332
G1 X117.538 Y73.425 E54.449
G1 X117.401 Y74.183 E54.55147
G1 X117.331 Y74.435 E54.58627
G1 X117.178 Y74.885 E54.6495
G1 X116.135 Y77.465 E55.01974
G1 X115.185 Y80.02 E55.38239
G1 X114.32 Y82.567 E55.74025
G1 X113.522 Y85.151 E56.10005
G1 X112.798 Y87.759 E56.46014
G1 X112.135 Y90.443 E56.82796
G1 X111.562 Y93.072 E57.18593
G1 X111.067 Y95.702 E57.54197
G1 X110.638 Y98.398 E57.90516
G1 X110.291 Y101.066 E58.2631
G1 X110.014 Y103.797 E58.6283
G1 X109.818 Y106.475 E58.98554
G1 X109.698 Y109.168 E59.34417
G1 X109.653 Y111.91 E59.70902
G1 X109.686 Y114.628 E60.07065
G1 X109.793 Y117.292 E60.42535
G1 X109.978 Y120.002 E60.78673
G1 X110.24 Y122.708 E61.14842
G1 X110.575 Y125.369 E61.50524
G1 X110.991 Y128.065 E61.86816
G1 X111.481 Y130.736 E62.22944
G1 X112.039 Y133.358 E62.58609
G1 X112.686 Y136.02 E62.95055
G1 X113.398 Y138.631 E63.3106
G1 X114.179 Y141.206 E63.66859
G1 X115.045 Y143.79 E64.03116
G1 X115.982 Y146.349 E64.39372
G1 X116.992 Y148.881 E64.75639
G1 X118.042 Y151.311 E65.10857
G1 X120.008 Y155.501 E65.72432
G1 X120.329 Y156.217 E65.82871
G1 X120.499 Y156.683 E65.8947
G1 X120.776 Y157.653 E66.02891
G1 X121.221 Y159.353 E66.2627
G1 X121.336 Y159.982 E66.34777
G1 X121.419 Y160.786 E66.4553
G1 X121.577 Y162.719 E66.71333
G1 X121.579 Y163.298 E66.79036
G1 X121.514 Y164.216 E66.9128
G1 X121.408 Y165.417 E67.0732
G1 X121.343 Y166.046 E67.15733
G1 X121.239 Y166.638 E67.23729
G1 X121.031 Y167.465 E67.35074
G1 X120.548 Y169.237 E67.59509
G1 X120.33 Y169.847 E67.68127
G1 X119.931 Y170.738 E67.81116
G1 X119.163 Y172.358 E68.04968
G1 X118.905 Y172.81 E68.11892
G1 X118.35 Y173.632 E68.25087
G1 X117.289 Y175.128 E68.49487
G1 X116.954 Y175.532 E68.56469
G1 X116.266 Y176.243 E68.69632
G1 X114.967 Y177.527 E68.93932
G1 X114.569 Y177.864 E69.0087
G1 X113.776 Y178.44 E69.1391
G1 X112.823 Y179.107 E69.29385
G1 X112.226 Y179.51 E69.38968
G1 X111.809 Y179.752 E69.45382
G1 X110.941 Y180.177 E69.5824
G1 X109.923 Y180.651 E69.7318
G1 X109.214 Y180.967 E69.83507
G1 X108.701 Y181.152 E69.90762
G1 X107.742 Y181.424 E70.04024
G1 X106.092 Y181.857 E70.26719
G1 X105.461 Y181.972 E70.35252
G1 X104.637 Y182.057 E70.46273
G1 X102.72 Y182.214 E70.71862
G1 X102.138 Y182.216 E70.79605
G1 X101.24 Y182.153 E70.91581
G1 X99.37 Y181.976 E71.16571
G1 X98.861 Y181.889 E71.23441
G1 X97.872 Y181.643 E71.37
G1 X96.126 Y181.163 E71.61091
G1 X95.632 Y180.985 E71.68076
G1 X94.757 Y180.594 E71.80827
G1 X93.082 Y179.802 E72.05477
G1 X92.625 Y179.541 E72.12478
G1 X91.82 Y178.997 E72.25404
G1 X90.925 Y178.371 E72.39935
G1 X90.271 Y177.897 E72.50681
G1 X89.896 Y177.582 E72.57196
G1 X89.233 Y176.942 E72.69456
G1 X87.89 Y175.582 E72.94885
G1 X87.538 Y175.16 E73.02196
G1 X86.947 Y174.343 E73.15611
G1 X85.944 Y172.888 E73.39122
G1 X85.684 Y172.443 E73.45979
G1 X85.227 Y171.506 E73.59848
G1 X84.505 Y169.933 E73.82875
G1 X84.303 Y169.394 E73.90533
G1 X84.027 Y168.434 E74.03822
G1 X83.565 Y166.656 E74.28262
G1 X83.464 Y166.089 E74.35924
G1 X83.383 Y165.303 E74.46436
G1 X83.223 Y163.35 E74.72506
G1 X83.222 Y162.763 E74.80316
G1 X83.29 Y161.824 E74.92841
G1 X83.453 Y160.066 E75.1633
G1 X83.562 Y159.428 E75.24941
G1 X83.782 Y158.557 E75.36893
G1 X84.252 Y156.835 E75.6064
G1 X84.47 Y156.227 E75.69233
G1 X84.894 Y155.279 E75.8305
G1 X85.976 Y152.758 E76.19548
G1 X86.993 Y150.191 E76.56282
G1 X87.902 Y147.69 E76.91685
G1 X88.758 Y145.11 E77.27849
G1 X89.541 Y142.514 E77.63923
G1 X90.238 Y139.933 E77.99491
G1 X90.884 Y137.247 E78.36245
G1 X91.439 Y134.606 E78.72148
G1 X91.924 Y131.931 E79.08317
G1 X92.329 Y129.261 E79.44245
G1 X92.657 Y126.597 E79.79955
G1 X92.915 Y123.885 E80.16198
G1 X93.094 Y121.173 E80.52357
G1 X93.196 Y118.475 E80.88277
G1 X93.223 Y116.158 E81.19105
G1 X93.223 Y108.481 E82.2124
G1 X93.184 Y105.702 E82.58216
G1 X93.069 Y103.007 E82.94103
G1 X92.878 Y100.304 E83.30153
G1 X92.617 Y97.676 E83.65288
G1 X92.264 Y94.913 E84.02346
G1 X91.847 Y92.263 E84.38036
G1 X91.348 Y89.578 E84.74369
G1 X90.774 Y86.908 E85.10702
G1 X90.141 Y84.327 E85.46057
G1 X89.42 Y81.707 E85.8221
G1 X88.626 Y79.113 E86.18301
G1 X87.754 Y76.53 E86.54571
G1 X86.815 Y73.985 E86.90661
G1 X85.822 Y71.512 E87.26115
G1 X84.722 Y68.982 E87.62818
G1 X83.547 Y66.477 E87.99629
G1 X83.254 Y65.872 E88.08572
G1 X82.521 Y64.277 E88.31925
G1 X82.299 Y63.677 E88.40437
G1 X82.051 Y62.809 E88.52447
G1 X81.591 Y61.052 E88.7661
G1 X81.476 Y60.42 E88.85156
G1 X81.382 Y59.503 E88.9742
G1 X81.286 Y58.408 E89.12044
G1 X81.234 Y57.701 E89.21475
G1 X81.232 Y57.152 E89.28779
G1 X81.298 Y56.198 E89.41501
G1 X81.398 Y55.059 E89.56713
G1 X81.469 Y54.363 E89.66021
G1 X81.573 Y53.767 E89.7407
G1 X81.797 Y52.877 E89.8628
G1 X82.264 Y51.166 E90.09875
G1 X82.482 Y50.557 E90.18481
G1 X82.896 Y49.634 E90.31939
G1 X83.644 Y48.056 E90.55172
G1 X83.902 Y47.604 E90.62096
G0 F6000 X84.597 Y48.001
G1 F900 X85.15 Y47.185 E90.75211
G1 X86.146 Y45.781 E90.98112
G1 X86.479 Y45.381 E91.05037
G1 X87.111 Y44.729 E91.17117
G1 X88.366 Y43.487 E91.40608
G1 X88.76 Y43.153 E91.4748
G1 X89.485 Y42.627 E91.59396
G1 X90.988 Y41.588 E91.83705
G1 X91.405 Y41.346 E91.90119
G1 X92.155 Y40.98 E92.01222
G1 X93.22 Y40.484 E92.16852
G1 X93.871 Y40.192 E92.26344
G1 X94.33 Y40.024 E92.32847
G1 X95.273 Y39.756 E92.4589
G1 X96.923 Y39.323 E92.68585
G1 X97.434 Y39.23 E92.75495
G1 X98.241 Y39.146 E92.86289
G1 X100.098 Y38.992 E93.11079
G1 X100.618 Y38.988 E93.17998
G1 X101.498 Y39.05 E93.29734
G1 X103.307 Y39.219 E93.53906
G1 X103.817 Y39.306 E93.60789
G1 X104.723 Y39.534 E93.73219
G1 X106.414 Y39.996 E93.9654
G1 X106.909 Y40.174 E94.03539
G1 X107.714 Y40.535 E94.15276
G1 X109.333 Y41.299 E94.39093
G1 X109.79 Y41.56 E94.46095
G1 X110.533 Y42.064 E94.58039
G1 X111.419 Y42.684 E94.72426
G1 X112.026 Y43.122 E94.82384
G1 X112.401 Y43.437 E94.889
G1 X113.011 Y44.027 E95.0019
G1 X114.31 Y45.339 E95.24753
G1 X114.626 Y45.715 E95.31288
G1 X115.207 Y46.518 E95.44474
G1 X116.177 Y47.922 E95.67177
G1 X116.437 Y48.366 E95.74023
G1 X116.814 Y49.14 E95.85477
G1 X117.297 Y50.175 E96.00672
G1 X117.592 Y50.832 E96.10253
G1 X117.759 Y51.29 E96.16739
G1 X118.011 Y52.174 E96.28968
G1 X118.46 Y53.893 E96.52605
G1 X118.552 Y54.4 E96.5946
G1 X118.632 Y55.169 E96.69746
G1 X118.789 Y57.061 E96.95004
G1 X118.792 Y57.585 E97.01976
G1 X118.727 Y58.491 E97.1406
G1 X118.625 Y59.646 E97.29486
G1 X118.556 Y60.318 E97.38473
G1 X118.515 Y60.602 E97.42291
G1 X118.165 Y62.401 E97.66674
G1 X117.694 Y65.116 E98.03334
G1 X117.301 Y67.829 E98.39804
G1 X116.989 Y70.52 E98.75845
G1 X116.741 Y73.355 E99.13706
G1 X116.63 Y73.969 E99.22008
G1 X116.56 Y74.221 E99.25487
G1 X116.436 Y74.585 E99.30603
G1 X115.393 Y77.165 E99.67626
G1 X114.427 Y79.763 E100.04502
G1 X113.562 Y82.31 E100.40288
G1 X112.751 Y84.937 E100.76866
G1 X112.021 Y87.567 E101.13178
G1 X111.358 Y90.251 E101.4996
G1 X110.78 Y92.902 E101.86057
G1 X110.281 Y95.554 E102.21959
G1 X109.848 Y98.272 E102.58575
G1 X109.495 Y100.985 E102.94973
