;FLAVOR:Marlin
;TIME:2458
;Filament used: 4.02241m
;Layer height: 0.32
;MINX:89.65
;MINY:98.903
;MINZ:0.32
;MAXX:130.795
;MAXY:121.097
;MAXZ:23.84
;TARGET_MACHINE.NAME:Creality Ender-3 Pro
;Generated with Cura_SteamEngine 5.5.0
M82 ;absolute extrusion mode
; Ender 3 Custom Start G-code
G92 E0 ; Reset Extruder
G28 ; Home all axes
G1 Z5.0 F3000 ; Move Z Axis up a bit during heating to not damage bed
M104 S120 ; Start heating up the nozzle most of the way
M190 S70 ; Start heating the bed, wait until target temperature reached
M109 S225 ; Finish heating the nozzle
G1 Z2.0 F3000 ; Move Z Axis up little to prevent scratching of Heat Bed
G1 X0.1 Y20 Z0.3 F5000.0 ; Move to start position
G1 X0.1 Y200.0 Z0.3 F1500.0 E15 ; Draw the first line
G1 X0.4 Y200.0 Z0.3 F5000.0 ; Move to side a little
G1 X0.4 Y20 Z0.3 F1500.0 E30 ; Draw the second line
G92 E0 ; Reset Extruder
G1 Z2.0 F3000 ; Move Z Axis up little to prevent scratching of Heat Bed
G1 X5 Y20 Z0.3 F5000.0 ; Move over to prevent blob squish
G92 E0
G92 E0
G1 F1500 E-6.5
;LAYER_COUNT:72
;LAYER:0
M107
G1 F300 Z1.12
G0 F6000 X100.662 Y103.183 Z1.12
;TYPE:SKIRT
G1 F300 Z0.32
G1 F1500 E0
G1 F900 X101.271 Y102.604 E0.08944
G1 X101.952 Y102.008 E0.18575
G1 X102.516 Y101.583 E0.26092
G1 X103.194 Y101.225 E0.34252
G1 X103.925 Y100.969 E0.42496
G1 X104.654 Y100.844 E0.50368
G1 X105.111 Y100.811 E0.55244
G1 X106.078 Y100.796 E0.65538
G1 X124.574 Y100.795 E2.62395
G1 X125.401 Y100.811 E2.71199
G1 X126.03 Y100.869 E2.77922
G1 X126.784 Y101.057 E2.86192
G1 X127.497 Y101.357 E2.94425
G1 X128.147 Y101.756 E3.02543
G1 X128.727 Y102.249 E3.10645
G1 X129.232 Y102.833 E3.18862
G1 X129.644 Y103.49 E3.27116
G1 X129.961 Y104.269 E3.36067
G1 X130.082 Y104.7 E3.40832
G1 X130.263 Y105.509 E3.49655
G1 X130.542 Y107.066 E3.6649
G1 X130.672 Y107.862 E3.75075
G1 X130.719 Y108.288 E3.79636
G1 X130.779 Y109.304 E3.90468
G1 X130.795 Y110.088 E3.98815
G1 X130.787 Y110.51 E4.03307
G1 X130.713 Y111.773 E4.16772
G1 X130.669 Y112.156 E4.20875
G1 X130.342 Y114.058 E4.41416
G1 X130.153 Y115.01 E4.51746
G1 X130.046 Y115.443 E4.56493
G1 X129.794 Y116.189 E4.64874
G1 X129.433 Y116.872 E4.73096
G1 X128.974 Y117.485 E4.81247
G1 X128.43 Y118.02 E4.89367
G1 X127.8 Y118.472 E4.9762
G1 X127.126 Y118.814 E5.05664
G1 X126.364 Y119.064 E5.142
G1 X125.369 Y119.192 E5.24877
G1 X124.979 Y119.202 E5.29029
G1 X105.845 Y119.205 E7.32677
G1 X105.028 Y119.189 E7.41374
G1 X104.399 Y119.131 E7.48097
G1 X103.645 Y118.943 E7.56368
G1 X102.914 Y118.636 E7.64806
G1 X102.111 Y118.107 E7.75041
G1 X101.608 Y117.7 E7.81927
G1 X101.152 Y117.292 E7.8844
G1 X100.745 Y116.903 E7.94432
G1 X100.194 Y116.315 E8.03008
G1 X99.666 Y115.683 E8.11773
G1 X99.235 Y115.123 E8.19295
G1 X98.82 Y114.471 E8.2752
G1 X98.491 Y113.835 E8.35142
G1 X98.216 Y113.259 E8.41935
G1 X97.951 Y112.571 E8.49782
G1 X97.812 Y112.022 E8.55809
G1 X97.645 Y111.117 E8.65604
G1 X97.575 Y110.63 E8.70841
G1 X97.528 Y109.991 E8.7766
G1 X97.578 Y109.331 E8.84705
G1 X97.675 Y108.672 E8.91794
G1 X97.811 Y107.951 E8.99603
G1 X97.944 Y107.447 E9.05151
G1 X98.181 Y106.837 E9.12116
G1 X98.6 Y105.953 E9.22528
G1 X98.843 Y105.49 E9.28094
G1 X99.3 Y104.784 E9.37045
G1 X99.686 Y104.29 E9.43717
G1 X100.135 Y103.75 E9.51192
G1 X100.442 Y103.407 E9.56091
G1 X100.662 Y103.183 E9.59433
G0 F6000 X101.214 Y103.762
G1 F900 X101.798 Y103.206 E9.68015
G1 X102.479 Y102.61 E9.77647
G1 X102.944 Y102.262 E9.83828
G1 X103.515 Y101.96 E9.90703
G1 X104.127 Y101.746 E9.97604
G1 X104.79 Y101.632 E10.04764
G1 X105.124 Y101.611 E10.08325
G1 X106.078 Y101.596 E10.1848
G1 X124.56 Y101.595 E12.15189
G1 X125.327 Y101.608 E12.23353
G1 X125.901 Y101.661 E12.29489
G1 X126.531 Y101.818 E12.36399
G1 X127.125 Y102.068 E12.43258
G1 X127.677 Y102.407 E12.50153
G1 X128.165 Y102.821 E12.56964
G1 X128.585 Y103.307 E12.638
G1 X128.929 Y103.856 E12.70696
G1 X129.191 Y104.487 E12.77968
G1 X129.301 Y104.875 E12.8226
G1 X129.482 Y105.684 E12.91083
G1 X129.753 Y107.195 E13.07422
G1 X129.877 Y107.951 E13.15576
G1 X129.92 Y108.336 E13.19699
G1 X129.979 Y109.321 E13.30201
G1 X129.995 Y110.074 E13.38217
G1 X129.988 Y110.464 E13.42369
G1 X129.918 Y111.682 E13.55354
G1 X129.874 Y112.065 E13.59457
G1 X129.557 Y113.903 E13.79308
G1 X129.376 Y114.818 E13.89235
G1 X129.269 Y115.251 E13.93982
G1 X129.057 Y115.872 E14.00966
G1 X128.756 Y116.441 E14.07817
G1 X128.371 Y116.956 E14.14661
G1 X127.91 Y117.409 E14.2154
G1 X127.385 Y117.785 E14.28413
G1 X126.817 Y118.074 E14.35196
G1 X126.188 Y118.28 E14.4224
G1 X125.347 Y118.392 E14.5127
G1 X124.979 Y118.402 E14.55188
G1 X105.859 Y118.405 E16.58687
G1 X105.102 Y118.392 E16.66745
G1 X104.528 Y118.339 E16.72881
G1 X103.898 Y118.182 E16.79791
G1 X103.294 Y117.928 E16.86765
G1 X102.614 Y117.485 E16.95402
G1 X102.141 Y117.103 E17.01873
G1 X101.704 Y116.713 E17.08107
G1 X101.328 Y116.355 E17.13633
G1 X100.808 Y115.802 E17.21712
G1 X100.298 Y115.192 E17.30175
G1 X99.91 Y114.693 E17.36902
G1 X99.495 Y114.041 E17.45128
G1 X99.213 Y113.49 E17.51716
G1 X98.938 Y112.914 E17.58509
G1 X98.726 Y112.372 E17.64704
G1 X98.599 Y111.877 E17.70143
G1 X98.432 Y110.972 E17.79937
G1 X98.373 Y110.571 E17.84251
G1 X98.33 Y109.992 E17.90431
G1 X98.37 Y109.447 E17.96247
G1 X98.462 Y108.818 E18.03013
G1 X98.585 Y108.155 E18.1019
G1 X98.718 Y107.651 E18.15737
G1 X98.904 Y107.18 E18.21127
G1 X99.323 Y106.296 E18.31539
G1 X99.551 Y105.862 E18.36757
G1 X99.93 Y105.277 E18.44176
G1 X100.302 Y104.801 E18.50605
G1 X100.732 Y104.283 E18.57771
G1 X101.015 Y103.966 E18.62294
G1 X101.214 Y103.762 E18.65327
G0 F6000 X101.766 Y104.341
G1 F900 X102.326 Y103.807 E18.73562
G1 X102.958 Y103.251 E18.82521
G1 X103.375 Y102.939 E18.88064
G1 X103.836 Y102.695 E18.93616
G1 X104.328 Y102.523 E18.99163
G1 X104.841 Y102.43 E19.04712
G1 X105.137 Y102.411 E19.07869
G1 X106.078 Y102.396 E19.17886
G1 X124.549 Y102.395 E21.14477
G1 X125.253 Y102.405 E21.2197
G1 X125.772 Y102.453 E21.27518
G1 X126.278 Y102.579 E21.33068
G1 X126.758 Y102.781 E21.38611
G1 X127.202 Y103.054 E21.44158
G1 X127.599 Y103.391 E21.497
G1 X127.94 Y103.785 E21.55246
G1 X128.217 Y104.227 E21.60798
G1 X128.422 Y104.706 E21.66343
G1 X128.52 Y105.05 E21.7015
G1 X128.701 Y105.859 E21.78974
G1 X128.964 Y107.325 E21.94826
G1 X129.082 Y108.041 E22.02549
G1 X129.121 Y108.384 E22.06223
G1 X129.179 Y109.339 E22.16406
G1 X129.195 Y110.061 E22.24093
G1 X129.189 Y110.419 E22.27903
G1 X129.123 Y111.591 E22.40397
G1 X129.079 Y111.974 E22.445
G1 X128.772 Y113.748 E22.63662
G1 X128.599 Y114.626 E22.73186
G1 X128.492 Y115.059 E22.77934
G1 X128.321 Y115.552 E22.83487
G1 X128.077 Y116.012 E22.89029
G1 X127.765 Y116.43 E22.94581
G1 X127.394 Y116.795 E23.0012
G1 X126.97 Y117.099 E23.05673
G1 X126.506 Y117.335 E23.11214
G1 X126.01 Y117.497 E23.16767
G1 X125.324 Y117.592 E23.24138
G1 X124.979 Y117.602 E23.27811
G1 X105.871 Y117.605 E25.31182
G1 X105.176 Y117.595 E25.3858
G1 X104.657 Y117.547 E25.44128
G1 X104.151 Y117.421 E25.49678
G1 X103.671 Y117.219 E25.5522
G1 X103.117 Y116.863 E25.62229
G1 X102.644 Y116.481 E25.687
G1 X102.254 Y116.132 E25.7427
G1 X101.911 Y115.807 E25.793
G1 X101.391 Y115.254 E25.87379
G1 X100.93 Y114.701 E25.95041
G1 X100.542 Y114.202 E26.01769
G1 X100.207 Y113.677 E26.08397
G1 X99.935 Y113.145 E26.14757
G1 X99.66 Y112.569 E26.2155
G1 X99.472 Y112.083 E26.27096
G1 X99.386 Y111.731 E26.30953
G1 X99.223 Y110.851 E26.40478
G1 X99.171 Y110.511 E26.44139
G1 X99.132 Y109.991 E26.49689
G1 X99.168 Y109.506 E26.54865
G1 X99.249 Y108.962 E26.60719
G1 X99.359 Y108.359 E26.67243
G1 X99.492 Y107.855 E26.7279
G1 X99.627 Y107.522 E26.76615
G1 X100.033 Y106.664 E26.86717
G1 X100.225 Y106.293 E26.91163
G1 X100.56 Y105.77 E26.97774
G1 X100.918 Y105.312 E27.03961
G1 X101.348 Y104.794 E27.11126
G1 X101.588 Y104.524 E27.14971
G1 X101.766 Y104.341 E27.17688
G1 F1500 E20.67688
G1 F300 Z1.12
;MESH:MarkiseStangeTarpfu??hrung-Ko??rper.stl
G0 F6000 X106.054 Y109.658 Z1.12
;TYPE:WALL-INNER
G1 F300 Z0.32
G1 F1500 E27.17688
G1 F657.5 X106.025 Y109.996 E27.2263
G1 X106.056 Y110.353 E27.27851
G1 X106.105 Y110.548 E27.3078
G1 F658.1 X123.967 Y110.547 E29.90755
G1 X123.98 Y109.972 E29.99126
G1 X123.967 Y109.453 E30.06682
G1 X106.105 Y109.452 E32.66657
G1 F657.5 X106.054 Y109.658 E32.69748
G1 F1500 E26.19748
G1 F300 Z1.12
G0 F6000 X124.85 Y108.505 Z1.12
M104 S220
;TYPE:WALL-OUTER
G1 F300 Z0.32
G1 F1500 E32.69748
G1 F900 X105.446 Y108.505 E34.7627
G1 X105.243 Y108.991 E34.81876
G1 X105.116 Y109.504 E34.875
G1 X105.074 Y109.998 E34.92777
G1 X105.118 Y110.51 E34.98246
G1 X105.244 Y111.011 E35.03745
G1 X105.445 Y111.495 E35.09323
G1 X124.85 Y111.495 E37.15855
G1 X124.889 Y111.132 E37.19741
G1 X124.91 Y110.736 E37.23961
G1 X124.928 Y109.985 E37.31957
G1 X124.91 Y109.241 E37.39877
G1 X124.888 Y108.858 E37.43961
G1 X124.85 Y108.505 E37.47739
G1 F1500 E30.97739
G1 F300 Z1.12
;MESH:NONMESH
G0 F6000 X101.766 Y104.341 Z1.12
;TIME_ELAPSED:30.247844
;LAYER:1
G0 F7500 X101.766 Y104.341 Z1.44
;TYPE:SKIRT
G1 F300 Z0.64
G1 F1500 E37.47739
G1 F900 X102.326 Y103.807 E37.55975
G1 X102.958 Y103.251 E37.64934
G1 X103.375 Y102.939 E37.70477
G1 X103.836 Y102.695 E37.76028
G1 X104.328 Y102.523 E37.81576
G1 X104.841 Y102.43 E37.87125
G1 X105.137 Y102.411 E37.90282
G1 X106.078 Y102.396 E38.00298
G1 X124.549 Y102.395 E39.96889
G1 X125.253 Y102.405 E40.04383
G1 X125.772 Y102.453 E40.0993
G1 X126.278 Y102.579 E40.1548
G1 X126.758 Y102.781 E40.21023
G1 X127.202 Y103.054 E40.26571
G1 X127.599 Y103.391 E40.32113
G1 X127.94 Y103.785 E40.37659
G1 X128.217 Y104.227 E40.43211
G1 X128.422 Y104.706 E40.48756
G1 X128.52 Y105.05 E40.52563
G1 X128.701 Y105.859 E40.61386
G1 X128.964 Y107.325 E40.77238
G1 X129.082 Y108.041 E40.84962
G1 X129.121 Y108.384 E40.88636
G1 X129.179 Y109.339 E40.98819
G1 X129.195 Y110.061 E41.06505
G1 X129.189 Y110.419 E41.10316
G1 X129.123 Y111.591 E41.2281
G1 X129.079 Y111.974 E41.26913
G1 X128.772 Y113.748 E41.46075
G1 X128.599 Y114.626 E41.55599
G1 X128.492 Y115.059 E41.60346
G1 X128.321 Y115.552 E41.659
G1 X128.077 Y116.012 E41.71442
G1 X127.765 Y116.43 E41.76994
G1 X127.394 Y116.795 E41.82533
G1 X126.97 Y117.099 E41.88086
G1 X126.506 Y117.335 E41.93626
G1 X126.01 Y117.497 E41.9918
G1 X125.324 Y117.592 E42.06551
G1 X124.979 Y117.602 E42.10224
G1 X105.871 Y117.605 E44.13595
G1 X105.176 Y117.595 E44.20993
G1 X104.657 Y117.547 E44.2654
G1 X104.151 Y117.421 E44.3209
G1 X103.671 Y117.219 E44.37633
G1 X103.117 Y116.863 E44.44642
G1 X102.644 Y116.481 E44.51113
G1 X102.254 Y116.132 E44.56683
G1 X101.911 Y115.807 E44.61712
G1 X101.391 Y115.254 E44.69791
G1 X100.93 Y114.701 E44.77454
G1 X100.542 Y114.202 E44.84181
G1 X100.207 Y113.677 E44.9081
G1 X99.935 Y113.145 E44.97169
G1 X99.66 Y112.569 E45.03962
G1 X99.472 Y112.083 E45.09509
G1 X99.386 Y111.731 E45.13365
G1 X99.223 Y110.851 E45.22891
G1 X99.171 Y110.511 E45.26551
G1 X99.132 Y109.991 E45.32101
G1 X99.168 Y109.506 E45.37278
G1 X99.249 Y108.962 E45.43131
G1 X99.359 Y108.359 E45.49655
G1 X99.492 Y107.855 E45.55203
G1 X99.627 Y107.522 E45.59027
G1 X100.033 Y106.664 E45.6913
G1 X100.225 Y106.293 E45.73576
G1 X100.56 Y105.77 E45.80187
G1 X100.918 Y105.312 E45.86374
G1 X101.348 Y104.794 E45.93539
G1 X101.588 Y104.524 E45.97384
G1 X101.766 Y104.341 E46.00101
G1 F1500 E39.50101
G1 F300 Z1.44
;MESH:MarkiseStangeTarpfu??hrung-Ko??rper.stl
G0 F7500 X105.689 Y110.476 Z1.44
;TYPE:WALL-INNER
G1 F300 Z0.64
G1 F1500 E46.00101
G1 F1200 X105.689 Y110.476
G1 X105.968 Y111.057 E46.06961
G1 X106.136 Y111.28 E46.09932
G1 X123.508 Y111.278 E47.94827
G1 X123.529 Y111.013 E47.97656
G1 X123.564 Y110.001 E48.08433
G1 X123.52 Y108.721 E48.22065
G1 X106.135 Y108.721 E50.07097
G1 X105.975 Y108.934 E50.09933
G1 X105.69 Y109.519 E50.16859
G1 X105.612 Y109.999 E50.22034
G1 X105.689 Y110.476 E50.27177
G1 F1500 E43.77177
G1 F300 Z1.44
G0 F7500 X124.364 Y110.001 Z1.44
G1 F300 Z0.64
G1 F1500 E50.27177
G1 F1200 X124.327 Y108.906 E50.38838
G1 X124.306 Y108.639 E50.41689
G1 X124.198 Y107.921 E50.49416
G1 X105.745 Y107.921 E52.45816
G1 X105.292 Y108.509 E52.53716
G1 X104.921 Y109.268 E52.62708
G1 X104.802 Y109.999 E52.7059
G1 X104.919 Y110.731 E52.7848
G1 X105.215 Y111.337 E52.85658
G1 X105.348 Y111.563 E52.88449
G1 X105.744 Y112.08 E52.95381
G1 X124.198 Y112.078 E54.91791
G1 X124.306 Y111.351 E54.99613
G1 X124.329 Y111.064 E55.02678
G1 X124.364 Y110.001 E55.13998
G1 F1500 E48.63998
G1 F300 Z1.44
G0 F7500 X105.005 Y112.439 Z1.44
;TYPE:WALL-OUTER
G1 F300 Z0.64
G1 F1500 E55.13998
G1 F1200 X105.163 Y112.634 E55.16669
G1 X105.386 Y112.88 E55.20203
G1 X124.873 Y112.878 E57.27608
G1 X125 Y112.138 E57.35599
G1 X125.102 Y111.441 E57.43096
G1 X125.128 Y111.109 E57.46641
G1 X125.165 Y110.001 E57.5844
G1 X125.126 Y108.86 E57.70591
G1 X125.101 Y108.548 E57.73922
G1 X124.994 Y107.826 E57.81691
G1 X124.873 Y107.121 E57.89304
G1 X105.387 Y107.121 E59.96698
G1 X105.159 Y107.372 E60.00307
G1 X104.985 Y107.587 E60.03251
G1 X104.677 Y107.998 E60.08717
G1 X104.521 Y108.265 E60.12009
G1 X104.246 Y108.825 E60.18649
G1 X104.141 Y109.075 E60.21535
G1 X103.992 Y109.998 E60.31486
G1 X104.139 Y110.918 E60.41402
G1 X104.251 Y111.185 E60.44483
G1 X104.51 Y111.717 E60.50781
G1 X104.682 Y112.008 E60.54378
G1 X105.005 Y112.439 E60.60111
G1 F1500 E54.10111
G1 F300 Z1.44
G0 F7500 X106.422 Y109.999 Z1.44
;TYPE:SKIN
G1 F300 Z0.64
G1 F1500 E60.60111
G1 F1002.1 X106.461 Y109.764 E60.63147
G1 X106.584 Y109.521 E60.66618
G1 X122.747 Y109.522 E62.7262
G1 X122.762 Y109.956 E62.78155
G1 X122.747 Y110.479 E62.84824
G1 X106.576 Y110.481 E64.90928
G1 X106.461 Y110.245 E64.94274
G1 X106.422 Y109.999 E64.97448
G1 F1500 E58.47448
G1 F300 Z1.44
;MESH:NONMESH
G0 F7500 X101.766 Y104.341 Z1.44
;TIME_ELAPSED:48.808427
;LAYER:2
G0 F9000 X101.766 Y104.341 Z1.76
;TYPE:SKIRT
G1 F300 Z0.96
G1 F1500 E64.97448
G1 F900 X102.326 Y103.807 E65.05684
G1 X102.958 Y103.251 E65.14643
G1 X103.375 Y102.939 E65.20186
G1 X103.836 Y102.695 E65.25737
G1 X104.328 Y102.523 E65.31284
G1 X104.841 Y102.43 E65.36833
G1 X105.137 Y102.411 E65.3999
G1 X106.078 Y102.396 E65.50007
G1 X124.549 Y102.395 E67.46598
G1 X125.253 Y102.405 E67.54092
G1 X125.772 Y102.453 E67.59639
G1 X126.278 Y102.579 E67.65189
G1 X126.758 Y102.781 E67.70732
G1 X127.202 Y103.054 E67.76279
G1 X127.599 Y103.391 E67.81822
G1 X127.94 Y103.785 E67.87368
G1 X128.217 Y104.227 E67.92919
G1 X128.422 Y104.706 E67.98465
G1 X128.52 Y105.05 E68.02272
G1 X128.701 Y105.859 E68.11095
G1 X128.964 Y107.325 E68.26947
G1 X129.082 Y108.041 E68.3467
G1 X129.121 Y108.384 E68.38345
G1 X129.179 Y109.339 E68.48528
G1 X129.195 Y110.061 E68.56214
G1 X129.189 Y110.419 E68.60025
G1 X129.123 Y111.591 E68.72518
G1 X129.079 Y111.974 E68.76622
G1 X128.772 Y113.748 E68.95783
G1 X128.599 Y114.626 E69.05308
G1 X128.492 Y115.059 E69.10055
G1 X128.321 Y115.552 E69.15609
G1 X128.077 Y116.012 E69.21151
G1 X127.765 Y116.43 E69.26702
G1 X127.394 Y116.795 E69.32242
G1 X126.97 Y117.099 E69.37794
G1 X126.506 Y117.335 E69.43335
G1 X126.01 Y117.497 E69.48888
G1 X125.324 Y117.592 E69.56259
G1 X124.979 Y117.602 E69.59933
G1 X105.871 Y117.605 E71.63304
G1 X105.176 Y117.595 E71.70702
G1 X104.657 Y117.547 E71.76249
G1 X104.151 Y117.421 E71.81799
G1 X103.671 Y117.219 E71.87342
G1 X103.117 Y116.863 E71.94351
G1 X102.644 Y116.481 E72.00822
G1 X102.254 Y116.132 E72.06392
G1 X101.911 Y115.807 E72.11421
G1 X101.391 Y115.254 E72.195
G1 X100.93 Y114.701 E72.27163
G1 X100.542 Y114.202 E72.3389
G1 X100.207 Y113.677 E72.40519
G1 X99.935 Y113.145 E72.46878
G1 X99.66 Y112.569 E72.53671
G1 X99.472 Y112.083 E72.59217
G1 X99.386 Y111.731 E72.63074
G1 X99.223 Y110.851 E72.72599
G1 X99.171 Y110.511 E72.7626
G1 X99.132 Y109.991 E72.8181
G1 X99.168 Y109.506 E72.86986
G1 X99.249 Y108.962 E72.9284
G1 X99.359 Y108.359 E72.99364
G1 X99.492 Y107.855 E73.04912
G1 X99.627 Y107.522 E73.08736
G1 X100.033 Y106.664 E73.18839
G1 X100.225 Y106.293 E73.23285
G1 X100.56 Y105.77 E73.29895
G1 X100.918 Y105.312 E73.36082
G1 X101.348 Y104.794 E73.43248
G1 X101.588 Y104.524 E73.47092
G1 X101.766 Y104.341 E73.4981
G1 F1500 E66.9981
G1 F300 Z1.76
;MESH:MarkiseStangeTarpfu??hrung-Ko??rper.stl
G0 F9000 X123.561 Y112.204 Z1.76
;TYPE:WALL-INNER
G1 F300 Z0.96
G1 F1500 E73.4981
G1 X123.751 Y111.147 E73.6124
