;FLAVOR:Marlin
;TIME:1342
;Filament used: 2.35382m
;Layer height: 0.32
;MINX:93.619
;MINY:93.619
;MINZ:0.4
;MAXX:126.38
;MAXY:126.38
;MAXZ:24.56
;TARGET_MACHINE.NAME:Creality Ender-3 Pro
;Generated with Cura_SteamEngine 5.5.0
M82 ;absolute extrusion mode
; Ender 3 Custom Start G-code
G92 E0 ; Reset Extruder
G28 ; Home all axes
G1 Z5.0 F3000 ; Move Z Axis up a bit during heating to not damage bed
M104 S120 ; Start heating up the nozzle most of the way
M190 S90 ; Start heating the bed, wait until target temperature reached
M109 S235.0 ; Finish heating the nozzle
G1 Z2.0 F3000 ; Move Z Axis up little to prevent scratching of Heat Bed
G1 X0.1 Y20 Z0.3 F5000.0 ; Move to start position
G1 X0.1 Y200.0 Z0.3 F1500.0 E15 ; Draw the first line
G1 X0.4 Y200.0 Z0.3 F5000.0 ; Move to side a little
G1 X0.4 Y20 Z0.3 F1500.0 E30 ; Draw the second line
G92 E0 ; Reset Extruder
G1 Z2.0 F3000 ; Move Z Axis up little to prevent scratching of Heat Bed
G1 X5 Y20 Z0.3 F5000.0 ; Move over to prevent blob squish
G92 E0
G92 E0
G1 F1500 E-6.5
;LAYER_COUNT:75
;LAYER:0
M107
G1 F300 Z1.2
G0 F6000 X95.07 Y95.108 Z1.2
;TYPE:SKIRT
G1 F300 Z0.4
G1 F1500 E0
G1 F900 X95.647 Y94.607 E0.10166
G1 X96.307 Y94.195 E0.20517
G1 X97.009 Y93.893 E0.30684
G1 X97.748 Y93.702 E0.40839
G1 X98.508 Y93.63 E0.50996
G1 X99.028 Y93.619 E0.57915
G1 X120.75 Y93.62 E3.46906
G1 X121.567 Y93.636 E3.57777
G1 X122.196 Y93.694 E3.66181
G1 X122.95 Y93.882 E3.76519
G1 X123.663 Y94.182 E3.86811
G1 X124.313 Y94.582 E3.96965
G1 X124.894 Y95.077 E4.07119
G1 X125.399 Y95.661 E4.17391
G1 X125.801 Y96.303 E4.27468
G1 X126.109 Y97.02 E4.3785
G1 X126.298 Y97.753 E4.47921
G1 X126.368 Y98.48 E4.57638
G1 X126.38 Y98.907 E4.63321
G1 X126.38 Y120.708 E7.53363
G1 X126.365 Y121.558 E7.64673
G1 X126.306 Y122.199 E7.73237
G1 X126.126 Y122.932 E7.83278
G1 X125.826 Y123.652 E7.93655
G1 X125.425 Y124.305 E8.0385
G1 X124.933 Y124.886 E8.13979
G1 X124.349 Y125.395 E8.24286
G1 X123.699 Y125.802 E8.34489
G1 X123.001 Y126.102 E8.44596
G1 X122.252 Y126.298 E8.54896
G1 X121.509 Y126.37 E8.64828
G1 X121.145 Y126.379 E8.69672
G1 X99.26 Y126.38 E11.60831
G1 X98.44 Y126.365 E11.71742
G1 X97.799 Y126.306 E11.80306
G1 X97.06 Y126.124 E11.90432
G1 X96.351 Y125.826 E12.00663
G1 X95.689 Y125.422 E12.10981
G1 X95.112 Y124.931 E12.21061
G1 X94.608 Y124.351 E12.31284
G1 X94.197 Y123.697 E12.4156
G1 X93.897 Y122.998 E12.5168
G1 X93.702 Y122.246 E12.62015
G1 X93.63 Y121.492 E12.72092
G1 X93.62 Y121.014 E12.78453
G1 X93.619 Y99.226 E15.68322
G1 X93.634 Y98.439 E15.78794
G1 X93.691 Y97.803 E15.87289
G1 X93.88 Y97.048 E15.97644
G1 X94.176 Y96.344 E16.07804
G1 X94.576 Y95.691 E16.17992
G1 X95.07 Y95.108 E16.28158
G0 F6000 X95.641 Y95.672
G1 F900 X96.128 Y95.25 E16.36731
G1 X96.675 Y94.908 E16.45314
G1 X97.269 Y94.652 E16.53919
G1 X97.89 Y94.492 E16.62451
G1 X98.525 Y94.43 E16.70939
G1 X99.028 Y94.419 E16.77633
G1 X120.736 Y94.42 E19.66437
G1 X121.493 Y94.433 E19.7651
G1 X122.067 Y94.486 E19.84179
G1 X122.697 Y94.643 E19.92816
G1 X123.291 Y94.893 E20.0139
G1 X123.843 Y95.232 E20.10009
G1 X124.331 Y95.648 E20.1854
G1 X124.752 Y96.135 E20.27104
G1 X125.092 Y96.678 E20.35628
G1 X125.348 Y97.275 E20.4427
G1 X125.508 Y97.895 E20.52788
G1 X125.568 Y98.502 E20.60903
G1 X125.58 Y98.929 E20.66586
G1 X125.58 Y120.696 E23.56176
G1 X125.568 Y121.485 E23.66674
G1 X125.515 Y122.066 E23.74436
G1 X125.362 Y122.685 E23.82919
G1 X125.112 Y123.285 E23.91566
G1 X124.774 Y123.836 E24.00166
G1 X124.364 Y124.32 E24.08605
G1 X123.871 Y124.75 E24.17308
G1 X123.325 Y125.092 E24.2588
G1 X122.74 Y125.344 E24.34354
G1 X122.111 Y125.508 E24.43002
G1 X121.488 Y125.57 E24.51331
G1 X121.145 Y125.579 E24.55896
G1 X99.273 Y125.58 E27.46882
G1 X98.513 Y125.568 E27.56995
G1 X97.932 Y125.515 E27.64757
G1 X97.313 Y125.362 E27.7324
G1 X96.71 Y125.109 E27.81939
G1 X96.164 Y124.775 E27.90455
G1 X95.677 Y124.361 E27.98959
G1 X95.251 Y123.871 E28.07597
G1 X94.908 Y123.325 E28.16175
G1 X94.655 Y122.736 E28.24704
G1 X94.492 Y122.108 E28.33335
G1 X94.43 Y121.475 E28.41797
G1 X94.42 Y121.014 E28.47932
G1 X94.419 Y99.239 E31.37628
G1 X94.431 Y98.511 E31.47314
G1 X94.483 Y97.934 E31.55022
G1 X94.64 Y97.305 E31.63647
G1 X94.89 Y96.71 E31.72233
G1 X95.227 Y96.161 E31.80803
G1 X95.641 Y95.672 E31.89327
G0 F6000 X96.212 Y96.236
G1 F900 X96.606 Y95.895 E31.9626
G1 X97.048 Y95.618 E32.032
G1 X97.527 Y95.412 E32.10137
G1 X98.031 Y95.282 E32.17061
G1 X98.543 Y95.23 E32.23908
G1 X99.028 Y95.219 E32.30362
G1 X120.724 Y95.22 E35.19007
G1 X121.419 Y95.23 E35.28254
G1 X121.938 Y95.278 E35.35188
G1 X122.444 Y95.404 E35.42126
G1 X122.924 Y95.606 E35.49054
G1 X123.368 Y95.879 E35.55988
G1 X123.765 Y96.217 E35.62925
G1 X124.106 Y96.611 E35.69858
G1 X124.382 Y97.053 E35.7679
G1 X124.588 Y97.532 E35.83727
G1 X124.718 Y98.036 E35.90652
G1 X124.768 Y98.524 E35.97178
G1 X124.78 Y98.951 E36.02861
G1 X124.78 Y120.686 E38.92025
G1 X124.771 Y121.413 E39.01698
G1 X124.724 Y121.932 E39.08631
G1 X124.599 Y122.438 E39.15565
G1 X124.398 Y122.919 E39.225
G1 X124.126 Y123.363 E39.29428
G1 X123.789 Y123.761 E39.36366
G1 X123.396 Y124.103 E39.43297
G1 X122.954 Y124.38 E39.50237
G1 X122.476 Y124.586 E39.57162
G1 X121.971 Y124.718 E39.64106
G1 X121.466 Y124.77 E39.7086
G1 X121.145 Y124.779 E39.75132
G1 X99.283 Y124.78 E42.65985
G1 X98.585 Y124.771 E42.75272
G1 X98.066 Y124.724 E42.82205
G1 X97.56 Y124.599 E42.8914
G1 X97.08 Y124.397 E42.96068
G1 X96.635 Y124.125 E43.03007
G1 X96.238 Y123.788 E43.09935
G1 X95.896 Y123.394 E43.16876
G1 X95.619 Y122.953 E43.23804
G1 X95.413 Y122.474 E43.30741
G1 X95.282 Y121.97 E43.37669
G1 X95.23 Y121.457 E43.44529
G1 X95.22 Y121.014 E43.50425
G1 X95.219 Y99.25 E46.39974
G1 X95.228 Y98.583 E46.48849
G1 X95.275 Y98.064 E46.55782
G1 X95.401 Y97.558 E46.62719
G1 X95.603 Y97.078 E46.69647
G1 X95.875 Y96.634 E46.76575
G1 X96.212 Y96.236 E46.83513
G1 F1500 E40.33513
G1 F300 Z1.2
;MESH:2025-05-10_Stu??tzen Kappe 25 x 1_5.stl
G0 F6000 X117.9 Y117.9 Z1.2
;TYPE:WALL-INNER
G1 F300 Z0.4
G1 F1500 E46.83513
G1 F900 X117.9 Y102.1 E48.93717
G1 X102.1 Y102.1 E51.03921
G1 X102.1 Y117.9 E53.14125
G1 X117.9 Y117.9 E55.24329
G0 F6000 X118.7 Y118.7
G1 F900 X118.7 Y101.3 E57.5582
G1 X101.3 Y101.3 E59.8731
G1 X101.3 Y118.7 E62.18801
G1 X118.7 Y118.7 E64.50291
G0 F6000 X119.5 Y119.5
G1 F900 X119.5 Y100.5 E67.03068
G1 X100.5 Y100.5 E69.55845
G1 X100.5 Y119.5 E72.08622
G1 X119.5 Y119.5 E74.61399
G0 F6000 X120.3 Y120.3
;TYPE:WALL-OUTER
G1 F900 X120.3 Y99.7 E77.35463
G1 X99.7 Y99.7 E80.09526
G1 X99.7 Y120.3 E82.8359
G1 X120.3 Y120.3 E85.57653
G1 F1500 E79.07653
G1 F300 Z1.2
G0 F6000 X117.18 Y117.18 Z1.2
;TYPE:SKIN
G1 F300 Z0.4
G1 F1500 E85.57653
G1 F900 X102.82 Y117.18 E87.487
G1 X102.82 Y102.82 E89.39746
G1 X117.18 Y102.82 E91.30792
G1 X117.18 Y117.18 E93.21838
G1 F1500 E86.71838
G1 F300 Z1.2
G0 F6000 X116.779 Y104.334 Z1.2
G1 F300 Z0.4
G1 F1500 E93.21838
G1 F900 X115.664 Y103.219 E93.42817
G0 F6000 X114.533 Y103.219
G1 F900 X116.779 Y105.465 E93.85075
G0 F6000 X116.779 Y106.597
G1 F900 X113.402 Y103.219 E94.48622
G0 F6000 X112.27 Y103.219
G1 F900 X116.779 Y107.728 E95.33457
G0 F6000 X116.779 Y108.859
G1 F900 X111.139 Y103.219 E96.39573
G0 F6000 X110.008 Y103.219
G1 F900 X116.779 Y109.991 E97.66977
G0 F6000 X116.779 Y111.122
G1 F900 X108.876 Y103.219 E99.1567
G0 F6000 X107.745 Y103.219
G1 F900 X116.779 Y112.253 E100.85643
G0 F6000 X116.779 Y113.385
G1 F900 X106.614 Y103.219 E102.76904
G0 F6000 X105.482 Y103.219
G1 F900 X116.779 Y114.516 E104.89455
G0 F6000 X116.779 Y115.648
G1 F900 X104.351 Y103.219 E107.23294
G0 F6000 X103.219 Y103.219
G1 F900 X116.779 Y116.779 E109.78423
G0 F6000 X115.648 Y116.779
G1 F900 X103.219 Y104.351 E112.12262
G0 F6000 X103.219 Y105.482
G1 F900 X114.516 Y116.779 E114.24813
G0 F6000 X113.385 Y116.779
G1 F900 X103.219 Y106.614 E116.16074
G0 F6000 X103.219 Y107.745
G1 F900 X112.253 Y116.779 E117.86047
G0 F6000 X111.122 Y116.779
G1 F900 X103.219 Y108.876 E119.3474
G0 F6000 X103.219 Y110.008
M104 S225
G1 F900 X109.991 Y116.779 E120.62144
G0 F6000 X108.859 Y116.779
G1 F900 X103.219 Y111.139 E121.6826
G0 F6000 X103.219 Y112.27
G1 F900 X107.728 Y116.779 E122.53095
G0 F6000 X106.597 Y116.779
G1 F900 X103.219 Y113.402 E123.16642
G0 F6000 X103.219 Y114.533
G1 F900 X105.465 Y116.779 E123.589
G0 F6000 X104.334 Y116.779
G1 F900 X103.219 Y115.664 E123.79879
G1 F1500 E117.29879
G1 F300 Z1.2
;MESH:NONMESH
G0 F6000 X96.212 Y96.236 Z1.2
;TIME_ELAPSED:71.994418
;LAYER:1
M140 S80
G0 F7500 X96.212 Y96.236 Z1.52
;TYPE:SKIRT
G1 F300 Z0.72
G1 F1500 E123.79879
G1 F900 X96.606 Y95.895 E123.85425
G1 X97.048 Y95.618 E123.90976
G1 X97.527 Y95.412 E123.96526
G1 X98.031 Y95.282 E124.02066
G1 X98.543 Y95.23 E124.07543
G1 X99.028 Y95.219 E124.12706
G1 X120.724 Y95.22 E126.43622
G1 X121.419 Y95.23 E126.5102
G1 X121.938 Y95.278 E126.56567
G1 X122.444 Y95.404 E126.62117
G1 X122.924 Y95.606 E126.6766
G1 X123.368 Y95.879 E126.73208
G1 X123.765 Y96.217 E126.78757
G1 X124.106 Y96.611 E126.84303
G1 X124.382 Y97.053 E126.89849
G1 X124.588 Y97.532 E126.95399
G1 X124.718 Y98.036 E127.00938
G1 X124.768 Y98.524 E127.06159
G1 X124.78 Y98.951 E127.10706
G1 X124.78 Y120.686 E129.42037
G1 X124.771 Y121.413 E129.49775
G1 X124.724 Y121.932 E129.55321
G1 X124.599 Y122.438 E129.60869
G1 X124.398 Y122.919 E129.66417
G1 X124.126 Y123.363 E129.71959
G1 X123.789 Y123.761 E129.7751
G1 X123.396 Y124.103 E129.83054
G1 X122.954 Y124.38 E129.88606
G1 X122.476 Y124.586 E129.94146
G1 X121.971 Y124.718 E129.99701
G1 X121.466 Y124.77 E130.05105
G1 X121.145 Y124.779 E130.08523
G1 X99.283 Y124.78 E132.41205
G1 X98.585 Y124.771 E132.48635
G1 X98.066 Y124.724 E132.54181
G1 X97.56 Y124.599 E132.59729
G1 X97.08 Y124.397 E132.65271
G1 X96.635 Y124.125 E132.70822
G1 X96.238 Y123.788 E132.76365
G1 X95.896 Y123.394 E132.81918
G1 X95.619 Y122.953 E132.8746
G1 X95.413 Y122.474 E132.9301
G1 X95.282 Y121.97 E132.98552
G1 X95.23 Y121.457 E133.0404
G1 X95.22 Y121.014 E133.08756
G1 X95.219 Y99.25 E135.40396
G1 X95.228 Y98.583 E135.47496
G1 X95.275 Y98.064 E135.53042
G1 X95.401 Y97.558 E135.58592
G1 X95.603 Y97.078 E135.64135
G1 X95.875 Y96.634 E135.69677
G1 X96.212 Y96.236 E135.75227
G1 F1500 E129.25227
G1 F300 Z1.52
;MESH:2025-05-10_Stu??tzen Kappe 25 x 1_5.stl
G0 F7500 X118.26 Y118.26 Z1.52
;TYPE:WALL-INNER
G1 F300 Z0.72
G1 F1500 E135.75227
G1 F1200 X118.26 Y101.74 E137.51054
G1 X101.74 Y101.74 E139.2688
G1 X101.74 Y118.26 E141.02706
G1 X118.26 Y118.26 E142.78533
G0 F7500 X119.06 Y119.06
G1 F1200 X119.06 Y100.94 E144.71388
G1 X100.94 Y100.94 E146.64244
G1 X100.94 Y119.06 E148.57099
G1 X119.06 Y119.06 E150.49955
G0 F7500 X119.86 Y119.86
G1 F1200 X119.86 Y100.14 E152.5984
G1 X100.14 Y100.14 E154.69724
G1 X100.14 Y119.86 E156.79609
G1 X119.86 Y119.86 E158.89494
G0 F7500 X120.66 Y120.66
;TYPE:WALL-OUTER
G1 F1200 X120.66 Y99.34 E161.16408
G1 X99.34 Y99.34 E163.43322
G1 X99.34 Y120.66 E165.70236
G1 X120.66 Y120.66 E167.9715
G1 F1500 E161.4715
G1 F300 Z1.52
G0 F7500 X117.54 Y117.54 Z1.52
;TYPE:SKIN
G1 F300 Z0.72
G1 F1500 E167.9715
G1 F1200 X102.46 Y117.54 E169.5765
G1 X102.46 Y102.46 E171.1815
G1 X117.54 Y102.46 E172.7865
G1 X117.54 Y117.54 E174.3915
G1 F1500 E167.8915
G1 F300 Z1.52
G0 F7500 X115.923 Y117.139 Z1.52
G1 F300 Z0.72
G1 F1500 E174.3915
G1 F1200 X117.139 Y115.923 E174.57453
G0 F7500 X117.139 Y114.791
G1 F1200 X114.791 Y117.139 E174.92795
G0 F7500 X113.66 Y117.139
G1 F1200 X117.139 Y113.66 E175.4516
G0 F7500 X117.139 Y112.528
G1 F1200 X112.528 Y117.139 E176.14564
G0 F7500 X111.397 Y117.139
G1 F1200 X117.139 Y111.397 E177.00992
G0 F7500 X117.139 Y110.266
G1 F1200 X110.266 Y117.139 E178.04443
G0 F7500 X109.134 Y117.139
G1 F1200 X117.139 Y109.134 E179.24933
G0 F7500 X117.139 Y108.003
G1 F1200 X108.003 Y117.139 E180.62446
G0 F7500 X106.872 Y117.139
G1 F1200 X117.139 Y106.872 E182.16983
G0 F7500 X117.139 Y105.74
G1 F1200 X105.74 Y117.139 E183.88559
G0 F7500 X104.609 Y117.139
G1 F1200 X117.139 Y104.609 E185.77158
G0 F7500 X117.139 Y103.478
G1 F1200 X103.478 Y117.139 E187.82781
G0 F7500 X102.859 Y116.625
G1 F1200 X116.625 Y102.859 E189.89984
G0 F7500 X115.494 Y102.859
G1 F1200 X102.859 Y115.494 E191.80164
G0 F7500 X102.859 Y114.363
G1 F1200 X114.363 Y102.859 E193.5332
G0 F7500 X113.231 Y102.859
G1 F1200 X102.859 Y113.231 E195.09438
G0 F7500 X102.859 Y112.1
G1 F1200 X112.1 Y102.859 E196.48531
G0 F7500 X110.969 Y102.859
G1 F1200 X102.859 Y110.969 E197.70602
G0 F7500 X102.859 Y109.837
G1 F1200 X109.837 Y102.859 E198.75633
G0 F7500 X108.706 Y102.859
G1 F1200 X102.859 Y108.706 E199.63641
G0 F7500 X102.859 Y107.574
G1 F1200 X107.574 Y102.859 E200.34611
G0 F7500 X106.443 Y102.859
G1 F1200 X102.859 Y106.443 E200.88556
G0 F7500 X102.859 Y105.312
G1 F1200 X105.312 Y102.859 E201.25478
G0 F7500 X104.18 Y102.859
G1 F1200 X102.859 Y104.18 E201.45362
G0 F7500 X102.859 Y103.049
G1 F1200 X103.049 Y102.859 E201.48222
G1 F1500 E194.98222
G1 F300 Z1.52
;MESH:NONMESH
G0 F7500 X96.212 Y96.236 Z1.52
;TIME_ELAPSED:116.535757
;LAYER:2
G0 F9000 X96.212 Y96.236 Z1.84
;TYPE:SKIRT
G1 F300 Z1.04
G1 F1500 E201.48222
G1 F900 X96.606 Y95.895 E201.53768
G1 X97.048 Y95.618 E201.59319
G1 X97.527 Y95.412 E201.64869
G1 X98.031 Y95.282 E201.70409
G1 X98.543 Y95.23 E201.75886
G1 X99.028 Y95.219 E201.81049
G1 X120.724 Y95.22 E204.11965
G1 X121.419 Y95.23 E204.19363
G1 X121.938 Y95.278 E204.2491
G1 X122.444 Y95.404 E204.3046
G1 X122.924 Y95.606 E204.36003
G1 X123.368 Y95.879 E204.41551
G1 X123.765 Y96.217 E204.471
G1 X124.106 Y96.611 E204.52646
G1 X124.382 Y97.053 E204.58192
G1 X124.588 Y97.532 E204.63741
G1 X124.718 Y98.036 E204.69281
G1 X124.768 Y98.524 E204.74502
G1 X124.78 Y98.951 E204.79049
G1 X124.78 Y120.686 E207.1038
G1 X124.771 Y121.413 E207.18118
G1 X124.724 Y121.932 E207.23664
G1 X124.599 Y122.438 E207.29212
G1 X124.398 Y122.919 E207.3476
G1 X124.126 Y123.363 E207.40302
G1 X123.789 Y123.761 E207.45853
G1 X123.396 Y124.103 E207.51397
G1 X122.954 Y124.38 E207.56949
G1 X122.476 Y124.586 E207.62489
G1 X121.971 Y124.718 E207.68044
G1 X121.466 Y124.77 E207.73448
G1 X121.145 Y124.779 E207.76865
G1 X99.283 Y124.78 E210.09548
G1 X98.585 Y124.771 E210.16978
G1 X98.066 Y124.724 E210.22524
G1 X97.56 Y124.599 E210.28071
G1 X97.08 Y124.397 E210.33614
G1 X96.635 Y124.125 E210.39165
G1 X96.238 Y123.788 E210.44708
G1 X95.896 Y123.394 E210.5026
G1 X95.619 Y122.953 E210.55803
G1 X95.413 Y122.474 E210.61353
G1 X95.282 Y121.97 E210.66895
G1 X95.23 Y121.457 E210.72383
G1 X95.22 Y121.014 E210.77099
G1 X95.219 Y99.25 E213.08739
G1 X95.228 Y98.583 E213.15839
G1 X95.275 Y98.064 E213.21385
G1 X95.401 Y97.558 E213.26935
G1 X95.603 Y97.078 E213.32478
G1 X95.875 Y96.634 E213.3802
G1 X96.212 Y96.236 E213.4357
G1 F1500 E206.9357
G1 F300 Z1.84
;MESH:2025-05-10_Stu??tzen Kappe 25 x 1_5.stl
G0 F9000 X118.58 Y118.58 Z1.84
;TYPE:WALL-INNER
G1 F300 Z1.04
G1 F1500 E213.4357
G1 X118.58 Y101.42 E215.26208
G1 X101.42 Y101.42 E217.08846
G1 X101.42 Y118.58 E218.91484
G1 X118.58 Y118.58 E220.74122
G0 F9000 X119.38 Y119.38
G1 F1500 X119.38 Y100.62 E222.7379
G1 X100.62 Y100.62 E224.73457
G1 X100.62 Y119.38 E226.73124
G1 X119.38 Y119.38 E228.72791
G0 F9000 X120.18 Y120.18
G1 F1500 X120.18 Y99.82 E230.89488
G1 X99.82 Y99.82 E233.06184
G1 X99.82 Y120.18 E235.22881
G1 X120.18 Y120.18 E237.39577
G0 F9000 X120.98 Y120.98
;TYPE:WALL-OUTER
G1 F1500 X120.98 Y99.02 E239.73303
G1 X99.02 Y99.02 E242.07028
G1 X99.02 Y120.98 E244.40754
G1 X120.98 Y120.98 E246.74479
G1 F1500 E240.24479
G1 F300 Z1.84
G0 F9000 X117.86 Y117.86 Z1.84
;TYPE:SKIN
G1 F300 Z1.04
G1 F1500 E246.74479
G1 X102.14 Y117.86 E248.41791
G1 X102.14 Y102.14 E250.09103
G1 X117.86 Y102.14 E251.76415
G1 X117.86 Y117.86 E253.43727
G1 F1500 E246.93727
G1 F300 Z1.84
G0 F9000 X117.459 Y102.751 Z1.84
G1 F300 Z1.04
G1 F1500 E253.43727
G1 X117.247 Y102.539 E253.46918
G0 F9000 X116.116 Y102.539
G1 F1500 X117.459 Y103.883 E253.6714
G0 F9000 X117.459 Y105.014
G1 F1500 X114.984 Y102.539 E254.04393
G0 F9000 X113.853 Y102.539
G1 F1500 X117.459 Y106.145 E254.5867
G0 F9000 X117.459 Y107.277
G1 F1500 X112.722 Y102.539 E255.29978
G0 F9000 X111.59 Y102.539
G1 F1500 X117.459 Y108.408 E256.18317
G0 F9000 X117.459 Y109.54
G1 F1500 X110.459 Y102.539 E257.23687
G0 F9000 X109.327 Y102.539
