;FLAVOR:Marlin
;TIME:6377
;Filament used: 12.7649m
;Layer height: 0.32
;MINX:68.013
;MINY:58.113
;MINZ:0.32
;MAXX:151.987
;MAXY:161.987
;MAXZ:110.08
;TARGET_MACHINE.NAME:Creality Ender-3 Pro
;Generated with Cura_SteamEngine 5.5.0
M82 ;absolute extrusion mode
; Ender 3 Custom Start G-code
G92 E0 ; Reset Extruder
G28 ; Home all axes
G1 Z5.0 F3000 ; Move Z Axis up a bit during heating to not damage bed
M104 S120 ; Start heating up the nozzle most of the way
M190 S70 ; Start heating the bed, wait until target temperature reached
M109 S235 ; Finish heating the nozzle
G1 Z2.0 F3000 ; Move Z Axis up little to prevent scratching of Heat Bed
G1 X0.1 Y20 Z0.3 F5000.0 ; Move to start position
G1 X0.1 Y200.0 Z0.3 F1500.0 E15 ; Draw the first line
G1 X0.4 Y200.0 Z0.3 F5000.0 ; Move to side a little
G1 X0.4 Y20 Z0.3 F1500.0 E30 ; Draw the second line
G92 E0 ; Reset Extruder
G1 Z2.0 F3000 ; Move Z Axis up little to prevent scratching of Heat Bed
G1 X5 Y20 Z0.3 F5000.0 ; Move over to prevent blob squish
G92 E0
G92 E0
G1 F1500 E-6.5
;LAYER_COUNT:344
;LAYER:0
M107
G0 F6000 X74.89 Y68.626 Z0.32
;TYPE:SKIRT
G1 F1500 E0
G1 F900 X75.628 Y67.867 E0.11267
G1 X76.9 Y66.608 E0.30316
G1 X77.675 Y65.908 E0.41431
G1 X78.299 Y65.422 E0.49849
G1 X79.243 Y64.742 E0.62231
G1 X80.725 Y63.72 E0.81392
G1 X81.602 Y63.174 E0.92387
G1 X82.234 Y62.842 E0.99985
G1 X83.188 Y62.38 E1.11267
G1 X84.147 Y61.932 E1.22532
G1 X84.938 Y61.576 E1.31765
G1 X85.907 Y61.192 E1.42858
G1 X86.561 Y60.985 E1.50159
G1 X87.466 Y60.726 E1.60178
G1 X89.326 Y60.236 E1.8065
G1 X90.409 Y60.005 E1.92436
G1 X91.132 Y59.907 E2.00201
G1 X91.971 Y59.821 E2.09178
G1 X94.046 Y59.649 E2.31338
G1 X95.079 Y59.613 E2.42339
G1 X95.817 Y59.641 E2.502
G1 X97.137 Y59.735 E2.64284
G1 X97.544 Y59.753 E2.6862
G1 X98.811 Y59.844 E2.8214
G1 X101.209 Y59.947 E3.07686
G1 X103.743 Y59.985 E3.34659
G1 X106.241 Y59.951 E3.61248
G1 X108.709 Y59.848 E3.87539
G1 X111.173 Y59.674 E4.13829
G1 X113.652 Y59.43 E4.40341
G1 X116.171 Y59.109 E4.67368
G1 X118.629 Y58.725 E4.93847
G1 X119.834 Y58.517 E5.06861
G1 X120.592 Y58.411 E5.15008
G1 X121.466 Y58.321 E5.24359
G1 X123.546 Y58.149 E5.46572
G1 X124.581 Y58.113 E5.57595
G1 X125.314 Y58.141 E5.65402
G1 X126.466 Y58.224 E5.77695
G1 X128.197 Y58.386 E5.96199
G1 X129.288 Y58.541 E6.07927
G1 X129.998 Y58.695 E6.1566
G1 X131.085 Y58.97 E6.27593
G1 X132.805 Y59.441 E6.46574
G1 X133.766 Y59.752 E6.57324
G1 X134.515 Y60.057 E6.65931
G1 X135.282 Y60.401 E6.74878
G1 X136.586 Y61.008 E6.90187
G1 X137.228 Y61.319 E6.97779
G1 X138.162 Y61.826 E7.0909
G1 X138.677 Y62.154 E7.15589
G1 X139.602 Y62.783 E7.27495
G1 X141.081 Y63.831 E7.46787
G1 X141.923 Y64.489 E7.58161
G1 X142.47 Y64.986 E7.66027
G1 X143.215 Y65.71 E7.77083
G1 X144.491 Y66.999 E7.96388
G1 X145.19 Y67.772 E8.0748
G1 X145.678 Y68.399 E8.15936
G1 X146.358 Y69.343 E8.28319
G1 X147.38 Y70.825 E8.47479
G1 X147.926 Y71.702 E8.58474
G1 X148.258 Y72.334 E8.66072
G1 X148.72 Y73.288 E8.77354
G1 X149.168 Y74.247 E8.8862
G1 X149.524 Y75.038 E8.97852
G1 X149.908 Y76.007 E9.08945
G1 X150.115 Y76.661 E9.16246
G1 X150.374 Y77.566 E9.26265
G1 X150.864 Y79.426 E9.46737
G1 X151.095 Y80.509 E9.58523
G1 X151.193 Y81.232 E9.66288
G1 X151.279 Y82.07 E9.75254
G1 X151.449 Y84.106 E9.96999
G1 X151.487 Y85.178 E10.08416
G1 X151.459 Y85.909 E10.16202
G1 X151.376 Y87.066 E10.28548
G1 X151.213 Y88.808 E10.47169
G1 X151.059 Y89.896 E10.58865
G1 X150.962 Y90.417 E10.64505
G1 X150.586 Y92.267 E10.84598
G1 X150.158 Y94.733 E11.11236
G1 X149.801 Y97.198 E11.37746
G1 X149.514 Y99.679 E11.64327
G1 X149.3 Y102.132 E11.90535
G1 X149.15 Y104.663 E12.1752
G1 X149.076 Y107.129 E12.43778
G1 X149.069 Y109.569 E12.69748
G1 X149.133 Y112.079 E12.96471
G1 X149.27 Y114.6 E13.23342
G1 X149.472 Y117.051 E13.49517
G1 X149.743 Y119.494 E13.75678
G1 X150.091 Y121.979 E14.02384
G1 X150.509 Y124.45 E14.29058
G1 X151.185 Y127.784 E14.65264
G1 X151.487 Y129.147 E14.80123
G1 X151.694 Y130.435 E14.94007
G1 X151.78 Y131.277 E15.03015
G1 X151.951 Y133.343 E15.2508
G1 X151.987 Y134.378 E15.36102
G1 X151.959 Y135.109 E15.43888
G1 X151.876 Y136.266 E15.56234
G1 X151.714 Y137.997 E15.74738
G1 X151.559 Y139.089 E15.86477
G1 X151.405 Y139.794 E15.94157
G1 X151.186 Y140.668 E16.03747
G1 X150.648 Y142.639 E16.25492
G1 X150.369 Y143.508 E16.35206
G1 X150.045 Y144.311 E16.44422
G1 X149.638 Y145.215 E16.54974
G1 X149.092 Y146.386 E16.68725
G1 X148.781 Y147.028 E16.76318
G1 X148.274 Y147.962 E16.87629
G1 X147.946 Y148.477 E16.94127
G1 X147.317 Y149.402 E17.06033
G1 X146.269 Y150.881 E17.25325
G1 X145.648 Y151.679 E17.36087
G1 X145.111 Y152.272 E17.44602
G1 X144.378 Y153.026 E17.55794
G1 X143.1 Y154.291 E17.74933
G1 X142.325 Y154.992 E17.86055
G1 X141.701 Y155.478 E17.94473
G1 X140.757 Y156.158 E18.06856
G1 X139.275 Y157.18 E18.26016
G1 X138.398 Y157.726 E18.37011
G1 X137.766 Y158.058 E18.44609
G1 X136.811 Y158.521 E18.55905
G1 X135.854 Y158.967 E18.67143
G1 X134.992 Y159.352 E18.7719
G1 X134.089 Y159.709 E18.87525
G1 X133.441 Y159.914 E18.94759
G1 X132.537 Y160.173 E19.04767
G1 X130.674 Y160.664 E19.25273
G1 X129.591 Y160.895 E19.37059
G1 X128.868 Y160.993 E19.44824
G1 X128.029 Y161.079 E19.53801
G1 X125.954 Y161.251 E19.75961
G1 X124.919 Y161.287 E19.86984
G1 X124.186 Y161.259 E19.94791
G1 X123.061 Y161.178 E20.06795
G1 X121.585 Y161.048 E20.22566
G1 X118.96 Y160.855 E20.5058
G1 X116.565 Y160.746 E20.76097
G1 X113.995 Y160.702 E21.03454
G1 X111.534 Y160.731 E21.29649
G1 X109.064 Y160.828 E21.55958
G1 X106.563 Y161 E21.82639
G1 X104.096 Y161.237 E22.09017
G1 X101.92 Y161.504 E22.3235
G1 X100.546 Y161.685 E22.47101
G1 X99.632 Y161.779 E22.5688
G1 X97.554 Y161.951 E22.79072
G1 X96.519 Y161.987 E22.90095
G1 X95.786 Y161.959 E22.97902
G1 X94.634 Y161.876 E23.10195
G1 X92.903 Y161.714 E23.28698
G1 X91.812 Y161.559 E23.40427
G1 X91.102 Y161.405 E23.48159
G1 X90.015 Y161.13 E23.60093
G1 X88.295 Y160.659 E23.79073
G1 X87.333 Y160.348 E23.89834
G1 X86.586 Y160.044 E23.98418
G1 X85.667 Y159.63 E24.09145
G1 X84.514 Y159.092 E24.22687
G1 X83.872 Y158.781 E24.3028
G1 X82.938 Y158.274 E24.41591
G1 X82.423 Y157.946 E24.48089
G1 X81.498 Y157.317 E24.59995
G1 X80.019 Y156.269 E24.79287
G1 X79.221 Y155.648 E24.90049
G1 X78.628 Y155.111 E24.98564
G1 X77.874 Y154.378 E25.09756
G1 X76.609 Y153.1 E25.28895
G1 X75.908 Y152.325 E25.40017
G1 X75.422 Y151.701 E25.48435
G1 X74.742 Y150.757 E25.60818
G1 X73.72 Y149.275 E25.79978
G1 X73.174 Y148.398 E25.90973
G1 X72.841 Y147.764 E25.98595
G1 X72.369 Y146.789 E26.10124
G1 X71.915 Y145.815 E26.21562
G1 X71.547 Y144.994 E26.31137
G1 X71.211 Y144.146 E26.40846
G1 X70.985 Y143.439 E26.48745
G1 X70.726 Y142.534 E26.58764
G1 X70.236 Y140.674 E26.79236
G1 X70.005 Y139.591 E26.91022
G1 X69.907 Y138.868 E26.98787
G1 X69.821 Y138.03 E27.07753
G1 X69.651 Y135.994 E27.29498
G1 X69.613 Y134.922 E27.40915
G1 X69.641 Y134.191 E27.48701
G1 X69.725 Y133.034 E27.61048
G1 X69.893 Y131.239 E27.80236
G1 X69.987 Y130.51 E27.88059
G1 X70.359 Y128.319 E28.11712
G1 X70.727 Y125.791 E28.38902
G1 X71.01 Y123.354 E28.65014
G1 X71.224 Y120.914 E28.91083
G1 X71.376 Y118.365 E29.18261
G1 X71.452 Y115.888 E29.44636
G1 X71.46 Y113.458 E29.705
G1 X71.394 Y110.901 E29.97723
G1 X71.261 Y108.427 E30.24093
G1 X71.057 Y105.949 E30.50556
G1 X70.781 Y103.465 E30.77156
G1 X70.443 Y101.042 E31.03195
G1 X70.026 Y98.57 E31.29877
G1 X69.544 Y96.131 E31.56338
G1 X68.752 Y92.726 E31.93545
G1 X68.601 Y92.13 E32.00089
G1 X68.394 Y91.124 E32.1102
G1 X68.306 Y90.467 E32.18075
G1 X68.22 Y89.625 E32.27084
G1 X68.049 Y87.557 E32.49169
G1 X68.013 Y86.522 E32.60191
G1 X68.041 Y85.791 E32.67977
G1 X68.124 Y84.634 E32.80323
G1 X68.286 Y82.903 E32.98827
G1 X68.441 Y81.811 E33.10566
G1 X68.595 Y81.106 E33.18247
G1 X68.814 Y80.232 E33.27836
G1 X69.352 Y78.261 E33.49582
G1 X69.631 Y77.392 E33.59296
G1 X69.955 Y76.589 E33.68512
G1 X70.362 Y75.685 E33.79063
G1 X70.908 Y74.514 E33.92815
G1 X71.219 Y73.872 E34.00407
G1 X71.726 Y72.938 E34.11718
G1 X72.054 Y72.423 E34.18217
G1 X72.683 Y71.498 E34.30122
G1 X73.731 Y70.019 E34.49415
G1 X74.352 Y69.221 E34.60177
G1 X74.89 Y68.626 E34.68714
G0 F6000 X75.464 Y69.184
G1 F900 X76.191 Y68.436 E34.79816
G1 X77.463 Y67.177 E34.98865
G1 X78.211 Y66.502 E35.09588
G1 X78.767 Y66.071 E35.17075
G1 X79.697 Y65.4 E35.29281
G1 X81.149 Y64.398 E35.48058
G1 X81.974 Y63.882 E35.58414
G1 X82.583 Y63.562 E35.65736
G1 X83.526 Y63.105 E35.76889
G1 X84.475 Y62.662 E35.88036
G1 X85.266 Y62.306 E35.97268
G1 X86.201 Y61.936 E36.07971
G1 X86.781 Y61.754 E36.14441
G1 X87.67 Y61.5 E36.24281
G1 X89.53 Y61.01 E36.44753
G1 X90.517 Y60.798 E36.55497
G1 X91.214 Y60.703 E36.62984
G1 X92.037 Y60.618 E36.7179
G1 X94.076 Y60.448 E36.93567
G1 X95.049 Y60.412 E37.0393
G1 X95.76 Y60.439 E37.11503
G1 X97.081 Y60.533 E37.25598
G1 X97.487 Y60.551 E37.29924
G1 X98.754 Y60.642 E37.43443
G1 X101.197 Y60.747 E37.69469
G1 X103.742 Y60.785 E37.96559
G1 X106.252 Y60.751 E38.23276
G1 X108.764 Y60.646 E38.50035
G1 X111.235 Y60.472 E38.764
G1 X113.753 Y60.224 E39.03329
G1 X116.272 Y59.903 E39.30356
G1 X118.768 Y59.513 E39.57244
G1 X119.945 Y59.309 E39.69958
G1 X120.675 Y59.207 E39.77803
G1 X121.532 Y59.118 E39.86973
G1 X123.576 Y58.948 E40.08803
G1 X124.55 Y58.912 E40.19177
G1 X125.256 Y58.939 E40.26696
G1 X126.391 Y59.021 E40.38808
G1 X128.122 Y59.183 E40.57312
G1 X129.119 Y59.323 E40.68027
G1 X129.802 Y59.471 E40.75465
G1 X130.874 Y59.742 E40.87234
G1 X132.594 Y60.213 E41.06214
G1 X133.519 Y60.513 E41.16564
G1 X134.188 Y60.787 E41.24258
G1 X134.944 Y61.126 E41.33077
G1 X136.237 Y61.728 E41.48257
G1 X136.879 Y62.039 E41.55849
G1 X137.732 Y62.501 E41.66174
G1 X138.247 Y62.829 E41.72672
G1 X139.139 Y63.436 E41.84156
G1 X140.618 Y64.484 E42.03449
G1 X141.386 Y65.082 E42.13808
G1 X141.912 Y65.559 E42.21366
G1 X142.646 Y66.273 E42.32264
G1 X143.922 Y67.562 E42.51568
G1 X144.559 Y68.264 E42.61658
G1 X145.029 Y68.867 E42.69795
G1 X145.7 Y69.797 E42.82
G1 X146.702 Y71.249 E43.00777
G1 X147.218 Y72.074 E43.11133
G1 X147.538 Y72.683 E43.18456
G1 X147.995 Y73.626 E43.29609
G1 X148.438 Y74.575 E43.40755
G1 X148.794 Y75.366 E43.49988
G1 X149.164 Y76.301 E43.6069
G1 X149.346 Y76.881 E43.6716
G1 X149.6 Y77.77 E43.77
G1 X150.09 Y79.63 E43.97472
G1 X150.302 Y80.617 E44.08216
G1 X150.397 Y81.314 E44.15703
G1 X150.482 Y82.137 E44.24509
G1 X150.652 Y84.173 E44.46254
G1 X150.688 Y85.147 E44.56628
G1 X150.661 Y85.852 E44.64137
G1 X150.579 Y86.991 E44.76291
G1 X150.416 Y88.733 E44.94913
G1 X150.273 Y89.749 E45.05833
G1 X150.178 Y90.258 E45.11344
G1 X149.802 Y92.108 E45.31436
G1 X149.366 Y94.618 E45.58551
G1 X149.009 Y97.083 E45.8506
G1 X148.719 Y99.587 E46.11889
G1 X148.501 Y102.085 E46.38577
G1 X148.351 Y104.616 E46.65562
G1 X148.276 Y107.105 E46.92065
G1 X148.269 Y109.59 E47.18514
G1 X148.334 Y112.122 E47.45471
G1 X148.471 Y114.643 E47.72343
G1 X148.677 Y117.139 E47.98998
G1 X148.951 Y119.605 E48.25406
G1 X149.302 Y122.112 E48.52349
G1 X149.721 Y124.591 E48.79108
G1 X150.404 Y127.958 E49.15673
G1 X150.697 Y129.275 E49.30033
G1 X150.898 Y130.517 E49.43424
G1 X150.983 Y131.343 E49.52262
G1 X151.152 Y133.373 E49.73942
G1 X151.188 Y134.347 E49.84316
G1 X151.161 Y135.052 E49.91825
G1 X151.079 Y136.191 E50.03979
G1 X150.917 Y137.922 E50.22483
G1 X150.777 Y138.919 E50.33198
G1 X150.629 Y139.6 E50.40616
G1 X150.414 Y140.458 E50.5003
G1 X149.886 Y142.394 E50.71388
G1 X149.607 Y143.263 E50.81102
G1 X149.315 Y143.983 E50.89371
G1 X148.913 Y144.877 E50.99804
G1 X148.372 Y146.037 E51.13427
G1 X148.061 Y146.679 E51.21019
G1 X147.599 Y147.532 E51.31344
G1 X147.271 Y148.047 E51.37843
G1 X146.664 Y148.939 E51.49326
G1 X145.616 Y150.418 E51.68619
G1 X145.017 Y151.187 E51.78993
G1 X144.537 Y151.714 E51.8658
G1 X143.815 Y152.457 E51.97607
G1 X142.537 Y153.722 E52.16745
G1 X141.789 Y154.398 E52.27476
G1 X141.233 Y154.829 E52.34963
G1 X140.303 Y155.5 E52.47169
G1 X138.851 Y156.502 E52.65946
G1 X138.026 Y157.018 E52.76302
G1 X137.417 Y157.338 E52.83624
G1 X136.473 Y157.796 E52.94792
G1 X135.527 Y158.237 E53.059
G1 X134.698 Y158.608 E53.15567
G1 X133.795 Y158.965 E53.25902
G1 X133.221 Y159.145 E53.32304
G1 X132.333 Y159.399 E53.42134
G1 X130.47 Y159.89 E53.6264
G1 X129.483 Y160.102 E53.73384
G1 X128.786 Y160.197 E53.80871
G1 X127.963 Y160.282 E53.89677
G1 X125.924 Y160.452 E54.11454
G1 X124.95 Y160.488 E54.21828
G1 X124.243 Y160.461 E54.29358
G1 X123.131 Y160.381 E54.41224
G1 X121.644 Y160.25 E54.57112
G1 X119.019 Y160.057 E54.85126
G1 X116.579 Y159.946 E55.11122
G1 X114 Y159.902 E55.38575
G1 X111.525 Y159.931 E55.64919
G1 X109.011 Y160.03 E55.91697
G1 X106.504 Y160.202 E56.18442
G1 X104.002 Y160.443 E56.45194
G1 X101.823 Y160.71 E56.6856
G1 X100.463 Y160.889 E56.83159
G1 X99.566 Y160.982 E56.92757
G1 X97.524 Y161.152 E57.14566
G1 X96.55 Y161.188 E57.2494
G1 X95.844 Y161.161 E57.32459
G1 X94.709 Y161.079 E57.44571
G1 X92.978 Y160.917 E57.63075
G1 X91.981 Y160.777 E57.7379
G1 X91.298 Y160.629 E57.81228
G1 X90.226 Y160.358 E57.92997
G1 X88.506 Y159.887 E58.11977
G1 X87.58 Y159.587 E58.22337
G1 X86.914 Y159.314 E58.29998
G1 X86.005 Y158.905 E58.40607
G1 X84.863 Y158.372 E58.5402
G1 X84.221 Y158.061 E58.61613
G1 X83.368 Y157.599 E58.71937
G1 X82.853 Y157.271 E58.78436
G1 X81.961 Y156.664 E58.89919
G1 X80.482 Y155.616 E59.09212
G1 X79.713 Y155.017 E59.19587
G1 X79.186 Y154.537 E59.27173
G1 X78.443 Y153.815 E59.382
G1 X77.178 Y152.537 E59.57339
G1 X76.502 Y151.789 E59.68069
G1 X76.071 Y151.233 E59.75557
G1 X75.4 Y150.303 E59.87762
G1 X74.398 Y148.851 E60.06539
G1 X73.882 Y148.026 E60.16895
G1 X73.561 Y147.415 E60.24241
G1 X73.094 Y146.451 E60.35642
G1 X72.645 Y145.488 E60.46951
G1 X72.291 Y144.699 E60.56155
G1 X71.955 Y143.851 E60.65863
G1 X71.754 Y143.219 E60.72921
G1 X71.5 Y142.33 E60.82762
G1 X71.01 Y140.47 E61.03234
G1 X70.798 Y139.483 E61.13978
G1 X70.703 Y138.786 E61.21465
G1 X70.618 Y137.963 E61.30271
G1 X70.448 Y135.927 E61.52016
G1 X70.412 Y134.953 E61.6239
G1 X70.439 Y134.248 E61.69899
G1 X70.521 Y133.109 E61.82053
G1 X70.687 Y131.341 E62.00953
G1 X70.777 Y130.638 E62.08496
G1 X70.902 Y129.865 E62.1683
G1 X71.151 Y128.434 E62.32289
G1 X71.519 Y125.906 E62.59479
G1 X71.805 Y123.446 E62.85838
G1 X72.023 Y120.962 E63.12377
G1 X72.175 Y118.413 E63.39555
G1 X72.252 Y115.913 E63.66176
G1 X72.26 Y113.437 E63.92529
G1 X72.194 Y110.88 E64.19753
G1 X72.06 Y108.384 E64.46356
G1 X71.854 Y105.883 E64.73065
G1 X71.576 Y103.377 E64.99901
G1 X71.232 Y100.909 E65.26422
G1 X70.815 Y98.437 E65.53104
G1 X70.329 Y95.976 E65.79803
G1 X69.531 Y92.545 E66.17295
G1 X69.384 Y91.967 E66.23642
G1 X69.187 Y91.018 E66.33958
G1 X69.102 Y90.385 E66.40756
G1 X69.017 Y89.559 E66.49593
G1 X68.848 Y87.527 E66.71295
G1 X68.812 Y86.553 E66.81669
G1 X68.839 Y85.848 E66.89178
G1 X68.921 Y84.709 E67.01332
G1 X69.083 Y82.978 E67.19836
G1 X69.223 Y81.981 E67.30551
G1 X69.371 Y81.3 E67.37968
G1 X69.586 Y80.442 E67.47383
G1 X70.114 Y78.506 E67.68741
G1 X70.393 Y77.637 E67.78454
G1 X70.685 Y76.917 E67.86724
G1 X71.087 Y76.023 E67.97157
G1 X71.628 Y74.863 E68.10779
G1 X71.939 Y74.221 E68.18372
G1 X72.401 Y73.368 E68.28697
G1 X72.729 Y72.853 E68.35195
G1 X73.336 Y71.961 E68.46679
G1 X74.384 Y70.482 E68.65971
G1 X74.983 Y69.713 E68.76346
G1 X75.464 Y69.184 E68.83956
G0 F6000 X76.037 Y69.742
G1 F900 X76.754 Y69.005 E68.94899
G1 X78.026 Y67.746 E69.13948
G1 X78.702 Y67.134 E69.23653
G1 X79.235 Y66.72 E69.30836
G1 X80.152 Y66.058 E69.42874
G1 X81.575 Y65.075 E69.61281
G1 X82.347 Y64.59 E69.70985
G1 X82.932 Y64.282 E69.78021
G1 X83.864 Y63.83 E69.89046
G1 X84.803 Y63.392 E70.00074
G1 X85.594 Y63.036 E70.09306
G1 X86.441 Y62.699 E70.19008
G1 X87 Y62.523 E70.25245
G1 X87.874 Y62.274 E70.34918
G1 X89.734 Y61.784 E70.5539
G1 X90.626 Y61.591 E70.65103
G1 X91.297 Y61.499 E70.72311
G1 X92.104 Y61.415 E70.80947
G1 X94.108 Y61.247 E71.02351
G1 X95.019 Y61.211 E71.12054
G1 X95.703 Y61.237 E71.1934
G1 X97.026 Y61.331 E71.33456
G1 X97.43 Y61.349 E71.3776
G1 X98.697 Y61.44 E71.5128
G1 X101.185 Y61.547 E71.77785
G1 X103.741 Y61.585 E72.04992
G1 X106.263 Y61.551 E72.31837
G1 X108.819 Y61.444 E72.59065
G1 X111.297 Y61.27 E72.85504
G1 X113.854 Y61.018 E73.1285
G1 X116.373 Y60.697 E73.39877
G1 X118.907 Y60.301 E73.67175
