;FLAVOR:Marlin
;TIME:271
;Filament used: 0.414135m
;Layer height: 0.32
;MINX:86.915
;MINY:86.918
;MINZ:0.32
;MAXX:133.07
;MAXY:133.082
;MAXZ:3.84
;TARGET_MACHINE.NAME:Creality Ender-3 Pro
;Generated with Cura_SteamEngine 5.5.0
M82 ;absolute extrusion mode
; Ender 3 Custom Start G-code
G92 E0 ; Reset Extruder
G28 ; Home all axes
G1 Z5.0 F3000 ; Move Z Axis up a bit during heating to not damage bed
M104 S120 ; Start heating up the nozzle most of the way
M190 S70 ; Start heating the bed, wait until target temperature reached
M109 S230 ; Finish heating the nozzle
G1 Z2.0 F3000 ; Move Z Axis up little to prevent scratching of Heat Bed
G1 X0.1 Y20 Z0.3 F5000.0 ; Move to start position
G1 X0.1 Y200.0 Z0.3 F1500.0 E15 ; Draw the first line
G1 X0.4 Y200.0 Z0.3 F5000.0 ; Move to side a little
G1 X0.4 Y20 Z0.3 F1500.0 E30 ; Draw the second line
G92 E0 ; Reset Extruder
G1 Z2.0 F3000 ; Move Z Axis up little to prevent scratching of Heat Bed
G1 X5 Y20 Z0.3 F5000.0 ; Move over to prevent blob squish
G92 E0
G92 E0
G1 F1500 E-6.5
;LAYER_COUNT:12
;LAYER:0
M107
G0 F6000 X93.43 Y93.891 Z0.32
;TYPE:SKIRT
G1 F1500 E0
G1 F900 X93.978 Y93.37 E0.08048
G1 X95.096 Y92.374 E0.23984
G1 X95.644 Y91.908 E0.3164
G1 X96.363 Y91.347 E0.41346
G1 X96.992 Y90.923 E0.4942
G1 X98.245 Y90.138 E0.65157
G1 X98.879 Y89.762 E0.73002
G1 X99.763 Y89.29 E0.83668
G1 X100.314 Y89.04 E0.90108
G1 X101.14 Y88.695 E0.99635
G1 X102.383 Y88.206 E1.13852
G1 X103.304 Y87.891 E1.24212
G1 X104.097 Y87.683 E1.32937
G1 X105.529 Y87.365 E1.4855
G1 X106.318 Y87.21 E1.57108
G1 X107.219 Y87.072 E1.66809
G1 X107.976 Y87.008 E1.74895
G1 X109.148 Y86.948 E1.87385
G1 X110.096 Y86.918 E1.9748
G1 X111.2 Y86.938 E2.09232
G1 X111.875 Y87 E2.16446
G1 X113.319 Y87.175 E2.31928
G1 X114.057 Y87.282 E2.39864
G1 X115.09 Y87.48 E2.51059
G1 X115.607 Y87.614 E2.56743
G1 X116.499 Y87.872 E2.66626
G1 X117.683 Y88.242 E2.79829
G1 X118.723 Y88.622 E2.91614
G1 X119.403 Y88.931 E2.99563
G1 X120.777 Y89.611 E3.1588
G1 X121.413 Y89.945 E3.23526
G1 X122.202 Y90.403 E3.33236
G1 X122.796 Y90.804 E3.40863
G1 X123.639 Y91.413 E3.51932
G1 X124.609 Y92.149 E3.64891
G1 X125.354 Y92.769 E3.75207
G1 X125.9 Y93.293 E3.83262
G1 X126.705 Y94.119 E3.95537
G1 X127.445 Y94.913 E4.07089
G1 X128.071 Y95.65 E4.17381
G1 X128.457 Y96.173 E4.24299
G1 X129.031 Y96.999 E4.35005
G1 X129.697 Y98.007 E4.47864
G1 X130.168 Y98.789 E4.5758
G1 X130.515 Y99.463 E4.65648
G1 X130.836 Y100.147 E4.7369
G1 X131.442 Y101.513 E4.89595
G1 X131.794 Y102.418 E4.9993
G1 X132.023 Y103.164 E5.08236
G1 X132.339 Y104.331 E5.21104
G1 X132.579 Y105.295 E5.31677
G1 X132.769 Y106.249 E5.4203
G1 X132.863 Y106.996 E5.50043
G1 X132.993 Y108.435 E5.65421
G1 X133.048 Y109.251 E5.74126
G1 X133.07 Y110.162 E5.83825
G1 X133.04 Y110.877 E5.91441
G1 X132.932 Y112.295 E6.06577
G1 X132.853 Y113.097 E6.15154
G1 X132.705 Y114.111 E6.26061
G1 X132.571 Y114.728 E6.32781
G1 X132.31 Y115.779 E6.44307
G1 X132.009 Y116.882 E6.56475
G1 X131.703 Y117.836 E6.67139
G1 X131.442 Y118.489 E6.74623
G1 X131.044 Y119.393 E6.85136
G1 X130.509 Y120.543 E6.98635
G1 X130.061 Y121.402 E7.08947
G1 X129.676 Y122.029 E7.16778
G1 X128.845 Y123.275 E7.32718
G1 X128.413 Y123.89 E7.40717
G1 X127.802 Y124.682 E7.51363
G1 X127.396 Y125.141 E7.57885
G1 X126.705 Y125.88 E7.68653
G1 X125.863 Y126.741 E7.81471
G1 X125.081 Y127.47 E7.9285
G1 X124.545 Y127.899 E8.00157
G1 X123.596 Y128.616 E8.12816
G1 X122.801 Y129.193 E8.23271
G1 X121.958 Y129.746 E8.34001
G1 X121.303 Y130.112 E8.41987
G1 X120.173 Y130.695 E8.5552
G1 X119.356 Y131.095 E8.65202
G1 X118.432 Y131.494 E8.75914
G1 X117.738 Y131.737 E8.8374
G1 X116.585 Y132.1 E8.96606
G1 X115.622 Y132.381 E9.07283
G1 X114.643 Y132.618 E9.18003
G1 X113.943 Y132.736 E9.25559
G1 X112.547 Y132.925 E9.40552
G1 X111.812 Y133.009 E9.48426
G1 X110.715 Y133.082 E9.60127
G1 X110.038 Y133.08 E9.67333
G1 X108.867 Y133.039 E9.79804
G1 X107.857 Y132.983 E9.9057
G1 X106.797 Y132.873 E10.01912
G1 X106.151 Y132.758 E10.08896
G1 X104.92 Y132.504 E10.22274
G1 X103.972 Y132.287 E10.32625
G1 X103.038 Y132.027 E10.42943
G1 X102.417 Y131.808 E10.49952
G1 X101.421 Y131.42 E10.61328
G1 X100.316 Y130.96 E10.74068
G1 X99.49 Y130.574 E10.83771
G1 X98.784 Y130.18 E10.92376
G1 X97.532 Y129.423 E11.07948
G1 X96.908 Y129.025 E11.15826
G1 X96.088 Y128.449 E11.26491
G1 X95.602 Y128.058 E11.3313
G1 X94.835 Y127.4 E11.43886
G1 X93.955 Y126.611 E11.56465
G1 X93.21 Y125.879 E11.67581
G1 X92.696 Y125.296 E11.75853
G1 X91.811 Y124.216 E11.90714
G1 X91.328 Y123.6 E11.99046
G1 X90.743 Y122.781 E12.09758
G1 X90.357 Y122.15 E12.17631
G1 X89.764 Y121.109 E12.30382
G1 X89.292 Y120.237 E12.40935
G1 X88.831 Y119.277 E12.5227
G1 X88.603 Y118.702 E12.58853
G1 X88.172 Y117.508 E12.72364
G1 X87.859 Y116.578 E12.82807
G1 X87.559 Y115.52 E12.94512
G1 X87.433 Y114.913 E13.0111
G1 X87.182 Y113.515 E13.16227
G1 X87.063 Y112.758 E13.24383
G1 X86.96 Y111.852 E13.34088
G1 X86.925 Y111.056 E13.42568
G1 X86.915 Y109.579 E13.58289
G1 X86.928 Y108.804 E13.66538
G1 X86.982 Y107.894 E13.76241
G1 X87.071 Y107.196 E13.8373
G1 X87.232 Y106.189 E13.94584
G1 X87.452 Y104.989 E14.07569
G1 X87.669 Y104.047 E14.17857
G1 X87.863 Y103.403 E14.25016
G1 X88.175 Y102.484 E14.35345
G1 X88.615 Y101.274 E14.49048
G1 X88.988 Y100.375 E14.59408
G1 X89.339 Y99.678 E14.67713
G1 X90.027 Y98.423 E14.82946
G1 X90.419 Y97.745 E14.91282
G1 X90.941 Y96.928 E15.016
G1 X91.381 Y96.334 E15.09468
G1 X92.321 Y95.154 E15.25525
G1 X92.815 Y94.564 E15.33715
G1 X93.43 Y93.891 E15.43418
G0 F6000 X94.021 Y94.431
G1 F900 X94.51 Y93.967 E15.50593
G1 X95.614 Y92.983 E15.66333
G1 X96.136 Y92.539 E15.73626
G1 X96.855 Y91.978 E15.83333
G1 X97.417 Y91.601 E15.90535
G1 X98.654 Y90.826 E16.06072
G1 X99.256 Y90.468 E16.13526
G1 X100.14 Y89.996 E16.24192
G1 X100.623 Y89.778 E16.29832
G1 X101.433 Y89.439 E16.39178
G1 X102.642 Y88.963 E16.53007
G1 X103.563 Y88.648 E16.63367
G1 X104.271 Y88.464 E16.71152
G1 X105.684 Y88.15 E16.86558
G1 X106.439 Y88.001 E16.94749
G1 X107.34 Y87.863 E17.0445
G1 X108.017 Y87.807 E17.1168
G1 X109.173 Y87.748 E17.24
G1 X110.121 Y87.718 E17.34095
G1 X111.128 Y87.735 E17.44814
G1 X111.779 Y87.794 E17.51771
G1 X113.205 Y87.967 E17.6706
G1 X113.907 Y88.068 E17.74608
G1 X114.89 Y88.255 E17.85258
G1 X115.385 Y88.383 E17.907
G1 X116.26 Y88.636 E18.00394
G1 X117.444 Y89.006 E18.13597
G1 X118.393 Y89.351 E18.24344
G1 X119.048 Y89.648 E18.31998
G1 X120.405 Y90.319 E18.4811
G1 X121.011 Y90.637 E18.55394
G1 X121.8 Y91.095 E18.65104
G1 X122.327 Y91.452 E18.71879
G1 X123.156 Y92.051 E18.82764
G1 X124.098 Y92.765 E18.95345
G1 X124.8 Y93.347 E19.0505
G1 X125.327 Y93.852 E19.12819
G1 X126.12 Y94.665 E19.24906
G1 X126.836 Y95.432 E19.36074
G1 X127.428 Y96.126 E19.45783
G1 X127.8 Y96.629 E19.52441
G1 X128.364 Y97.441 E19.62964
G1 X129.012 Y98.42 E19.75459
G1 X129.483 Y99.202 E19.85175
G1 X129.791 Y99.804 E19.92372
G1 X130.105 Y100.471 E20.00219
G1 X130.696 Y101.803 E20.15728
G1 X131.048 Y102.708 E20.26063
G1 X131.251 Y103.373 E20.33464
G1 X131.563 Y104.524 E20.46156
G1 X131.794 Y105.451 E20.56324
G1 X131.984 Y106.405 E20.66677
G1 X132.066 Y107.068 E20.73787
G1 X132.195 Y108.489 E20.88974
G1 X132.248 Y109.27 E20.97305
G1 X132.27 Y110.181 E21.07004
G1 X132.242 Y110.817 E21.1378
G1 X132.136 Y112.217 E21.28723
G1 X132.061 Y112.983 E21.36914
G1 X131.923 Y113.942 E21.47226
G1 X131.795 Y114.535 E21.53683
G1 X131.538 Y115.568 E21.65013
G1 X131.237 Y116.671 E21.77182
G1 X130.96 Y117.54 E21.86889
G1 X130.71 Y118.167 E21.94073
G1 X130.319 Y119.056 E22.0441
G1 X129.799 Y120.174 E22.17533
G1 X129.379 Y120.983 E22.27235
G1 X128.994 Y121.61 E22.35066
G1 X128.19 Y122.815 E22.50484
G1 X127.758 Y123.43 E22.58483
G1 X127.202 Y124.153 E22.6819
G1 X126.812 Y124.595 E22.74464
G1 X126.133 Y125.321 E22.85044
G1 X125.316 Y126.157 E22.97485
G1 X124.58 Y126.846 E23.08215
G1 X124.063 Y127.261 E23.15271
G1 X123.126 Y127.969 E23.27771
G1 X122.362 Y128.524 E23.37821
G1 X121.519 Y129.077 E23.48552
G1 X120.937 Y129.401 E23.55641
G1 X119.821 Y129.976 E23.69003
G1 X119.004 Y130.376 E23.78685
G1 X118.167 Y130.739 E23.88395
G1 X117.498 Y130.974 E23.95942
G1 X116.361 Y131.332 E24.08629
G1 X115.434 Y131.603 E24.18908
G1 X114.455 Y131.84 E24.29629
G1 X113.836 Y131.943 E24.36307
G1 X112.456 Y132.13 E24.51129
G1 X111.721 Y132.214 E24.59003
G1 X110.717 Y132.282 E24.69713
G1 X110.066 Y132.28 E24.76642
G1 X108.911 Y132.24 E24.88942
G1 X107.938 Y132.187 E24.99314
G1 X106.936 Y132.085 E25.10033
G1 X106.313 Y131.975 E25.16766
G1 X105.098 Y131.724 E25.29971
G1 X104.187 Y131.516 E25.39917
G1 X103.253 Y131.256 E25.50235
G1 X102.707 Y131.062 E25.56403
G1 X101.728 Y130.681 E25.67583
G1 X100.655 Y130.235 E25.79951
G1 X99.829 Y129.849 E25.89655
G1 X99.198 Y129.496 E25.9735
G1 X97.962 Y128.748 E26.12727
G1 X97.368 Y128.37 E26.2022
G1 X96.548 Y127.794 E26.30886
G1 X96.123 Y127.45 E26.36705
G1 X95.369 Y126.804 E26.47273
G1 X94.489 Y126.015 E26.59852
G1 X93.771 Y125.309 E26.70569
G1 X93.315 Y124.789 E26.7793
G1 X92.441 Y123.722 E26.9261
G1 X91.958 Y123.106 E27.00942
G1 X91.394 Y122.316 E27.11273
G1 X91.052 Y121.755 E27.18266
G1 X90.468 Y120.728 E27.3084
G1 X89.996 Y119.856 E27.41393
G1 X89.575 Y118.982 E27.51718
G1 X89.347 Y118.407 E27.58302
G1 X88.93 Y117.253 E27.71361
G1 X88.617 Y116.323 E27.81805
G1 X88.342 Y115.356 E27.92505
G1 X88.22 Y114.772 E27.98855
G1 X87.972 Y113.39 E28.13799
G1 X87.858 Y112.668 E28.21579
G1 X87.755 Y111.762 E28.31283
G1 X87.725 Y111.051 E28.38858
G1 X87.715 Y109.592 E28.54386
G1 X87.727 Y108.851 E28.62274
G1 X87.781 Y107.941 E28.71976
G1 X87.861 Y107.322 E28.78619
G1 X88.019 Y106.333 E28.89279
G1 X88.232 Y105.167 E29.01894
G1 X88.435 Y104.278 E29.116
G1 X88.621 Y103.66 E29.18469
G1 X88.927 Y102.757 E29.28616
G1 X89.354 Y101.581 E29.41932
G1 X89.727 Y100.682 E29.52292
G1 X90.04 Y100.063 E29.59674
G1 X90.72 Y98.823 E29.74726
G1 X91.093 Y98.176 E29.82675
G1 X91.615 Y97.359 E29.92993
G1 X92.007 Y96.832 E29.99984
G1 X92.935 Y95.667 E30.15836
G1 X93.406 Y95.104 E30.23649
G1 X94.021 Y94.431 E30.33352
G0 F6000 X94.612 Y94.971
G1 F900 X95.042 Y94.564 E30.39654
G1 X96.133 Y93.592 E30.55205
G1 X96.628 Y93.17 E30.62128
G1 X97.347 Y92.609 E30.71835
G1 X97.841 Y92.279 E30.78158
G1 X99.063 Y91.514 E30.93502
G1 X99.665 Y91.156 E31.00957
G1 X100.469 Y90.725 E31.10666
G1 X100.932 Y90.516 E31.16073
G1 X101.727 Y90.183 E31.25246
G1 X102.903 Y89.719 E31.38702
G1 X103.765 Y89.422 E31.48405
G1 X104.444 Y89.245 E31.55874
G1 X105.84 Y88.935 E31.71094
G1 X106.56 Y88.792 E31.78906
G1 X107.461 Y88.654 E31.88608
G1 X108.058 Y88.606 E31.94982
G1 X109.198 Y88.548 E32.07131
G1 X110.146 Y88.518 E32.17226
G1 X111.057 Y88.532 E32.26923
G1 X111.683 Y88.588 E32.33613
G1 X113.091 Y88.759 E32.48708
G1 X113.793 Y88.86 E32.56257
G1 X114.689 Y89.029 E32.65961
G1 X115.163 Y89.152 E32.71173
G1 X116.021 Y89.4 E32.80679
G1 X117.205 Y89.77 E32.93882
G1 X118.063 Y90.08 E33.03591
G1 X118.693 Y90.365 E33.10951
G1 X120.034 Y91.028 E33.26872
G1 X120.609 Y91.329 E33.3378
G1 X121.398 Y91.787 E33.4349
G1 X121.858 Y92.1 E33.49412
G1 X122.673 Y92.689 E33.60114
G1 X123.587 Y93.381 E33.72316
G1 X124.289 Y93.963 E33.82021
G1 X124.754 Y94.411 E33.88893
G1 X125.547 Y95.224 E34.00981
G1 X126.227 Y95.951 E34.11576
G1 X126.819 Y96.645 E34.21285
G1 X127.143 Y97.085 E34.271
G1 X127.697 Y97.883 E34.3744
G1 X128.327 Y98.833 E34.49572
G1 X128.798 Y99.615 E34.59288
G1 X129.067 Y100.145 E34.65614
G1 X129.374 Y100.796 E34.73274
G1 X129.951 Y102.094 E34.88393
G1 X130.283 Y102.943 E34.98095
G1 X130.479 Y103.582 E35.05209
G1 X130.787 Y104.718 E35.17736
G1 X131.01 Y105.609 E35.27512
G1 X131.19 Y106.503 E35.37218
G1 X131.269 Y107.141 E35.4406
G1 X131.397 Y108.544 E35.59055
G1 X131.448 Y109.289 E35.67002
G1 X131.47 Y110.2 E35.76701
G1 X131.444 Y110.757 E35.82636
G1 X131.34 Y112.14 E35.97397
G1 X131.269 Y112.871 E36.05214
G1 X131.141 Y113.774 E36.14921
G1 X131.019 Y114.342 E36.21104
G1 X130.766 Y115.358 E36.32248
G1 X130.475 Y116.428 E36.4405
G1 X130.198 Y117.297 E36.53757
G1 X129.978 Y117.845 E36.60042
G1 X129.594 Y118.719 E36.70203
G1 X129.089 Y119.805 E36.8295
G1 X128.669 Y120.614 E36.92651
G1 X128.328 Y121.166 E36.99557
G1 X127.535 Y122.356 E37.14777
G1 X127.124 Y122.942 E37.22395
G1 X126.568 Y123.665 E37.32103
G1 X126.227 Y124.049 E37.37568
G1 X125.561 Y124.762 E37.47953
G1 X124.744 Y125.598 E37.60394
G1 X124.079 Y126.222 E37.701
G1 X123.58 Y126.623 E37.76913
G1 X122.656 Y127.322 E37.89244
G1 X121.892 Y127.877 E37.99295
G1 X121.13 Y128.378 E38.09001
G1 X120.57 Y128.69 E38.15824
G1 X119.469 Y129.258 E38.2901
G1 X118.686 Y129.642 E38.38291
G1 X117.849 Y130.005 E38.48002
G1 X117.258 Y130.211 E38.54663
G1 X116.137 Y130.564 E38.67171
G1 X115.21 Y130.835 E38.77451
G1 X114.324 Y131.051 E38.87157
G1 X113.728 Y131.15 E38.93587
G1 X112.365 Y131.335 E39.08227
G1 X111.63 Y131.419 E39.16101
G1 X110.72 Y131.482 E39.25809
G1 X110.093 Y131.48 E39.32482
G1 X108.955 Y131.441 E39.44602
G1 X107.982 Y131.388 E39.54973
G1 X107.075 Y131.297 E39.64675
G1 X106.474 Y131.191 E39.7117
G1 X105.275 Y130.944 E39.84199
G1 X104.4 Y130.745 E39.9375
G1 X103.521 Y130.502 E40.03456
G1 X102.997 Y130.316 E40.09374
G1 X102.035 Y129.942 E40.2036
G1 X100.994 Y129.51 E40.32355
G1 X100.168 Y129.124 E40.42059
G1 X99.612 Y128.812 E40.48845
G1 X98.392 Y128.073 E40.64026
G1 X97.798 Y127.695 E40.7152
G1 X97.051 Y127.172 E40.81225
G1 X96.643 Y126.842 E40.8681
G1 X95.903 Y126.208 E40.97181
G1 X95.023 Y125.419 E41.09761
G1 X94.372 Y124.781 E41.19462
G1 X93.934 Y124.282 E41.26529
G1 X93.07 Y123.228 E41.41034
G1 X92.608 Y122.64 E41.48993
G1 X92.077 Y121.899 E41.58696
G1 X91.747 Y121.359 E41.65431
G1 X91.171 Y120.347 E41.77825
G1 X90.716 Y119.508 E41.87983
G1 X90.319 Y118.687 E41.97689
G1 X90.091 Y118.112 E42.04273
G1 X89.688 Y116.998 E42.16881
G1 X89.375 Y116.068 E42.27325
G1 X89.125 Y115.191 E42.37031
G1 X89.007 Y114.631 E42.43122
G1 X88.762 Y113.265 E42.57893
G1 X88.653 Y112.578 E42.65296
G1 X88.55 Y111.672 E42.75001
G1 X88.525 Y111.045 E42.8168
G1 X88.515 Y109.604 E42.97017
G1 X88.526 Y108.898 E43.04532
G1 X88.58 Y107.988 E43.14234
G1 X88.651 Y107.448 E43.20031
G1 X88.806 Y106.476 E43.30507
G1 X89.012 Y105.345 E43.42743
G1 X89.215 Y104.456 E43.52448
G1 X89.379 Y103.916 E43.58454
G1 X89.679 Y103.029 E43.6842
G1 X90.093 Y101.886 E43.81359
G1 X90.441 Y101.043 E43.91066
G1 X90.742 Y100.447 E43.98172
G1 X91.413 Y99.222 E44.13038
G1 X91.768 Y98.605 E44.20614
G1 X92.257 Y97.836 E44.30313
G1 X92.633 Y97.33 E44.37023
G1 X93.549 Y96.18 E44.52671
G1 X93.997 Y95.644 E44.60106
G1 X94.612 Y94.971 E44.69809
G1 F1500 E38.19809
G0 F6000 X102.252 Y102.591
G1 F1500 E44.69809
G1 F900 X103.612 Y101.394 E44.89092
G1 X105.158 Y100.444 E45.08405
G1 X106.843 Y99.764 E45.27744
G1 X108.621 Y99.383 E45.47097
G1 X110.434 Y99.305 E45.66411
G1 X112.232 Y99.537 E45.85707
G1 X113.975 Y100.066 E46.05093
G1 X115.588 Y100.88 E46.24323
G1 X117.05 Y101.967 E46.43713
G1 X118.311 Y103.282 E46.63104
G1 X119.321 Y104.775 E46.82289
G1 X120.072 Y106.433 E47.01661
G1 X120.531 Y108.186 E47.20948
G1 X120.681 Y110 E47.40321
G1 X120.531 Y111.814 E47.59693
G1 X120.072 Y113.567 E47.7898
G1 X119.321 Y115.225 E47.98352
G1 X118.311 Y116.718 E48.17537
G1 X117.05 Y118.033 E48.36928
G1 X115.588 Y119.12 E48.56318
G1 X113.975 Y119.934 E48.75548
G1 X112.232 Y120.463 E48.94935
G1 X110.434 Y120.695 E49.1423
G1 X108.621 Y120.617 E49.33544
G1 X106.843 Y120.236 E49.52897
G1 X105.158 Y119.556 E49.72236
G1 X103.612 Y118.606 E49.91549
G1 X102.252 Y117.409 E50.10832
G1 X101.11 Y115.995 E50.30177
G1 X100.225 Y114.407 E50.49526
G1 X99.623 Y112.697 E50.68821
G1 X99.314 Y110.908 E50.88143
G1 X99.314 Y109.091 E51.07482
G1 X99.623 Y107.303 E51.26794
G1 X100.225 Y105.593 E51.46089
G1 X101.11 Y104.005 E51.65438
G1 X102.252 Y102.591 E51.84783
G0 F6000 X102.829 Y103.15
G1 F900 X104.094 Y102.036 E52.02723
G1 X105.517 Y101.162 E52.20497
G1 X107.079 Y100.532 E52.38423
G1 X108.724 Y100.179 E52.5633
G1 X110.401 Y100.107 E52.74195
G1 X112.063 Y100.321 E52.9203
G1 X113.676 Y100.812 E53.09975
G1 X115.165 Y101.563 E53.27725
G1 X116.518 Y102.568 E53.45663
G1 X117.686 Y103.786 E53.63624
G1 X118.62 Y105.167 E53.81368
G1 X119.315 Y106.702 E53.99302
G1 X119.74 Y108.324 E54.17148
