;FLAVOR:Marlin
;TIME:6002
;Filament used: 13.034m
;Layer height: 0.32
;MINX:93.75
;MINY:58.608
;MINZ:0.32
;MAXX:126.25
;MAXY:161.739
;MAXZ:41.8
;TARGET_MACHINE.NAME:Creality Ender-3 Pro
;Generated with Cura_SteamEngine 5.5.0
M82 ;absolute extrusion mode
; Ender 3 Custom Start G-code
G92 E0 ; Reset Extruder
G28 ; Home all axes
G1 Z5.0 F3000 ; Move Z Axis up a bit during heating to not damage bed
M104 S120 ; Start heating up the nozzle most of the way
M190 S70 ; Start heating the bed, wait until target temperature reached
M109 S235.0 ; Finish heating the nozzle
G1 Z2.0 F3000 ; Move Z Axis up little to prevent scratching of Heat Bed
G1 X0.1 Y20 Z0.3 F5000.0 ; Move to start position
G1 X0.1 Y200.0 Z0.3 F1500.0 E15 ; Draw the first line
G1 X0.4 Y200.0 Z0.3 F5000.0 ; Move to side a little
G1 X0.4 Y20 Z0.3 F1500.0 E30 ; Draw the second line
G92 E0 ; Reset Extruder
G1 Z2.0 F3000 ; Move Z Axis up little to prevent scratching of Heat Bed
G1 X5 Y20 Z0.3 F5000.0 ; Move over to prevent blob squish
G92 E0
G92 E0
G1 F1500 E-6.5
;LAYER_COUNT:130
;LAYER:0
M107
G1 F300 Z0.52
G0 F6000 X94.105 Y60.525 Z0.52
;TYPE:SKIRT
G1 F300 Z0.32
G1 F1500 E0
G1 F900 X94.523 Y59.932 E0.07722
G1 X95.153 Y59.38 E0.16637
G1 X95.828 Y59.076 E0.24516
G1 X96.522 Y58.803 E0.32453
G1 X97.174 Y58.621 E0.39658
G1 X98.153 Y58.608 E0.50079
G1 X121.784 Y58.608 E3.01589
G1 X122.623 Y58.62 E3.1052
G1 X123.394 Y58.77 E3.1888
G1 X123.967 Y58.992 E3.2542
G1 X124.524 Y59.239 E3.31905
G1 X125.053 Y59.541 E3.38388
G1 X125.574 Y60.042 E3.46081
G1 X125.961 Y60.654 E3.53788
G1 X126.228 Y61.449 E3.62714
G1 X126.248 Y62.2 E3.70709
G1 X126.25 Y157.28 E13.82669
G1 X126.226 Y158.17 E13.92145
G1 X126.155 Y158.689 E13.9772
G1 X125.89 Y159.372 E14.05518
G1 X125.487 Y159.914 E14.12706
G1 X125.025 Y160.407 E14.19897
G1 X124.388 Y161.009 E14.29225
G1 X123.972 Y161.324 E14.34779
G1 X123.286 Y161.624 E14.42748
G1 X122.499 Y161.729 E14.51198
G1 X121.941 Y161.739 E14.57138
G1 X98.209 Y161.739 E17.09724
G1 X97.318 Y161.715 E17.1921
G1 X96.799 Y161.644 E17.24786
G1 X96.106 Y161.375 E17.32698
G1 X95.478 Y160.894 E17.41117
G1 X95.07 Y160.503 E17.47131
G1 X94.604 Y160.022 E17.54259
G1 X94.165 Y159.467 E17.61791
G1 X93.865 Y158.776 E17.69809
G1 X93.76 Y157.987 E17.7828
G1 X93.75 Y157.43 E17.84209
G1 X93.75 Y62.563 E27.93902
G1 X93.774 Y61.709 E28.02995
G1 X93.845 Y61.19 E28.0857
G1 X94.105 Y60.525 E28.1617
G0 F6000 X94.816 Y60.904
G1 F900 X95.12 Y60.472 E28.21792
G1 X95.592 Y60.059 E28.28467
G1 X96.125 Y59.819 E28.34688
G1 X96.737 Y59.574 E28.41705
G1 X97.29 Y59.42 E28.47814
G1 X98.164 Y59.408 E28.57117
G1 X121.773 Y59.408 E31.08394
G1 X122.543 Y59.419 E31.1659
G1 X123.167 Y59.54 E31.23355
G1 X123.677 Y59.738 E31.29178
G1 X124.199 Y59.97 E31.35258
G1 X124.57 Y60.186 E31.39827
G1 X124.949 Y60.551 E31.45427
G1 X125.233 Y60.999 E31.51072
G1 X125.431 Y61.59 E31.57706
G1 X125.448 Y62.2 E31.64201
G1 X125.45 Y157.263 E41.7598
G1 X125.433 Y158.062 E41.84486
G1 X125.375 Y158.487 E41.89051
G1 X125.182 Y158.983 E41.94716
G1 X124.903 Y159.368 E41.99776
G1 X124.472 Y159.829 E42.06493
G1 X123.905 Y160.371 E42.14841
G1 X123.563 Y160.63 E42.19407
G1 X123.069 Y160.846 E42.25146
G1 X122.485 Y160.929 E42.31424
G1 X121.927 Y160.939 E42.37364
G1 X98.226 Y160.939 E44.89619
G1 X97.426 Y160.922 E44.98136
G1 X97.001 Y160.864 E45.02701
G1 X96.5 Y160.669 E45.08423
G1 X96.032 Y160.317 E45.14656
G1 X95.645 Y159.946 E45.20362
G1 X95.179 Y159.465 E45.2749
G1 X94.858 Y159.053 E45.33048
G1 X94.643 Y158.558 E45.38792
G1 X94.56 Y157.973 E45.45081
G1 X94.55 Y157.416 E45.5101
G1 X94.55 Y62.581 E55.60362
G1 X94.567 Y61.817 E55.68496
G1 X94.625 Y61.392 E55.73061
G1 X94.816 Y60.904 E55.78638
G0 F6000 X95.527 Y61.283
G1 F900 X95.719 Y61.01 E55.82191
G1 X96.028 Y60.74 E55.86558
G1 X96.422 Y60.562 E55.9116
G1 X97.034 Y60.317 E55.98176
G1 X97.403 Y60.219 E56.02239
G1 X98.175 Y60.208 E56.10457
G1 X121.762 Y60.208 E58.61499
G1 X122.462 Y60.218 E58.6895
G1 X122.945 Y60.312 E58.74187
G1 X123.359 Y60.472 E58.78911
G1 X123.796 Y60.661 E58.83978
G1 X124.084 Y60.829 E58.87527
G1 X124.325 Y61.061 E58.91088
G1 X124.504 Y61.343 E58.94642
G1 X124.634 Y61.731 E58.98998
G1 X124.648 Y62.2 E59.03992
G1 X124.65 Y157.252 E69.15653
G1 X124.64 Y157.954 E69.23125
G1 X124.595 Y158.285 E69.26681
G1 X124.474 Y158.596 E69.30233
G1 X124.255 Y158.898 E69.34203
G1 X123.915 Y159.255 E69.3945
G1 X123.421 Y159.734 E69.46774
G1 X123.155 Y159.936 E69.50329
G1 X122.848 Y160.07 E69.53894
G1 X122.471 Y160.129 E69.57955
G1 X121.913 Y160.139 E69.63895
G1 X98.237 Y160.139 E72.15884
G1 X97.534 Y160.129 E72.23367
G1 X97.203 Y160.084 E72.26923
G1 X96.892 Y159.963 E72.30474
G1 X96.586 Y159.74 E72.34504
G1 X96.22 Y159.389 E72.39902
G1 X95.754 Y158.908 E72.4703
G1 X95.552 Y158.642 E72.50584
G1 X95.419 Y158.336 E72.54136
G1 X95.36 Y157.959 E72.58197
G1 X95.35 Y157.402 E72.64126
G1 X95.35 Y62.593 E82.73201
G1 X95.36 Y61.925 E82.80312
G1 X95.405 Y61.594 E82.83867
G1 X95.527 Y61.283 E82.87423
G1 F1500 E76.37423
G1 F300 Z0.52
;MESH:AufsatzT-St??ck v3.stl
G0 F6000 X119.65 Y154.499 Z0.52
;TYPE:WALL-INNER
G1 F300 Z0.32
G1 F1500 E82.87423
G1 F900 X119.65 Y65.473 E92.34948
G1 X100.35 Y65.473 E94.40363
G1 X100.35 Y154.499 E103.87888
G1 X119.65 Y154.499 E105.93303
G0 F6000 X120.45 Y155.299
G1 F900 X120.45 Y64.673 E115.57857
G1 X99.55 Y64.673 E117.80301
G1 X99.55 Y155.299 E127.44856
G1 X120.45 Y155.299 E129.67299
G0 F6000 X121.25 Y156.099
G1 F900 X121.25 Y63.873 E139.48883
G1 X98.75 Y63.873 E141.88356
G1 X98.75 Y156.099 E151.6994
G1 X121.25 Y156.099 E154.09413
G0 F6000 X122.05 Y156.899
G1 F900 X122.05 Y63.073 E164.08026
G1 X97.95 Y63.073 E166.64528
G1 X97.95 Y156.899 E176.63141
G1 X122.05 Y156.899 E179.19643
G0 F6000 X122.85 Y157.699
;TYPE:WALL-OUTER
G1 F900 X122.85 Y62.273 E189.35285
G1 X97.15 Y62.273 E192.08817
G1 X97.15 Y157.699 E202.24459
G1 X122.85 Y157.699 E204.9799
G1 F1500 E198.4799
G1 F300 Z0.52
G0 F6000 X118.93 Y153.779 Z0.52
;TYPE:SKIN
G1 F300 Z0.32
G1 F1500 E204.9799
G1 F900 X101.07 Y153.779 E206.88078
G1 X101.07 Y66.193 E216.20278
G1 X118.93 Y66.193 E218.10366
G1 X118.93 Y153.779 E227.42565
G1 F1500 E220.92565
G1 F300 Z0.52
G0 F6000 X102.466 Y153.377 Z0.52
G1 F300 Z0.32
G1 F1500 E227.42565
G1 F900 X101.469 Y152.38 E227.57572
G0 F6000 X101.469 Y151.249
G1 F900 X103.597 Y153.377 E227.89602
G0 F6000 X104.728 Y153.377
G1 F900 X101.469 Y150.118 E228.38656
G0 F6000 X101.469 Y148.986
G1 F900 X105.86 Y153.377 E229.04748
G0 F6000 X106.991 Y153.377
G1 F900 X101.469 Y147.855 E229.87864
G0 F6000 X101.469 Y146.723
G1 F900 X108.122 Y153.377 E230.88012
G0 F6000 X109.254 Y153.377
G1 F900 X101.469 Y145.592 E232.0519
G0 F6000 X101.469 Y144.461
G1 F900 X110.385 Y153.377 E233.39392
G0 F6000 X111.517 Y153.377
G1 F900 X101.469 Y143.329 E234.90633
G0 F6000 X101.469 Y142.198
G1 F900 X112.648 Y153.377 E236.58897
G0 F6000 X113.779 Y153.377
G1 F900 X101.469 Y141.067 E238.44185
G0 F6000 X101.469 Y139.935
G1 F900 X114.911 Y153.377 E240.46512
G0 F6000 X116.042 Y153.377
G1 F900 X101.469 Y138.804 E242.65862
G0 F6000 X101.469 Y137.672
G1 F900 X117.173 Y153.377 E245.02243
G0 F6000 X118.305 Y153.377
G1 F900 X101.469 Y136.541 E247.55655
G0 F6000 X101.469 Y135.41
G1 F900 X118.53 Y152.471 E250.12454
G0 F6000 X118.53 Y151.339
G1 F900 X101.469 Y134.278 E252.69254
G0 F6000 X101.469 Y133.147
G1 F900 X118.53 Y150.208 E255.26053
G0 F6000 X118.53 Y149.077
G1 F900 X101.469 Y132.016 E257.82852
G0 F6000 X101.469 Y130.884
G1 F900 X118.53 Y147.945 E260.39651
G0 F6000 X118.53 Y146.814
G1 F900 X101.469 Y129.753 E262.9645
G0 F6000 X101.469 Y128.622
G1 F900 X118.53 Y145.683 E265.53249
G0 F6000 X118.53 Y144.551
G1 F900 X101.469 Y127.49 E268.10048
G0 F6000 X101.469 Y126.359
G1 F900 X118.53 Y143.42 E270.66847
G0 F6000 X118.53 Y142.288
G1 F900 X101.469 Y125.227 E273.23646
G0 F6000 X101.469 Y124.096
G1 F900 X118.53 Y141.157 E275.80445
G0 F6000 X118.53 Y140.026
G1 F900 X101.469 Y122.965 E278.37244
G0 F6000 X101.469 Y121.833
G1 F900 X118.53 Y138.894 E280.94043
G0 F6000 X118.53 Y137.763
G1 F900 X101.469 Y120.702 E283.50843
G0 F6000 X101.469 Y119.571
G1 F900 X118.53 Y136.632 E286.07642
G0 F6000 X118.53 Y135.5
G1 F900 X101.469 Y118.439 E288.64441
G0 F6000 X101.469 Y117.308
G1 F900 X118.53 Y134.369 E291.2124
G0 F6000 X118.53 Y133.238
G1 F900 X101.469 Y116.176 E293.78046
G0 F6000 X101.469 Y115.045
G1 F900 X118.53 Y132.106 E296.34845
G0 F6000 X118.53 Y130.975
G1 F900 X101.469 Y113.914 E298.91645
G0 F6000 X101.469 Y112.782
G1 F900 X118.53 Y129.843 E301.48444
G0 F6000 X118.53 Y128.712
G1 F900 X101.469 Y111.651 E304.05243
G0 F6000 X101.469 Y110.52
G1 F900 X118.53 Y127.581 E306.62042
G0 F6000 X118.53 Y126.449
G1 F900 X101.469 Y109.388 E309.18841
G0 F6000 X101.469 Y108.257
G1 F900 X118.53 Y125.318 E311.7564
G0 F6000 X118.53 Y124.187
G1 F900 X101.469 Y107.125 E314.32447
G0 F6000 X101.469 Y105.994
G1 F900 X118.53 Y123.055 E316.89246
G0 F6000 X118.53 Y121.924
G1 F900 X101.469 Y104.863 E319.46045
G0 F6000 X101.469 Y103.731
G1 F900 X118.53 Y120.792 E322.02844
G0 F6000 X118.53 Y119.661
G1 F900 X101.469 Y102.6 E324.59643
G0 F6000 X101.469 Y101.469
G1 F900 X118.53 Y118.53 E327.16442
G0 F6000 X118.53 Y117.398
G1 F900 X101.469 Y100.337 E329.73241
G0 F6000 X101.469 Y99.206
G1 F900 X118.53 Y116.267 E332.3004
G0 F6000 X118.53 Y115.136
G1 F900 X101.469 Y98.075 E334.86839
G0 F6000 X101.469 Y96.943
G1 F900 X118.53 Y114.004 E337.43638
G0 F6000 X118.53 Y112.873
G1 F900 X101.469 Y95.812 E340.00437
G0 F6000 X101.469 Y94.68
G1 F900 X118.53 Y111.741 E342.57236
G0 F6000 X118.53 Y110.61
G1 F900 X101.469 Y93.549 E345.14036
G0 F6000 X101.469 Y92.418
G1 F900 X118.53 Y109.479 E347.70835
G0 F6000 X118.53 Y108.347
G1 F900 X101.469 Y91.286 E350.27634
G0 F6000 X101.469 Y90.155
G1 F900 X118.53 Y107.216 E352.84433
G0 F6000 X118.53 Y106.085
G1 F900 X101.469 Y89.024 E355.41232
G0 F6000 X101.469 Y87.892
G1 F900 X118.53 Y104.953 E357.98031
G0 F6000 X118.53 Y103.822
G1 F900 X101.469 Y86.761 E360.5483
G0 F6000 X101.469 Y85.629
G1 F900 X118.53 Y102.69 E363.11629
G0 F6000 X118.53 Y101.559
G1 F900 X101.469 Y84.498 E365.68428
G0 F6000 X101.469 Y83.367
G1 F900 X118.53 Y100.428 E368.25227
G0 F6000 X118.53 Y99.296
G1 F900 X101.469 Y82.235 E370.82026
G0 F6000 X101.469 Y81.104
G1 F900 X118.53 Y98.165 E373.38825
G0 F6000 X118.53 Y97.034
G1 F900 X101.469 Y79.973 E375.95625
G0 F6000 X101.469 Y78.841
G1 F900 X118.53 Y95.902 E378.52424
G0 F6000 X118.53 Y94.771
G1 F900 X101.469 Y77.71 E381.09223
G0 F6000 X101.469 Y76.578
G1 F900 X118.53 Y93.64 E383.66029
G0 F6000 X118.53 Y92.508
G1 F900 X101.469 Y75.447 E386.22828
G0 F6000 X101.469 Y74.316
G1 F900 X118.53 Y91.377 E388.79627
G0 F6000 X118.53 Y90.245
G1 F900 X101.469 Y73.184 E391.36427
G0 F6000 X101.469 Y72.053
G1 F900 X118.53 Y89.114 E393.93226
G0 F6000 X118.53 Y87.983
G1 F900 X101.469 Y70.922 E396.50025
G0 F6000 X101.469 Y69.79
G1 F900 X118.53 Y86.851 E399.06824
G0 F6000 X118.53 Y85.72
G1 F900 X101.469 Y68.659 E401.63623
G0 F6000 X101.469 Y67.527
G1 F900 X118.53 Y84.589 E404.2043
G0 F6000 X118.53 Y83.457
G1 F900 X101.665 Y66.593 E406.74271
G0 F6000 X102.797 Y66.593
G1 F900 X118.53 Y82.326 E409.11081
G0 F6000 X118.53 Y81.194
G1 F900 X103.928 Y66.593 E411.3086
G0 F6000 X105.059 Y66.593
G1 F900 X118.53 Y80.063 E413.33616
G0 F6000 X118.53 Y78.932
G1 F900 X106.191 Y66.593 E415.1934
G0 F6000 X107.322 Y66.593
G1 F900 X118.53 Y77.8 E416.88033
G0 F6000 X118.53 Y76.669
G1 F900 X108.453 Y66.593 E418.39703
G0 F6000 X109.585 Y66.593
G1 F900 X118.53 Y75.538 E419.74342
G0 F6000 X118.53 Y74.406
G1 F900 X110.716 Y66.593 E420.91949
G0 F6000 X111.848 Y66.593
G1 F900 X118.53 Y73.275 E421.92525
G0 F6000 X118.53 Y72.143
G1 F900 X112.979 Y66.593 E422.7607
G0 F6000 X114.11 Y66.593
M104 S230
G1 F900 X118.53 Y71.012 E423.42592
G0 F6000 X118.53 Y69.881
G1 F900 X115.242 Y66.593 E423.92082
G0 F6000 X116.373 Y66.593
G1 F900 X118.53 Y68.749 E424.24542
G0 F6000 X118.53 Y67.618
G1 F900 X117.504 Y66.593 E424.39977
G1 F1500 E417.89977
G1 F300 Z0.52
;MESH:NONMESH
G0 F6000 X95.527 Y61.283 Z0.52
;TIME_ELAPSED:282.606470
;LAYER:1
G0 F7500 X95.527 Y61.283 Z0.84
;TYPE:SKIRT
G1 F300 Z0.64
G1 F1500 E424.39977
G1 F900 X95.719 Y61.01 E424.43529
G1 X96.028 Y60.74 E424.47897
G1 X96.422 Y60.562 E424.52498
G1 X97.034 Y60.317 E424.59515
G1 X97.403 Y60.219 E424.63578
G1 X98.175 Y60.208 E424.71796
G1 X121.762 Y60.208 E427.22838
G1 X122.462 Y60.218 E427.30289
G1 X122.945 Y60.312 E427.35526
G1 X123.359 Y60.472 E427.4025
G1 X123.796 Y60.661 E427.45317
G1 X124.084 Y60.829 E427.48866
G1 X124.325 Y61.061 E427.52426
G1 X124.504 Y61.343 E427.55981
G1 X124.634 Y61.731 E427.60336
G1 X124.648 Y62.2 E427.6533
G1 X124.65 Y157.252 E437.76992
G1 X124.64 Y157.954 E437.84464
G1 X124.595 Y158.285 E437.8802
G1 X124.474 Y158.596 E437.91571
G1 X124.255 Y158.898 E437.95542
G1 X123.915 Y159.255 E438.00789
G1 X123.421 Y159.734 E438.08112
G1 X123.155 Y159.936 E438.11667
G1 X122.848 Y160.07 E438.15233
G1 X122.471 Y160.129 E438.19294
G1 X121.913 Y160.139 E438.25234
G1 X98.237 Y160.139 E440.77223
G1 X97.534 Y160.129 E440.84706
G1 X97.203 Y160.084 E440.88261
G1 X96.892 Y159.963 E440.91813
G1 X96.586 Y159.74 E440.95843
G1 X96.22 Y159.389 E441.0124
G1 X95.754 Y158.908 E441.08368
G1 X95.552 Y158.642 E441.11923
G1 X95.419 Y158.336 E441.15474
G1 X95.36 Y157.959 E441.19536
G1 X95.35 Y157.402 E441.25465
G1 X95.35 Y62.593 E451.3454
G1 X95.36 Y61.925 E451.41651
G1 X95.405 Y61.594 E451.45206
G1 X95.527 Y61.283 E451.48762
G1 F1500 E444.98762
G1 F300 Z0.84
;MESH:AufsatzT-St??ck v3.stl
G0 F7500 X119.65 Y154.819 Z0.84
;TYPE:WALL-INNER
G1 F300 Z0.64
G1 F1500 E451.48762
G1 F1200 X119.65 Y65.341 E461.01098
G1 X100.35 Y65.341 E463.06512
G1 X100.35 Y154.819 E472.58848
G1 X119.65 Y154.819 E474.64263
G0 F7500 X120.45 Y155.619
G1 F1200 X120.45 Y64.541 E484.33628
G1 X99.55 Y64.541 E486.56072
G1 X99.55 Y155.619 E496.25437
G1 X120.45 Y155.619 E498.47881
G0 F7500 X121.25 Y156.419
G1 F1200 X121.25 Y63.741 E508.34276
G1 X98.75 Y63.741 E510.73749
G1 X98.75 Y156.419 E520.60143
G1 X121.25 Y156.419 E522.99616
G0 F7500 X122.05 Y157.219
G1 F1200 X122.05 Y62.941 E533.0304
G1 X97.95 Y62.941 E535.59542
G1 X97.95 Y157.219 E545.62966
G1 X122.05 Y157.219 E548.19468
G0 F7500 X122.604 Y158.019
;TYPE:WALL-OUTER
G1 F1200 X122.85 Y157.773 E548.23171
G1 X122.85 Y62.207 E558.40303
G1 X122.691 Y62.141 E558.42135
G1 X97.309 Y62.141 E561.12282
G1 X97.15 Y62.207 E561.14114
G1 X97.15 Y157.773 E571.31246
G1 X97.396 Y158.019 E571.34949
G1 X122.604 Y158.019 E574.03244
G1 F1500 E567.53244
G1 F300 Z0.84
G0 F7500 X118.93 Y154.099 Z0.84
;TYPE:SKIN
G1 F300 Z0.64
G1 F1500 E574.03244
G1 F1200 X101.07 Y154.099 E575.93332
G1 X101.07 Y66.061 E585.30342
G1 X118.93 Y66.061 E587.2043
G1 X118.93 Y154.099 E596.5744
G0 F7500 X117.83 Y153.698
G1 F1200 X118.529 Y152.999 E596.67962
G0 F7500 X118.529 Y151.868
G1 F1200 X116.699 Y153.698 E596.95506
G0 F7500 X115.568 Y153.698
G1 F1200 X118.529 Y150.736 E597.40082
G0 F7500 X118.529 Y149.605
G1 F1200 X114.436 Y153.698 E598.01689
G0 F7500 X113.305 Y153.698
G1 F1200 X118.529 Y148.474 E598.8032
G0 F7500 X118.529 Y147.342
G1 F1200 X112.174 Y153.698 E599.75982
G0 F7500 X111.042 Y153.698
G1 F1200 X118.529 Y146.211 E600.88675
G0 F7500 X118.529 Y145.079
G1 F1200 X109.911 Y153.698 E602.18399
G0 F7500 X108.779 Y153.698
G1 F1200 X118.529 Y143.948 E603.65154
G0 F7500 X118.529 Y142.817
G1 F1200 X107.648 Y153.698 E605.28933
G0 F7500 X106.517 Y153.698
G1 F1200 X118.529 Y141.685 E607.09743
G0 F7500 X118.529 Y140.554
G1 F1200 X105.385 Y153.698 E609.07584
G0 F7500 X104.254 Y153.698
G1 F1200 X118.529 Y139.423 E611.22449
G0 F7500 X118.529 Y138.291
G1 F1200 X103.123 Y153.698 E613.54345
G0 F7500 X101.991 Y153.698
G1 F1200 X118.529 Y137.16 E616.03272
G0 F7500 X118.529 Y136.028
G1 F1200 X101.469 Y153.088 E618.60056
G0 F7500 X101.469 Y151.957
G1 F1200 X118.529 Y134.897 E621.1684
G0 F7500 X118.529 Y133.766
G1 F1200 X101.469 Y150.825 E623.73616
G0 F7500 X101.469 Y149.694
G1 F1200 X118.529 Y132.634 E626.304
G0 F7500 X118.529 Y131.503
G1 F1200 X101.469 Y148.563 E628.87184
G0 F7500 X101.469 Y147.431
G1 F1200 X118.529 Y130.372 E631.43961
G0 F7500 X118.529 Y129.24
G1 F1200 X101.469 Y146.3 E634.00745
G0 F7500 X101.469 Y145.169
G1 F1200 X118.529 Y128.109 E636.57529
