;FLAVOR:Marlin
;TIME:8236
;Filament used: 15.7101m
;Layer height: 0.32
;MINX:93.949
;MINY:48.521
;MINZ:0.32
;MAXX:126.05
;MAXY:172.363
;MAXZ:41.8
;TARGET_MACHINE.NAME:Creality Ender-3 Pro
;Generated with Cura_SteamEngine 5.5.0
M82 ;absolute extrusion mode
; Ender 3 Custom Start G-code
G92 E0 ; Reset Extruder
G28 ; Home all axes
G1 Z5.0 F3000 ; Move Z Axis up a bit during heating to not damage bed
M104 S120 ; Start heating up the nozzle most of the way
M190 S70 ; Start heating the bed, wait until target temperature reached
M109 S235.0 ; Finish heating the nozzle
G1 Z2.0 F3000 ; Move Z Axis up little to prevent scratching of Heat Bed
G1 X0.1 Y20 Z0.3 F5000.0 ; Move to start position
G1 X0.1 Y200.0 Z0.3 F1500.0 E15 ; Draw the first line
G1 X0.4 Y200.0 Z0.3 F5000.0 ; Move to side a little
G1 X0.4 Y20 Z0.3 F1500.0 E30 ; Draw the second line
G92 E0 ; Reset Extruder
G1 Z2.0 F3000 ; Move Z Axis up little to prevent scratching of Heat Bed
G1 X5 Y20 Z0.3 F5000.0 ; Move over to prevent blob squish
G92 E0
G92 E0
G1 F1500 E-6.5
;LAYER_COUNT:130
;LAYER:0
M107
G1 F300 Z0.52
G0 F6000 X94.399 Y60.235 Z0.52
;TYPE:SKIRT
G1 F300 Z0.32
G1 F1500 E0
G1 F900 X96.194 Y57.583 E0.34084
G1 X97.644 Y55.3 E0.62869
G1 X99.548 Y52.074 E1.02738
G1 X99.799 Y51.72 E1.07357
G1 X100.864 Y50.527 E1.24377
G1 X101.46 Y49.911 E1.335
G1 X101.871 Y49.569 E1.39191
G1 X102.496 Y49.273 E1.46551
G1 X103.627 Y48.919 E1.59165
G1 X104.774 Y48.599 E1.71839
G1 X105.45 Y48.521 E1.79081
G1 X106.431 Y48.562 E1.89531
G1 X107.543 Y48.625 E2.01386
G1 X110.277 Y48.705 E2.30497
G1 X111.365 Y48.705 E2.42076
G1 X112.343 Y48.717 E2.52486
G1 X112.951 Y48.79 E2.59004
G1 X113.964 Y49.063 E2.7017
G1 X115 Y49.375 E2.81686
G1 X115.67 Y49.652 E2.89402
G1 X116.24 Y50.107 E2.97165
G1 X117.249 Y51.183 E3.12864
G1 X117.797 Y51.803 E3.21671
G1 X119.497 Y53.775 E3.49382
G1 X121.351 Y55.811 E3.7869
G1 X123.255 Y57.786 E4.07888
G1 X124.835 Y59.347 E4.31527
G1 X125.313 Y59.854 E4.38943
G1 X125.635 Y60.274 E4.44576
G1 X125.934 Y60.957 E4.52511
G1 X126.04 Y61.75 E4.61027
G1 X126.05 Y62.309 E4.66977
G1 X126.05 Y157.541 E14.80554
G1 X126.026 Y158.432 E14.90041
G1 X125.951 Y158.985 E14.95981
G1 X125.624 Y159.725 E15.04591
G1 X125.214 Y160.354 E15.12582
G1 X124.28 Y161.737 E15.30344
G1 X122.822 Y164.034 E15.59301
G1 X121.445 Y166.348 E15.8796
G1 X120.497 Y168.03 E16.0851
G1 X120.204 Y168.448 E16.13943
G1 X119.606 Y169.107 E16.23414
G1 X118.516 Y170.217 E16.39972
G1 X118.022 Y170.627 E16.46804
G1 X117.326 Y170.928 E16.54875
G1 X116.28 Y171.254 E16.66536
G1 X114.937 Y171.629 E16.81377
G1 X113.406 Y171.78 E16.97751
G1 X110.621 Y172.095 E17.27581
G1 X109.545 Y172.247 E17.39147
G1 X108.631 Y172.363 E17.48953
G1 X107.872 Y172.33 E17.57039
G1 X106.955 Y172.131 E17.67026
G1 X104.38 Y171.604 E17.95
G1 X103.234 Y171.285 E18.07661
G1 X102.143 Y170.945 E18.19824
G1 X101.477 Y170.66 E18.27534
G1 X100.892 Y170.18 E18.35588
G1 X99.793 Y169.057 E18.52311
G1 X99.221 Y168.444 E18.61235
G1 X98.869 Y167.941 E18.67769
G1 X98.316 Y166.856 E18.8073
G1 X97.952 Y166.117 E18.89498
G1 X96.691 Y163.731 E19.18221
G1 X95.319 Y161.301 E19.47922
G1 X94.384 Y159.735 E19.67334
G1 X94.077 Y159.084 E19.74995
G1 X93.962 Y158.362 E19.82776
G1 X93.95 Y157.637 E19.90493
G1 X93.949 Y62.46 E30.03485
G1 X93.973 Y61.569 E30.12972
G1 X94.049 Y61.007 E30.19008
G1 X94.399 Y60.235 E30.28029
G0 F6000 X95.1 Y60.627
G1 F900 X96.857 Y58.031 E30.61393
G1 X98.333 Y55.707 E30.90695
G1 X100.237 Y52.481 E31.30564
G1 X100.448 Y52.188 E31.34407
G1 X101.442 Y51.08 E31.5025
G1 X101.972 Y50.526 E31.5841
G1 X102.306 Y50.248 E31.63035
G1 X102.79 Y50.019 E31.68734
G1 X103.842 Y49.689 E31.80468
G1 X104.923 Y49.387 E31.92414
G1 X105.482 Y49.323 E31.98403
G1 X106.386 Y49.361 E32.08032
G1 X107.511 Y49.425 E32.20026
G1 X110.254 Y49.505 E32.49232
G1 X111.355 Y49.505 E32.60951
G1 X112.333 Y49.517 E32.7136
G1 X112.792 Y49.576 E32.76286
G1 X113.733 Y49.829 E32.86657
G1 X114.769 Y50.141 E32.98172
G1 X115.258 Y50.347 E33.0382
G1 X115.697 Y50.698 E33.09802
G1 X116.65 Y51.713 E33.2462
G1 X117.191 Y52.325 E33.33314
G1 X118.905 Y54.314 E33.61259
G1 X120.759 Y56.35 E33.90567
G1 X122.693 Y58.355 E34.20217
G1 X124.256 Y59.899 E34.436
G1 X124.678 Y60.341 E34.50104
G1 X124.941 Y60.684 E34.54705
G1 X125.156 Y61.175 E34.60409
G1 X125.24 Y61.764 E34.66742
G1 X125.25 Y62.323 E34.72692
G1 X125.25 Y157.524 E44.8594
G1 X125.233 Y158.324 E44.94456
G1 X125.173 Y158.766 E44.99204
G1 X124.918 Y159.343 E45.05918
G1 X124.551 Y159.906 E45.13071
G1 X123.617 Y161.289 E45.30832
G1 X122.147 Y163.605 E45.60028
G1 X120.748 Y165.955 E45.89137
G1 X119.8 Y167.637 E46.09686
G1 X119.553 Y167.983 E46.14211
G1 X119.034 Y168.548 E46.22376
G1 X118.005 Y169.601 E46.38046
G1 X117.599 Y169.938 E46.43662
G1 X117.088 Y170.164 E46.49609
G1 X116.065 Y170.483 E46.61014
G1 X114.786 Y170.84 E46.75147
G1 X113.316 Y170.985 E46.90868
G1 X110.527 Y171.3 E47.20741
G1 X109.444 Y171.453 E47.32382
G1 X108.594 Y171.561 E47.41502
G1 X107.978 Y171.534 E47.48064
G1 X107.125 Y171.349 E47.57354
G1 X104.54 Y170.82 E47.85437
G1 X103.472 Y170.521 E47.97241
G1 X102.381 Y170.181 E48.09404
G1 X101.897 Y169.97 E48.15023
G1 X101.464 Y169.62 E48.20949
G1 X100.365 Y168.497 E48.37673
G1 X99.845 Y167.941 E48.45775
G1 X99.557 Y167.53 E48.51116
G1 X99.034 Y166.503 E48.63383
G1 X98.67 Y165.764 E48.7215
G1 X97.388 Y163.338 E49.01354
G1 X96.016 Y160.908 E49.31055
G1 X95.071 Y159.325 E49.50677
G1 X94.849 Y158.846 E49.56296
G1 X94.761 Y158.293 E49.62256
G1 X94.75 Y157.637 E49.69239
G1 X94.749 Y62.477 E59.8205
G1 X94.766 Y61.676 E59.90577
G1 X94.826 Y61.231 E59.95356
G1 X95.1 Y60.627 E60.02415
G0 F6000 X95.8 Y61.019
G1 F900 X97.519 Y58.48 E60.35049
G1 X99.022 Y56.114 E60.64883
G1 X100.926 Y52.888 E61.04752
G1 X101.092 Y52.663 E61.07728
G1 X102.024 Y51.629 E61.22544
G1 X102.484 Y51.141 E61.29682
G1 X102.741 Y50.927 E61.33241
G1 X103.084 Y50.765 E61.37278
G1 X104.057 Y50.46 E61.48131
G1 X105.079 Y50.175 E61.59423
G1 X105.514 Y50.125 E61.64084
G1 X106.34 Y50.16 E61.72883
G1 X107.477 Y50.225 E61.85004
G1 X110.231 Y50.305 E62.14328
G1 X111.345 Y50.305 E62.26185
G1 X112.323 Y50.317 E62.36594
G1 X112.679 Y50.368 E62.40422
G1 X113.502 Y50.595 E62.49509
G1 X114.538 Y50.907 E62.61024
G1 X114.844 Y51.041 E62.6458
G1 X115.154 Y51.289 E62.68805
G1 X116.051 Y52.243 E62.82742
G1 X116.585 Y52.847 E62.91323
G1 X118.314 Y54.853 E63.19509
G1 X120.183 Y56.905 E63.4905
G1 X122.131 Y58.924 E63.7891
G1 X123.683 Y60.457 E64.02128
G1 X124.043 Y60.827 E64.07623
G1 X124.246 Y61.092 E64.11176
G1 X124.38 Y61.398 E64.14731
G1 X124.44 Y61.778 E64.18825
G1 X124.45 Y62.337 E64.24776
G1 X124.45 Y157.513 E74.37757
G1 X124.44 Y158.216 E74.4524
G1 X124.395 Y158.547 E74.48796
G1 X124.212 Y158.961 E74.53613
G1 X123.888 Y159.458 E74.59928
G1 X122.954 Y160.841 E74.7769
G1 X121.472 Y163.176 E75.07125
G1 X120.051 Y165.562 E75.36682
G1 X119.103 Y167.244 E75.57231
G1 X118.908 Y167.51 E75.60742
G1 X118.462 Y167.989 E75.67708
G1 X117.433 Y169.042 E75.83378
G1 X117.173 Y169.252 E75.86935
G1 X116.85 Y169.4 E75.90716
G1 X115.827 Y169.719 E76.02121
G1 X114.64 Y170.051 E76.1524
G1 X113.226 Y170.19 E76.30362
G1 X110.433 Y170.505 E76.60277
G1 X109.343 Y170.659 E76.71993
G1 X108.557 Y170.759 E76.80426
G1 X108.083 Y170.738 E76.85476
G1 X107.285 Y170.565 E76.94167
G1 X104.7 Y170.036 E77.2225
G1 X103.71 Y169.757 E77.33197
G1 X102.619 Y169.417 E77.45359
G1 X102.315 Y169.28 E77.48908
G1 X102.036 Y169.06 E77.5269
G1 X100.949 Y167.95 E77.69225
G1 X100.469 Y167.437 E77.76703
G1 X100.243 Y167.115 E77.8089
G1 X99.752 Y166.15 E77.92413
G1 X99.388 Y165.411 E78.01181
G1 X98.085 Y162.945 E78.30866
G1 X96.713 Y160.515 E78.60567
G1 X95.758 Y158.915 E78.80399
G1 X95.622 Y158.61 E78.83953
G1 X95.56 Y158.223 E78.88124
G1 X95.55 Y157.637 E78.94362
G1 X95.549 Y62.488 E89.07056
G1 X95.559 Y61.784 E89.1455
G1 X95.604 Y61.453 E89.18105
G1 X95.8 Y61.019 E89.23173
G1 F1500 E82.73173
G1 F300 Z0.52
G0 F6000 X102.41 Y54.404 Z0.52
G1 F300 Z0.32
G1 F1500 E89.23173
G1 F900 X103.689 Y53.004 E89.43356
G1 X105.45 Y52.493 E89.62872
G1 X107.211 Y53.004 E89.82388
G1 X108.716 Y54.651 E90.06133
G1 X108.862 Y54.752 E90.08023
G1 X109.037 Y54.78 E90.09909
G1 X109.208 Y54.729 E90.11808
G1 X109.307 Y54.65 E90.13156
G1 X110.656 Y53.171 E90.34462
G1 X112.317 Y52.687 E90.52876
G1 X113.978 Y53.171 E90.71289
G1 X115.192 Y54.501 E90.90455
G1 X115.701 Y56.333 E91.10692
G1 X115.227 Y58.023 E91.29373
G1 X114.007 Y59.243 E91.47737
G1 X112.32 Y59.715 E91.66381
G1 X110.704 Y59.243 E91.84299
G1 X109.337 Y57.877 E92.04868
G1 X109.186 Y57.782 E92.06767
G1 X109.01 Y57.762 E92.08652
G1 X108.842 Y57.821 E92.10547
G1 X108.771 Y57.877 E92.11509
G1 X107.238 Y59.411 E92.34591
G1 X105.453 Y59.91 E92.54318
G1 X103.743 Y59.411 E92.73277
G1 X102.372 Y58.04 E92.93913
G1 X101.873 Y56.33 E93.12872
G1 X102.41 Y54.404 E93.34153
G0 F6000 X103.13 Y54.802
G1 F900 X104.129 Y53.709 E93.49913
G1 X105.45 Y53.325 E93.64555
G1 X106.77 Y53.709 E93.79186
G1 X108.125 Y55.191 E94.00558
G1 X108.361 Y55.39 E94.03844
G1 X108.641 Y55.522 E94.07139
G1 X108.945 Y55.579 E94.10431
G1 X109.253 Y55.556 E94.13718
G1 X109.545 Y55.455 E94.17006
G1 X109.898 Y55.189 E94.21711
G1 X111.095 Y53.876 E94.40621
G1 X112.317 Y53.52 E94.54168
G1 X113.539 Y53.876 E94.67714
G1 X114.472 Y54.898 E94.82443
G1 X114.87 Y56.333 E94.98292
G1 X114.514 Y57.604 E95.1234
G1 X113.589 Y58.529 E95.26263
G1 X112.324 Y58.883 E95.40244
G1 X111.124 Y58.532 E95.53551
G1 X109.902 Y57.311 E95.71937
G1 X109.657 Y57.123 E95.75224
G1 X109.372 Y57.003 E95.78515
G1 X109.066 Y56.96 E95.81804
G1 X108.759 Y56.997 E95.85095
G1 X108.471 Y57.111 E95.88392
G1 X108.205 Y57.312 E95.9194
G1 X106.821 Y58.697 E96.1278
G1 X105.457 Y59.078 E96.27853
G1 X104.165 Y58.701 E96.42177
G1 X103.082 Y57.618 E96.58478
G1 X102.705 Y56.326 E96.72803
G1 X103.13 Y54.802 E96.89642
G0 F6000 X103.849 Y55.203
G1 F900 X104.568 Y54.415 E97.00996
G1 X105.45 Y54.159 E97.1077
G1 X106.334 Y54.416 E97.20568
G1 X107.535 Y55.73 E97.39515
G1 X107.832 Y55.997 E97.43766
G1 X108.177 Y56.199 E97.48021
G1 X108.407 Y56.278 E97.50609
G1 X108.247 Y56.33 E97.524
G1 X107.899 Y56.527 E97.56656
G1 X107.639 Y56.746 E97.60274
G1 X106.402 Y57.984 E97.78901
G1 X105.463 Y58.246 E97.89276
G1 X104.583 Y57.989 E97.99034
G1 X103.794 Y57.2 E98.1091
G1 X103.537 Y56.32 E98.20667
G1 X103.849 Y55.203 E98.3301
G0 F6000 X104.569 Y55.601
G1 F900 X105.007 Y55.12 E98.39934
G1 X105.45 Y54.992 E98.44842
G1 X105.894 Y55.121 E98.49763
G1 X106.944 Y56.27 E98.66329
G1 X106.965 Y56.289 E98.66631
G1 X105.986 Y57.269 E98.81374
G1 X105.467 Y57.414 E98.87109
G1 X105.005 Y57.279 E98.92232
G1 X104.504 Y56.778 E98.99773
G1 X104.369 Y56.315 E99.04906
G1 X104.569 Y55.601 E99.12798
G0 F6000 X105.288 Y55.998
G1 F900 X105.445 Y55.826 E99.15277
G1 X105.45 Y55.825 E99.15331
G1 X105.455 Y55.826 E99.15385
G1 X105.857 Y56.266 E99.21728
G1 X105.568 Y56.555 E99.26078
G1 X105.472 Y56.582 E99.2714
G1 X105.427 Y56.569 E99.27638
G1 X105.214 Y56.356 E99.30844
G1 X105.201 Y56.31 E99.31353
G1 X105.288 Y55.998 E99.348
G1 F1500 E92.848
G1 F300 Z0.52
G0 F6000 X109.665 Y56.265 Z0.52
G1 F300 Z0.32
G1 F1500 E99.348
G1 F900 X109.734 Y56.246 E99.35562
G1 X110.091 Y56.065 E99.39822
G1 X110.489 Y55.728 E99.45373
G1 X111.535 Y54.581 E99.61895
G1 X112.317 Y54.353 E99.70564
G1 X113.099 Y54.581 E99.79234
G1 X113.751 Y55.295 E99.89525
G1 X114.039 Y56.331 E100.00969
G1 X113.799 Y57.189 E100.10452
G1 X113.173 Y57.815 E100.19874
G1 X112.33 Y58.051 E100.29191
G1 X111.545 Y57.822 E100.37895
G1 X110.468 Y56.745 E100.54105
G1 X110.158 Y56.493 E100.58357
G1 X109.805 Y56.306 E100.62609
G1 X109.665 Y56.265 E100.64162
G0 F6000 X111.1 Y56.246
G1 F900 X111.974 Y55.286 E100.77979
G1 X112.317 Y55.186 E100.81782
G1 X112.66 Y55.286 E100.85585
G1 X113.031 Y55.693 E100.91446
G1 X113.209 Y56.331 E100.98496
G1 X113.086 Y56.77 E101.03348
G1 X112.755 Y57.101 E101.0833
G1 X112.334 Y57.218 E101.12981
G1 X111.966 Y57.111 E101.1706
G1 X111.1 Y56.246 E101.30087
G0 F6000 X112.205 Y56.22
G1 F900 X112.314 Y56.101 E101.31805
G1 X112.378 Y56.331 E101.34346
G1 X112.373 Y56.351 E101.34565
G1 X112.355 Y56.369 E101.34836
G1 X112.205 Y56.22 E101.37086
G1 F1500 E94.87086
G1 F300 Z0.52
G0 F6000 X108.379 Y159.191 Z0.52
G1 F300 Z0.32
G1 F1500 E101.37086
G1 F900 X110.612 Y159.818 E101.61772
G1 X111.551 Y160.811 E101.76317
G1 X111.699 Y160.91 E101.78213
G1 X111.875 Y160.935 E101.80105
G1 X112.045 Y160.881 E101.82003
G1 X112.132 Y160.811 E101.83191
G1 X112.501 Y160.422 E101.88898
G1 X114.382 Y159.894 E102.09692
G1 X116.267 Y160.424 E102.30532
G1 X117.626 Y161.857 E102.51552
G1 X118.157 Y163.675 E102.7171
G1 X117.595 Y165.764 E102.94734
G1 X116.244 Y167.163 E103.15434
G1 X114.386 Y167.7 E103.36018
G1 X112.604 Y167.163 E103.55827
G1 X112.179 Y166.724 E103.6233
G1 X112.03 Y166.627 E103.64222
G1 X111.853 Y166.604 E103.66122
G1 X111.685 Y166.659 E103.68003
G1 X111.604 Y166.723 E103.69102
G1 X110.591 Y167.765 E103.84569
G1 X108.381 Y168.401 E104.09046
G1 X106.261 Y167.765 E104.32603
G1 X106.1 Y167.599 E104.35064
G1 X105.951 Y167.502 E104.36956
G1 X105.703 Y167.494 E104.39597
G1 X104.99 Y167.7 E104.47496
G1 X103.207 Y167.163 E104.67315
G1 X101.776 Y165.683 E104.89226
G1 X101.215 Y163.67 E105.11468
G1 X101.744 Y161.857 E105.31568
G1 X103.103 Y160.424 E105.52588
G1 X104.988 Y159.894 E105.73429
G1 X105.613 Y160.069 E105.80336
G1 X105.791 Y160.078 E105.82233
G1 X106.011 Y159.96 E105.8489
G1 X106.146 Y159.818 E105.86976
G1 X108.379 Y159.191 E106.11661
G0 F6000 X108.379 Y160.022
G1 F900 X110.182 Y160.528 E106.31592
G1 X110.97 Y161.361 E106.43797
G1 X111.21 Y161.556 E106.47088
G1 X111.491 Y161.684 E106.50374
G1 X111.796 Y161.735 E106.53665
G1 X112.104 Y161.707 E106.56957
G1 X112.395 Y161.601 E106.60253
G1 X112.713 Y161.362 E106.64487
G1 X112.931 Y161.132 E106.6786
G1 X114.381 Y160.725 E106.83889
G1 X115.837 Y161.134 E106.99986
G1 X116.913 Y162.269 E107.16631
G1 X117.326 Y163.683 E107.3231
G1 X116.875 Y165.359 E107.50782
G1 X115.819 Y166.453 E107.66965
G1 X114.39 Y166.866 E107.82797
G1 X113.034 Y166.457 E107.97872
G1 X112.754 Y166.168 E108.02154
G1 X112.512 Y165.975 E108.05449
G1 X112.229 Y165.851 E108.08737
G1 X111.923 Y165.802 E108.12036
G1 X111.616 Y165.834 E108.15321
G1 X111.327 Y165.943 E108.18608
G1 X111.031 Y166.165 E108.22546
G1 X110.166 Y167.054 E108.35748
G1 X108.385 Y167.567 E108.55474
G1 X106.691 Y167.059 E108.74297
G1 X106.673 Y167.04 E108.74576
G1 X106.431 Y166.849 E108.77857
G1 X106.147 Y166.725 E108.81155
G1 X105.842 Y166.678 E108.8444
G1 X105.481 Y166.725 E108.88314
G1 X104.994 Y166.866 E108.9371
G1 X103.637 Y166.457 E109.08795
G1 X102.493 Y165.274 E109.2631
G1 X102.047 Y163.675 E109.43978
G1 X102.457 Y162.269 E109.59566
G1 X103.533 Y161.134 E109.76212
G1 X104.988 Y160.725 E109.92298
G1 X105.398 Y160.84 E109.9683
G1 X105.704 Y160.884 E110.0012
G1 X106.011 Y160.848 E110.0341
G1 X106.299 Y160.736 E110.06699
G1 X106.565 Y160.531 E110.10273
G1 X108.379 Y160.022 E110.30326
G0 F6000 X108.379 Y160.854
G1 F900 X109.755 Y161.24 E110.45536
G1 X110.389 Y161.91 E110.55354
G1 X110.691 Y162.172 E110.59609
G1 X111.039 Y162.368 E110.6386
G1 X111.419 Y162.491 E110.68111
G1 X111.816 Y162.536 E110.72364
G1 X112.214 Y162.501 E110.76616
G1 X112.597 Y162.388 E110.80866
G1 X112.95 Y162.201 E110.85118
G1 X113.293 Y161.913 E110.89885
G1 X113.359 Y161.844 E110.90901
G1 X114.383 Y161.556 E111.02222
G1 X115.409 Y161.845 E111.13567
G1 X116.198 Y162.677 E111.25771
G1 X116.495 Y163.694 E111.37047
G1 X116.157 Y164.95 E111.50891
G1 X115.39 Y165.745 E111.62648
G1 X114.396 Y166.032 E111.7366
G1 X113.464 Y165.751 E111.8402
G1 X113.329 Y165.612 E111.86083
G1 X113.024 Y165.354 E111.90334
G1 X112.674 Y165.161 E111.94588
G1 X112.292 Y165.043 E111.98844
G1 X111.895 Y165.002 E112.03091
G1 X111.497 Y165.041 E112.07348
G1 X111.115 Y165.159 E112.11603
G1 X110.764 Y165.349 E112.15851
G1 X110.457 Y165.608 E112.20126
G1 X109.742 Y166.344 E112.31047
G1 X108.389 Y166.733 E112.46031
G1 X107.076 Y166.339 E112.60621
G1 X106.94 Y166.225 E112.6251
G1 X106.589 Y166.034 E112.66763
G1 X106.207 Y165.917 E112.71015
G1 X105.809 Y165.878 E112.75271
G1 X105.259 Y165.957 E112.81185
G1 X105 Y166.032 E112.84055
G1 X104.068 Y165.751 E112.94416
