;FLAVOR:Marlin
;TIME:1820
;Filament used: 2.84077m
;Layer height: 0.32
;MINX:83.727
;MINY:88
;MINZ:0.32
;MAXX:136.273
;MAXY:132
;MAXZ:44.96
;TARGET_MACHINE.NAME:Creality Ender-3 Pro
;Generated with Cura_SteamEngine 5.5.0
M82 ;absolute extrusion mode
; Ender 3 Custom Start G-code
G92 E0 ; Reset Extruder
G28 ; Home all axes
G1 Z5.0 F3000 ; Move Z Axis up a bit during heating to not damage bed
M104 S120 ; Start heating up the nozzle most of the way
M190 S70 ; Start heating the bed, wait until target temperature reached
M109 S225 ; Finish heating the nozzle
G1 Z2.0 F3000 ; Move Z Axis up little to prevent scratching of Heat Bed
G1 X0.1 Y20 Z0.3 F5000.0 ; Move to start position
G1 X0.1 Y200.0 Z0.3 F1500.0 E15 ; Draw the first line
G1 X0.4 Y200.0 Z0.3 F5000.0 ; Move to side a little
G1 X0.4 Y20 Z0.3 F1500.0 E30 ; Draw the second line
G92 E0 ; Reset Extruder
G1 Z2.0 F3000 ; Move Z Axis up little to prevent scratching of Heat Bed
G1 X5 Y20 Z0.3 F5000.0 ; Move over to prevent blob squish
G92 E0
G92 E0
G1 F1500 E-6.5
;LAYER_COUNT:139
;LAYER:0
M107
G1 F300 Z1.12
G0 F6000 X87.35 Y91.427 Z1.12
;TYPE:SKIRT
G1 F300 Z0.32
G1 F1500 E0
G1 F900 X88.247 Y90.634 E0.12743
G1 X89.095 Y90.015 E0.23917
G1 X89.934 Y89.506 E0.34362
G1 X90.877 Y89.038 E0.45566
G1 X91.923 Y88.632 E0.57508
G1 X92.867 Y88.358 E0.6797
G1 X93.996 Y88.138 E0.80212
G1 X95.353 Y88.016 E0.94713
G1 X96.021 Y88 E1.01825
G1 X123.587 Y88 E3.95217
G1 X124.507 Y88.013 E4.0501
G1 X125.417 Y88.066 E4.14711
G1 X126.598 Y88.241 E4.27418
G1 X127.553 Y88.471 E4.37873
G1 X128.616 Y88.829 E4.49811
G1 X129.579 Y89.252 E4.61006
G1 X130.38 Y89.687 E4.70707
G1 X131.375 Y90.346 E4.83409
G1 X132.192 Y91.004 E4.94574
G1 X132.854 Y91.632 E5.04286
G1 X133.644 Y92.528 E5.17
G1 X134.262 Y93.376 E5.28168
G1 X134.77 Y94.214 E5.38598
G1 X135.209 Y95.093 E5.49055
G1 X135.645 Y96.208 E5.61797
G1 X135.918 Y97.152 E5.72256
G1 X136.136 Y98.278 E5.84463
G1 X136.257 Y99.626 E5.98868
G1 X136.273 Y100.33 E6.06363
G1 X136.272 Y119.413 E8.09468
G1 X136.261 Y120.212 E8.17972
G1 X136.203 Y121.192 E8.28421
G1 X136.039 Y122.299 E8.40332
G1 X135.83 Y123.186 E8.50031
G1 X135.455 Y124.32 E8.62743
G1 X135.094 Y125.157 E8.72445
G1 X134.6 Y126.084 E8.83624
G1 X133.941 Y127.085 E8.9638
G1 X133.285 Y127.902 E9.07532
G1 X132.608 Y128.613 E9.17981
G1 X131.821 Y129.311 E9.29177
G1 X130.915 Y129.978 E9.41151
G1 X130.076 Y130.488 E9.51601
G1 X129.071 Y130.985 E9.63534
G1 X128.222 Y131.318 E9.7324
G1 X127.077 Y131.655 E9.85943
G1 X126.016 Y131.86 E9.97445
G1 X124.647 Y131.984 E10.12075
G1 X123.943 Y132 E10.1957
G1 X96.279 Y131.999 E13.14004
G1 X95.508 Y131.988 E13.22211
G1 X94.461 Y131.922 E13.33377
G1 X93.49 Y131.778 E13.43824
G1 X92.4 Y131.517 E13.55754
G1 X91.534 Y131.231 E13.6546
G1 X90.437 Y130.756 E13.78183
G1 X89.514 Y130.252 E13.89376
G1 X88.753 Y129.75 E13.99079
G1 X87.821 Y129.009 E14.11752
G1 X87.159 Y128.382 E14.21456
G1 X86.366 Y127.487 E14.34183
G1 X85.785 Y126.696 E14.44629
G1 X85.272 Y125.862 E14.5505
G1 X84.739 Y124.791 E14.67783
G1 X84.361 Y123.81 E14.78972
G1 X84.087 Y122.867 E14.89424
G1 X83.866 Y121.734 E15.0171
G1 X83.74 Y120.305 E15.16978
G1 X83.727 Y119.658 E15.23866
G1 X83.728 Y100.511 E17.27652
G1 X83.739 Y99.774 E17.35497
G1 X83.805 Y98.726 E17.46673
G1 X83.937 Y97.824 E17.56375
G1 X84.214 Y96.662 E17.69089
G1 X84.526 Y95.731 E17.7954
G1 X84.975 Y94.702 E17.91489
G1 X85.479 Y93.782 E18.02654
G1 X85.981 Y93.021 E18.12357
G1 X86.723 Y92.089 E18.25036
G1 X87.35 Y91.427 E18.34741
G0 F6000 X87.931 Y91.977
G1 F900 X88.72 Y91.279 E18.45953
G1 X89.512 Y90.698 E18.56407
G1 X90.29 Y90.223 E18.66109
G1 X91.233 Y89.755 E18.77313
G1 X92.148 Y89.4 E18.87759
G1 X93.023 Y89.143 E18.97465
G1 X94.069 Y88.935 E19.08816
G1 X95.372 Y88.816 E19.22742
G1 X96.04 Y88.8 E19.29854
G1 X123.576 Y88.8 E22.22926
G1 X124.46 Y88.812 E22.32336
G1 X125.37 Y88.865 E22.42037
G1 X126.411 Y89.019 E22.53238
G1 X127.366 Y89.249 E22.63693
G1 X128.296 Y89.562 E22.74136
G1 X129.197 Y89.955 E22.84598
G1 X129.998 Y90.39 E22.943
G1 X130.875 Y90.97 E23.0549
G1 X131.641 Y91.584 E23.15939
G1 X132.303 Y92.212 E23.25651
G1 X132.999 Y93.001 E23.36849
G1 X133.579 Y93.793 E23.47297
G1 X134.054 Y94.571 E23.56999
G1 X134.493 Y95.45 E23.67456
G1 X134.876 Y96.43 E23.78654
G1 X135.149 Y97.374 E23.89113
G1 X135.339 Y98.351 E23.99707
G1 X135.457 Y99.645 E24.13536
G1 X135.473 Y100.33 E24.20829
G1 X135.472 Y119.403 E26.23827
G1 X135.462 Y120.165 E26.31938
G1 X135.404 Y121.145 E26.42387
G1 X135.26 Y122.116 E26.52834
G1 X135.051 Y123.003 E26.62534
G1 X134.72 Y124.003 E26.73745
G1 X134.359 Y124.84 E26.83446
G1 X133.895 Y125.706 E26.93903
G1 X133.316 Y126.586 E27.05115
G1 X132.704 Y127.352 E27.1555
G1 X132.077 Y128.014 E27.25254
G1 X131.29 Y128.712 E27.3645
G1 X130.499 Y129.294 E27.46902
G1 X129.66 Y129.804 E27.57352
G1 X128.779 Y130.24 E27.67815
G1 X127.93 Y130.573 E27.77521
G1 X126.922 Y130.87 E27.88705
G1 X125.943 Y131.063 E27.99326
G1 X124.628 Y131.184 E28.13381
G1 X123.943 Y131.2 E28.20673
G1 X96.29 Y131.199 E31.14991
G1 X95.556 Y131.189 E31.22804
G1 X94.576 Y131.13 E31.33253
G1 X93.674 Y130.999 E31.42954
G1 X92.651 Y130.757 E31.54142
G1 X91.785 Y130.471 E31.63849
G1 X90.819 Y130.053 E31.75052
G1 X89.955 Y129.584 E31.85515
G1 X89.194 Y129.082 E31.95218
G1 X88.371 Y128.428 E32.06406
G1 X87.709 Y127.801 E32.16111
G1 X87.011 Y127.013 E32.27315
G1 X86.43 Y126.222 E32.3776
G1 X85.954 Y125.444 E32.47468
G1 X85.485 Y124.501 E32.58677
G1 X85.129 Y123.585 E32.69137
G1 X84.872 Y122.71 E32.78843
G1 X84.663 Y121.663 E32.90206
G1 X84.54 Y120.289 E33.04889
G1 X84.527 Y119.658 E33.11606
G1 X84.528 Y100.522 E35.15275
G1 X84.538 Y99.822 E35.22726
G1 X84.597 Y98.842 E35.33175
G1 X84.729 Y97.94 E35.42878
G1 X84.973 Y96.916 E35.54082
G1 X85.285 Y95.985 E35.64532
G1 X85.677 Y95.085 E35.7498
G1 X86.147 Y94.223 E35.8543
G1 X86.649 Y93.462 E35.95133
G1 X87.304 Y92.639 E36.06328
G1 X87.931 Y91.977 E36.16032
G0 F6000 X88.512 Y92.527
G1 F900 X89.195 Y91.923 E36.25736
G1 X89.929 Y91.381 E36.35447
G1 X90.707 Y90.906 E36.45149
G1 X91.524 Y90.5 E36.54859
G1 X92.373 Y90.168 E36.64562
G1 X93.248 Y89.911 E36.74268
G1 X94.142 Y89.732 E36.83972
G1 X95.445 Y89.613 E36.97898
G1 X96.057 Y89.6 E37.04413
G1 X123.566 Y89.6 E39.97198
G1 X124.413 Y89.611 E40.06213
G1 X125.323 Y89.664 E40.15915
G1 X126.226 Y89.797 E40.2563
G1 X127.113 Y90.008 E40.35334
G1 X127.978 Y90.296 E40.45037
G1 X128.815 Y90.658 E40.54743
G1 X129.616 Y91.093 E40.64444
G1 X130.377 Y91.596 E40.74153
G1 X131.09 Y92.164 E40.83855
G1 X131.752 Y92.792 E40.93567
G1 X132.355 Y93.476 E41.03272
G1 X132.896 Y94.21 E41.12977
G1 X133.371 Y94.988 E41.22679
G1 X133.776 Y95.805 E41.32384
G1 X134.108 Y96.655 E41.42096
G1 X134.364 Y97.53 E41.518
G1 X134.542 Y98.424 E41.61501
G1 X134.66 Y99.718 E41.75331
G1 X134.673 Y100.33 E41.81846
G1 X134.672 Y119.393 E43.84738
G1 X134.663 Y120.12 E43.92476
G1 X134.612 Y121.03 E44.02177
G1 X134.481 Y121.933 E44.11888
G1 X134.272 Y122.82 E44.21587
G1 X133.985 Y123.686 E44.31298
G1 X133.624 Y124.523 E44.40999
G1 X133.191 Y125.326 E44.50709
G1 X132.69 Y126.088 E44.60415
G1 X132.123 Y126.802 E44.70119
G1 X131.496 Y127.464 E44.79824
G1 X130.814 Y128.069 E44.89527
G1 X130.081 Y128.612 E44.99236
G1 X129.303 Y129.088 E45.08943
G1 X128.487 Y129.495 E45.18648
G1 X127.638 Y129.828 E45.28355
G1 X126.764 Y130.086 E45.38054
G1 X125.87 Y130.266 E45.4776
G1 X124.555 Y130.387 E45.61815
G1 X123.943 Y130.4 E45.6833
G1 X96.3 Y130.399 E48.62541
G1 X95.602 Y130.39 E48.6997
G1 X94.691 Y130.338 E48.79682
G1 X93.789 Y130.207 E48.89383
G1 X92.902 Y129.997 E48.99085
G1 X92.036 Y129.711 E49.08791
G1 X91.199 Y129.349 E49.18497
G1 X90.396 Y128.916 E49.28207
G1 X89.635 Y128.414 E49.3791
G1 X88.921 Y127.847 E49.47614
G1 X88.259 Y127.22 E49.57319
G1 X87.654 Y126.537 E49.6703
G1 X87.112 Y125.804 E49.76732
G1 X86.636 Y125.026 E49.8644
G1 X86.23 Y124.209 E49.9615
G1 X85.897 Y123.36 E50.05856
G1 X85.64 Y122.485 E50.15562
G1 X85.46 Y121.591 E50.25268
G1 X85.34 Y120.272 E50.39365
G1 X85.327 Y119.658 E50.45901
G1 X85.328 Y100.533 E52.49453
G1 X85.337 Y99.868 E52.56531
G1 X85.389 Y98.958 E52.66233
G1 X85.521 Y98.056 E52.75935
G1 X85.732 Y97.168 E52.85649
G1 X86.019 Y96.303 E52.95349
G1 X86.381 Y95.466 E53.05055
G1 X86.815 Y94.664 E53.14761
G1 X87.317 Y93.903 E53.24464
G1 X87.885 Y93.189 E53.34174
G1 X88.512 Y92.527 E53.43879
G1 F1500 E46.93879
G1 F300 Z1.12
;MESH:Staufachrahmen_Probest??ck-K??rper.stl
G0 F6000 X98.543 Y118 Z1.12
;TYPE:WALL-INNER
G1 F300 Z0.32
G1 F1500 E53.43879
G1 F900 X121.458 Y118 E55.87769
G1 X121.458 Y102 E57.58061
G1 X98.543 Y102 E60.01951
G1 X98.543 Y118 E61.72242
G0 F6000 X97.743 Y118.8
G1 F900 X122.258 Y118.8 E64.33162
G1 X122.258 Y101.2 E66.20483
G1 X97.743 Y101.2 E68.81402
G1 X97.743 Y118.8 E70.68723
G0 F6000 X96.943 Y119.6
;TYPE:WALL-OUTER
G1 F900 X123.058 Y119.6 E73.46671
G1 X123.058 Y100.4 E75.51021
G1 X96.943 Y100.4 E78.2897
G1 X96.943 Y119.6 E80.3332
G1 F1500 E73.8332
G1 F300 Z1.12
G0 F6000 X99.263 Y117.28 Z1.12
;TYPE:SKIN
G1 F300 Z0.32
G1 F1500 E80.3332
G1 F900 X99.263 Y117.28
G1 X99.263 Y102.72 E81.88286
G1 X120.738 Y102.72 E84.16849
G1 X120.738 Y117.28 E85.71815
G1 X99.263 Y117.28 E88.00379
G0 F6000 X99.909 Y116.879
G1 F900 X99.663 Y116.633 E88.04081
G0 F6000 X99.663 Y115.502
G1 F900 X101.04 Y116.879 E88.24808
G0 F6000 X102.171 Y116.879
G1 F900 X99.663 Y114.37 E88.62565
G0 F6000 X99.663 Y113.239
G1 F900 X103.303 Y116.879 E89.17354
G0 F6000 X104.434 Y116.879
G1 F900 X99.663 Y112.108 E89.89166
G0 F6000 X99.663 Y110.976
G1 F900 X105.566 Y116.879 E90.78017
G0 F6000 X106.697 Y116.879
G1 F900 X99.663 Y109.845 E91.83891
G0 F6000 X99.663 Y108.714
G1 F900 X107.828 Y116.879 E93.06789
G0 F6000 X108.96 Y116.879
G1 F900 X99.663 Y107.582 E94.46726
G0 F6000 X99.663 Y106.451
G1 F900 X110.091 Y116.879 E96.03687
G0 F6000 X111.222 Y116.879
G1 F900 X99.663 Y105.32 E97.77671
G0 F6000 X99.663 Y104.188
G1 F900 X112.354 Y116.879 E99.68693
G0 F6000 X113.485 Y116.879
G1 F900 X99.726 Y103.12 E101.75791
G0 F6000 X100.857 Y103.12
G1 F900 X114.617 Y116.879 E103.82897
G0 F6000 X115.748 Y116.879
G1 F900 X101.988 Y103.12 E105.90002
G0 F6000 X103.12 Y103.12
G1 F900 X116.879 Y116.879 E107.971
G0 F6000 X118.011 Y116.879
G1 F900 X104.251 Y103.12 E110.04206
G0 F6000 X105.382 Y103.12
G1 F900 X119.142 Y116.879 E112.11311
G0 F6000 X120.273 Y116.879
G1 F900 X106.514 Y103.12 E114.18409
G0 F6000 X107.645 Y103.12
G1 F900 X120.337 Y115.812 E116.09447
G0 F6000 X120.337 Y114.68
G1 F900 X108.777 Y103.12 E117.83446
G0 F6000 X109.908 Y103.12
G1 F900 X120.337 Y113.549 E119.40421
G0 F6000 X120.337 Y112.417
G1 F900 X111.039 Y103.12 E120.80366
G0 F6000 X112.171 Y103.12
G1 F900 X120.337 Y111.286 E122.03279
G0 F6000 X120.337 Y110.155
G1 F900 X113.302 Y103.12 E123.09168
G0 F6000 X114.433 Y103.12
G1 F900 X120.337 Y109.023 E123.98027
G0 F6000 X120.337 Y107.892
G1 F900 X115.565 Y103.12 E124.69854
G0 F6000 X116.696 Y103.12
G1 F900 X120.337 Y106.761 E125.24658
G0 F6000 X120.337 Y105.629
G1 F900 X117.828 Y103.12 E125.62423
G0 F6000 X118.959 Y103.12
G1 F900 X120.337 Y104.498 E125.83164
G0 F6000 X120.337 Y103.366
G1 F900 X120.09 Y103.12 E125.86874
M104 S225
G1 F1500 E119.36874
G1 F300 Z1.12
;MESH:NONMESH
G0 F6000 X88.512 Y92.527 Z1.12
;TIME_ELAPSED:88.942353
;LAYER:1
M106 S63.8
G0 F7875 X88.512 Y92.527 Z1.44
;TYPE:SKIRT
G1 F300 Z0.64
G1 F1500 E125.86874
G1 F900 X89.195 Y91.923 E125.96578
G1 X89.929 Y91.381 E126.0629
G1 X90.707 Y90.906 E126.15991
G1 X91.524 Y90.5 E126.25701
G1 X92.373 Y90.168 E126.35404
G1 X93.248 Y89.911 E126.4511
G1 X94.142 Y89.732 E126.54814
G1 X95.445 Y89.613 E126.6874
G1 X96.057 Y89.6 E126.75255
G1 X123.566 Y89.6 E129.6804
G1 X124.413 Y89.611 E129.77055
G1 X125.323 Y89.664 E129.86757
G1 X126.226 Y89.797 E129.96472
G1 X127.113 Y90.008 E130.06176
G1 X127.978 Y90.296 E130.15879
G1 X128.815 Y90.658 E130.25585
G1 X129.616 Y91.093 E130.35286
G1 X130.377 Y91.596 E130.44995
G1 X131.09 Y92.164 E130.54697
G1 X131.752 Y92.792 E130.64409
G1 X132.355 Y93.476 E130.74114
G1 X132.896 Y94.21 E130.83819
G1 X133.371 Y94.988 E130.93521
G1 X133.776 Y95.805 E131.03226
G1 X134.108 Y96.655 E131.12938
G1 X134.364 Y97.53 E131.22642
G1 X134.542 Y98.424 E131.32343
G1 X134.66 Y99.718 E131.46173
G1 X134.673 Y100.33 E131.52688
G1 X134.672 Y119.393 E133.5558
G1 X134.663 Y120.12 E133.63318
G1 X134.612 Y121.03 E133.73019
G1 X134.481 Y121.933 E133.8273
G1 X134.272 Y122.82 E133.9243
G1 X133.985 Y123.686 E134.0214
G1 X133.624 Y124.523 E134.11841
G1 X133.191 Y125.326 E134.21551
G1 X132.69 Y126.088 E134.31257
G1 X132.123 Y126.802 E134.40961
G1 X131.496 Y127.464 E134.50666
G1 X130.814 Y128.069 E134.60369
G1 X130.081 Y128.612 E134.70078
G1 X129.303 Y129.088 E134.79785
G1 X128.487 Y129.495 E134.8949
G1 X127.638 Y129.828 E134.99197
G1 X126.764 Y130.086 E135.08896
G1 X125.87 Y130.266 E135.18602
G1 X124.555 Y130.387 E135.32657
G1 X123.943 Y130.4 E135.39172
G1 X96.3 Y130.399 E138.33383
G1 X95.602 Y130.39 E138.40813
G1 X94.691 Y130.338 E138.50524
G1 X93.789 Y130.207 E138.60225
G1 X92.902 Y129.997 E138.69927
G1 X92.036 Y129.711 E138.79633
G1 X91.199 Y129.349 E138.89339
G1 X90.396 Y128.916 E138.99049
G1 X89.635 Y128.414 E139.08752
G1 X88.921 Y127.847 E139.18456
G1 X88.259 Y127.22 E139.28161
G1 X87.654 Y126.537 E139.37872
G1 X87.112 Y125.804 E139.47574
G1 X86.636 Y125.026 E139.57282
G1 X86.23 Y124.209 E139.66992
G1 X85.897 Y123.36 E139.76698
G1 X85.64 Y122.485 E139.86404
G1 X85.46 Y121.591 E139.9611
G1 X85.34 Y120.272 E140.10207
G1 X85.327 Y119.658 E140.16743
G1 X85.328 Y100.533 E142.20295
G1 X85.337 Y99.868 E142.27374
G1 X85.389 Y98.958 E142.37075
G1 X85.521 Y98.056 E142.46777
G1 X85.732 Y97.168 E142.56491
G1 X86.019 Y96.303 E142.66191
G1 X86.381 Y95.466 E142.75897
G1 X86.815 Y94.664 E142.85603
G1 X87.317 Y93.903 E142.95306
G1 X87.885 Y93.189 E143.05016
G1 X88.512 Y92.527 E143.14721
G1 F1500 E136.64721
G1 F300 Z1.44
;MESH:Staufachrahmen_Probest??ck-K??rper.stl
G0 F7875 X121.973 Y118 Z1.44
;TYPE:WALL-INNER
G1 F300 Z0.64
G1 F1500 E143.14721
G1 F1425 X121.973 Y102 E144.85013
G1 X98.027 Y102 E147.39876
G1 X98.027 Y118 E149.10168
G1 X121.973 Y118 E151.65031
G0 F7875 X122.773 Y118.8
G1 F1425 X122.773 Y101.2 E153.52352
G1 X97.227 Y101.2 E156.24244
G1 X97.227 Y118.8 E158.11565
G1 X122.773 Y118.8 E160.83458
G0 F7875 X123.573 Y119.6
;TYPE:WALL-OUTER
G1 F1425 X123.573 Y100.4 E162.87808
G1 X96.427 Y100.4 E165.76729
G1 X96.427 Y119.6 E167.8108
G1 X123.573 Y119.6 E170.70001
G1 F1500 E164.20001
G1 F300 Z1.44
G0 F7875 X121.253 Y117.28 Z1.44
;TYPE:SKIN
G1 F300 Z0.64
G1 F1500 E170.70001
G1 F1425 X98.747 Y117.28 E173.09538
G1 X98.747 Y102.72 E174.64504
G1 X121.253 Y102.72 E177.0404
G1 X121.253 Y117.28 E178.59006
G0 F7875 X120.708 Y116.879
G1 F1425 X120.852 Y116.735 E178.61174
G0 F7875 X120.852 Y115.604
G1 F1425 X119.576 Y116.879 E178.80372
G0 F7875 X118.445 Y116.879
G1 F1425 X120.852 Y114.472 E179.16602
G0 F7875 X120.852 Y113.341
G1 F1425 X117.313 Y116.879 E179.69863
G0 F7875 X116.182 Y116.879
G1 F1425 X120.852 Y112.21 E180.40147
G0 F7875 X120.852 Y111.078
G1 F1425 X115.051 Y116.879 E181.27463
G0 F7875 X113.919 Y116.879
G1 F1425 X120.852 Y109.947 E182.3181
G0 F7875 X120.852 Y108.815
G1 F1425 X112.788 Y116.879 E183.53187
G0 F7875 X111.657 Y116.879
G1 F1425 X120.852 Y107.684 E184.91589
G0 F7875 X120.852 Y106.553
G1 F1425 X110.525 Y116.879 E186.47021
G0 F7875 X109.394 Y116.879
G1 F1425 X120.852 Y105.421 E188.19485
G0 F7875 X120.852 Y104.29
G1 F1425 X108.262 Y116.879 E190.0898
G0 F7875 X107.131 Y116.879
G1 F1425 X120.852 Y103.159 E192.15499
G0 F7875 X119.76 Y103.119
G1 F1425 X106 Y116.879 E194.22612
G0 F7875 X104.868 Y116.879
G1 F1425 X118.629 Y103.119 E196.29732
G0 F7875 X117.497 Y103.119
G1 F1425 X103.737 Y116.879 E198.36845
G0 F7875 X102.606 Y116.879
G1 F1425 X116.366 Y103.119 E200.43958
G0 F7875 X115.235 Y103.119
G1 F1425 X101.474 Y116.879 E202.51079
G0 F7875 X100.343 Y116.879
G1 F1425 X114.103 Y103.119 E204.58192
G0 F7875 X112.972 Y103.119
G1 F1425 X99.212 Y116.879 E206.65305
G0 F7875 X99.146 Y115.813
G1 F1425 X111.84 Y103.119 E208.56373
G0 F7875 X110.709 Y103.119
G1 F1425 X99.146 Y114.682 E210.30417
G0 F7875 X99.146 Y113.55
G1 F1425 X109.578 Y103.119 E211.8743
G0 F7875 X108.446 Y103.119
