;FLAVOR:Marlin
;TIME:4061
;Filament used: 8.86108m
;Layer height: 0.32
;MINX:65.982
;MINY:59.016
;MINZ:0.32
;MAXX:161.743
;MAXY:152.538
;MAXZ:15.84
;TARGET_MACHINE.NAME:Creality Ender-3 Pro
;Generated with Cura_SteamEngine 5.5.0
M82 ;absolute extrusion mode
; Ender 3 Custom Start G-code
G92 E0 ; Reset Extruder
G28 ; Home all axes
G1 Z5.0 F3000 ; Move Z Axis up a bit during heating to not damage bed
M104 S120 ; Start heating up the nozzle most of the way
M190 S70 ; Start heating the bed, wait until target temperature reached
M109 S220 ; Finish heating the nozzle
G1 Z2.0 F3000 ; Move Z Axis up little to prevent scratching of Heat Bed
G1 X0.1 Y20 Z0.3 F5000.0 ; Move to start position
G1 X0.1 Y200.0 Z0.3 F1500.0 E15 ; Draw the first line
G1 X0.4 Y200.0 Z0.3 F5000.0 ; Move to side a little
G1 X0.4 Y20 Z0.3 F1500.0 E30 ; Draw the second line
G92 E0 ; Reset Extruder
G1 Z2.0 F3000 ; Move Z Axis up little to prevent scratching of Heat Bed
G1 X5 Y20 Z0.3 F5000.0 ; Move over to prevent blob squish
G92 E0
G92 E0
G1 F1500 E-6.5
;LAYER_COUNT:47
;LAYER:0
M107
G1 F300 Z1.12
G0 F6000 X72.751 Y81.816 Z1.12
;TYPE:SKIRT
G1 F300 Z0.32
G1 F1500 E0
G1 F900 X73.6 Y81.082 E0.11945
G1 X74.338 Y80.547 E0.21646
G1 X75.365 Y79.934 E0.34376
G1 X76.313 Y79.481 E0.45559
G1 X77.166 Y79.157 E0.5527
G1 X77.969 Y78.915 E0.64196
G1 X78.955 Y78.657 E0.75044
G1 X81.434 Y77.972 E1.02417
G1 X83.866 Y77.225 E1.29495
G1 X86.211 Y76.432 E1.55842
G1 X88.51 Y75.579 E1.81941
G1 X90.853 Y74.636 E2.08822
G1 X93.128 Y73.643 E2.35241
G1 X95.353 Y72.598 E2.61404
G1 X97.593 Y71.466 E2.88117
G1 X99.758 Y70.295 E3.14314
G1 X101.961 Y69.021 E3.41399
G1 X104.034 Y67.742 E3.67324
G1 X106.158 Y66.349 E3.94359
G1 X108.183 Y64.935 E4.20645
G1 X110.177 Y63.459 E4.4705
G1 X112.593 Y61.556 E4.79783
G1 X113.448 Y60.949 E4.90943
G1 X114.232 Y60.483 E5.0065
G1 X115.308 Y59.966 E5.13355
G1 X116.225 Y59.624 E5.23772
G1 X117.169 Y59.357 E5.34213
G1 X118.364 Y59.135 E5.47149
G1 X119.605 Y59.031 E5.60404
G1 X120.25 Y59.016 E5.67271
G1 X141.312 Y59.016 E7.91439
G1 X142.232 Y59.029 E8.01231
G1 X143.142 Y59.082 E8.10933
G1 X144.323 Y59.257 E8.2364
G1 X145.278 Y59.487 E8.34095
G1 X146.341 Y59.845 E8.46033
G1 X147.304 Y60.268 E8.57228
G1 X148.105 Y60.703 E8.66929
G1 X149.1 Y61.362 E8.79631
G1 X149.917 Y62.02 E8.90796
G1 X150.579 Y62.648 E9.00508
G1 X151.369 Y63.544 E9.13222
G1 X151.987 Y64.392 E9.2439
G1 X152.495 Y65.23 E9.3482
G1 X152.934 Y66.109 E9.45277
G1 X153.37 Y67.224 E9.58019
G1 X153.643 Y68.168 E9.68478
G1 X153.861 Y69.294 E9.80685
G1 X153.982 Y70.642 E9.9509
G1 X153.998 Y71.31 E10.02201
G1 X153.998 Y75.401 E10.45743
G1 X154.035 Y77.966 E10.73046
G1 X154.139 Y80.438 E10.99379
G1 X154.315 Y82.928 E11.25947
G1 X154.558 Y85.374 E11.52108
G1 X154.881 Y87.905 E11.79265
G1 X155.259 Y90.309 E12.05166
G1 X155.727 Y92.826 E12.32414
G1 X156.239 Y95.208 E12.58345
G1 X156.833 Y97.631 E12.84897
G1 X157.487 Y100.011 E13.11167
G1 X158.225 Y102.419 E13.37973
G1 X159.012 Y104.751 E13.64168
G1 X159.867 Y107.071 E13.90484
G1 X160.872 Y109.578 E14.19231
G1 X161.198 Y110.505 E14.29689
G1 X161.493 Y111.66 E14.42377
G1 X161.648 Y112.627 E14.528
G1 X161.724 Y113.601 E14.63198
G1 X161.743 Y114.368 E14.71364
G1 X161.742 Y139.951 E17.4365
G1 X161.731 Y140.75 E17.52155
G1 X161.673 Y141.73 E17.62604
G1 X161.509 Y142.837 E17.74514
G1 X161.3 Y143.724 E17.84213
G1 X160.925 Y144.858 E17.96926
G1 X160.564 Y145.695 E18.06627
G1 X160.07 Y146.622 E18.17807
G1 X159.411 Y147.623 E18.30562
G1 X158.755 Y148.44 E18.41714
G1 X158.078 Y149.151 E18.52163
G1 X157.291 Y149.849 E18.63359
G1 X156.385 Y150.516 E18.75333
G1 X155.546 Y151.026 E18.85783
G1 X154.541 Y151.523 E18.97716
G1 X153.692 Y151.856 E19.07423
G1 X152.547 Y152.193 E19.20126
G1 X151.486 Y152.398 E19.31627
G1 X150.117 Y152.522 E19.46258
G1 X149.413 Y152.538 E19.53752
G1 X86.278 Y152.537 E26.25714
G1 X85.507 Y152.525 E26.3392
G1 X84.597 Y152.472 E26.43622
G1 X83.417 Y152.297 E26.56319
G1 X82.463 Y152.067 E26.66763
G1 X81.4 Y151.71 E26.78698
G1 X80.564 Y151.348 E26.88394
G1 X79.576 Y150.816 E27.00337
G1 X78.698 Y150.236 E27.11537
G1 X77.821 Y149.533 E27.235
G1 X77.063 Y148.806 E27.34678
G1 X76.459 Y148.122 E27.4439
G1 X75.791 Y147.22 E27.56336
G1 X75.207 Y146.255 E27.68341
G1 X74.743 Y145.309 E27.79556
G1 X73.535 Y142.529 E28.11817
G1 X72.507 Y140.336 E28.37594
G1 X71.37 Y138.086 E28.64426
G1 X70.169 Y135.866 E28.9129
G1 X68.927 Y133.718 E29.17698
G1 X67.896 Y132.044 E29.38623
G1 X67.663 Y131.65 E29.43495
G1 X67.139 Y130.655 E29.55463
G1 X66.733 Y129.688 E29.66626
G1 X66.45 Y128.821 E29.76333
G1 X66.195 Y127.727 E29.88288
G1 X66.05 Y126.698 E29.99349
G1 X65.999 Y125.925 E30.07594
G1 X65.982 Y125.249 E30.14791
G1 X65.982 Y99.678 E32.86949
G1 X65.998 Y97.43 E33.10876
G1 X65.999 Y95.052 E33.36185
G1 X66.011 Y94.276 E33.44446
G1 X66.078 Y93.23 E33.55601
G1 X66.21 Y92.327 E33.65314
G1 X66.488 Y91.164 E33.78041
G1 X66.826 Y90.168 E33.89235
G1 X67.22 Y89.267 E33.99702
G1 X67.767 Y88.271 E34.11796
G1 X68.468 Y87.241 E34.25057
G1 X70.269 Y84.88 E34.56662
G1 X70.814 Y84.122 E34.66598
G1 X71.378 Y83.361 E34.76679
G1 X72.067 Y82.519 E34.88259
G1 X72.751 Y81.816 E34.98698
G0 F6000 X73.276 Y82.42
G1 F900 X74.07 Y81.73 E35.09894
G1 X74.808 Y81.195 E35.19596
G1 X75.712 Y80.655 E35.30803
G1 X76.597 Y80.229 E35.41257
G1 X77.45 Y79.905 E35.50968
G1 X78.172 Y79.689 E35.58989
G1 X79.158 Y79.431 E35.69837
G1 X81.669 Y78.737 E35.97564
G1 X84.101 Y77.99 E36.24642
G1 X86.467 Y77.19 E36.51224
G1 X88.802 Y76.324 E36.77731
G1 X91.152 Y75.378 E37.04693
G1 X93.46 Y74.371 E37.31494
G1 X95.71 Y73.314 E37.57952
G1 X97.974 Y72.17 E37.8495
G1 X100.154 Y70.991 E38.11328
G1 X102.362 Y69.714 E38.38475
G1 X104.466 Y68.416 E38.64787
G1 X106.597 Y67.018 E38.91913
G1 X108.641 Y65.591 E39.18445
G1 X110.653 Y64.102 E39.45085
G1 X113.058 Y62.207 E39.77674
G1 X113.857 Y61.637 E39.8812
G1 X114.641 Y61.171 E39.97827
G1 X115.59 Y60.715 E40.09033
G1 X116.443 Y60.394 E40.18733
G1 X117.387 Y60.127 E40.29174
G1 X118.432 Y59.932 E40.40489
G1 X119.624 Y59.831 E40.53221
G1 X120.269 Y59.816 E40.60088
G1 X141.301 Y59.816 E42.83936
G1 X142.185 Y59.828 E42.93346
G1 X143.095 Y59.881 E43.03048
G1 X144.136 Y60.035 E43.14248
G1 X145.091 Y60.265 E43.24703
G1 X146.021 Y60.578 E43.35146
G1 X146.922 Y60.971 E43.45609
G1 X147.723 Y61.406 E43.5531
G1 X148.6 Y61.986 E43.66501
G1 X149.366 Y62.6 E43.76949
G1 X150.028 Y63.228 E43.86661
G1 X150.724 Y64.017 E43.97859
G1 X151.304 Y64.809 E44.08307
G1 X151.779 Y65.587 E44.18009
G1 X152.218 Y66.466 E44.28466
G1 X152.601 Y67.446 E44.39665
G1 X152.874 Y68.39 E44.50123
G1 X153.064 Y69.367 E44.60717
G1 X153.182 Y70.661 E44.74546
G1 X153.198 Y71.329 E44.81658
G1 X153.198 Y75.401 E45.24997
G1 X153.235 Y77.986 E45.52513
G1 X153.341 Y80.495 E45.79241
G1 X153.519 Y83.007 E46.06043
G1 X153.764 Y85.475 E46.3244
G1 X154.087 Y88.006 E46.59597
G1 X154.472 Y90.455 E46.85982
G1 X154.94 Y92.972 E47.1323
G1 X155.462 Y95.398 E47.39642
G1 X156.056 Y97.823 E47.66215
G1 X156.722 Y100.245 E47.92949
G1 X157.467 Y102.675 E48.20001
G1 X158.261 Y105.028 E48.46432
G1 X159.124 Y107.369 E48.72986
G1 X160.129 Y109.876 E49.01733
G1 X160.443 Y110.77 E49.11818
G1 X160.703 Y111.789 E49.23011
G1 X160.85 Y112.689 E49.32717
G1 X160.926 Y113.663 E49.43115
G1 X160.943 Y114.368 E49.50621
G1 X160.942 Y139.941 E52.228
G1 X160.932 Y140.703 E52.30911
G1 X160.874 Y141.683 E52.4136
G1 X160.73 Y142.654 E52.51807
G1 X160.521 Y143.541 E52.61506
G1 X160.19 Y144.541 E52.72718
G1 X159.829 Y145.378 E52.82419
G1 X159.365 Y146.244 E52.92876
G1 X158.786 Y147.124 E53.04087
G1 X158.174 Y147.89 E53.14523
G1 X157.547 Y148.552 E53.24227
G1 X156.76 Y149.25 E53.35423
G1 X155.969 Y149.832 E53.45875
G1 X155.13 Y150.342 E53.56325
G1 X154.249 Y150.778 E53.66787
G1 X153.4 Y151.111 E53.76494
G1 X152.392 Y151.408 E53.87678
G1 X151.413 Y151.601 E53.98298
G1 X150.098 Y151.722 E54.12353
G1 X149.413 Y151.738 E54.19646
G1 X86.29 Y151.737 E60.9148
G1 X85.554 Y151.726 E60.99314
G1 X84.644 Y151.673 E61.09016
G1 X83.604 Y151.519 E61.20205
G1 X82.65 Y151.289 E61.3065
G1 X81.718 Y150.976 E61.41114
G1 X80.882 Y150.614 E61.5081
G1 X80.017 Y150.148 E61.61267
G1 X79.139 Y149.568 E61.72467
G1 X78.373 Y148.954 E61.82915
G1 X77.663 Y148.276 E61.93364
G1 X77.059 Y147.592 E62.03076
G1 X76.474 Y146.804 E62.13522
G1 X75.925 Y145.903 E62.24751
G1 X75.477 Y144.99 E62.35575
G1 X74.269 Y142.21 E62.67836
G1 X73.221 Y139.975 E62.94109
G1 X72.074 Y137.705 E63.21178
G1 X70.873 Y135.485 E63.48042
G1 X69.62 Y133.318 E63.74684
G1 X68.585 Y131.637 E63.95695
G1 X68.352 Y131.243 E64.00567
G1 X67.876 Y130.344 E64.11393
G1 X67.494 Y129.44 E64.21839
G1 X67.211 Y128.573 E64.31546
G1 X66.975 Y127.548 E64.4274
G1 X66.848 Y126.645 E64.52446
G1 X66.799 Y125.905 E64.60339
G1 X66.782 Y125.229 E64.67536
G1 X66.782 Y99.684 E67.39418
G1 X66.798 Y97.436 E67.63344
G1 X66.799 Y95.064 E67.8859
G1 X66.81 Y94.325 E67.96456
G1 X66.87 Y93.346 E68.06896
G1 X67.002 Y92.443 E68.16609
G1 X67.246 Y91.419 E68.27812
G1 X67.559 Y90.489 E68.38256
G1 X67.953 Y89.588 E68.48723
G1 X68.429 Y88.72 E68.59259
G1 X69.104 Y87.726 E68.72047
G1 X70.905 Y85.365 E69.03652
G1 X71.457 Y84.598 E69.1371
G1 X72.021 Y83.837 E69.23791
G1 X72.642 Y83.075 E69.34253
G1 X73.276 Y82.42 E69.43956
G0 F6000 X73.851 Y82.976
G1 F900 X74.54 Y82.378 E69.53666
G1 X75.278 Y81.843 E69.63367
G1 X76.061 Y81.375 E69.73076
G1 X76.881 Y80.977 E69.82777
G1 X77.734 Y80.653 E69.92489
G1 X78.375 Y80.463 E69.99604
G1 X79.361 Y80.205 E70.10452
G1 X81.904 Y79.502 E70.38533
G1 X84.336 Y78.755 E70.65611
G1 X86.723 Y77.948 E70.92429
G1 X89.094 Y77.069 E71.19342
G1 X91.451 Y76.12 E71.46385
G1 X93.792 Y75.099 E71.73568
G1 X96.067 Y74.03 E72.00321
G1 X98.335 Y72.884 E72.27367
G1 X100.555 Y71.684 E72.54226
G1 X102.763 Y70.407 E72.81373
G1 X104.898 Y69.09 E73.08072
G1 X107.036 Y67.687 E73.35289
G1 X109.107 Y66.242 E73.62167
G1 X111.129 Y64.745 E73.88943
G1 X113.525 Y62.857 E74.2141
G1 X114.266 Y62.325 E74.31119
G1 X115.05 Y61.859 E74.40826
G1 X115.872 Y61.464 E74.50532
G1 X116.725 Y61.143 E74.60233
G1 X117.603 Y60.897 E74.69937
G1 X118.5 Y60.729 E74.7965
G1 X119.643 Y60.631 E74.9186
G1 X120.288 Y60.616 E74.98727
G1 X141.291 Y60.616 E77.22267
G1 X142.138 Y60.627 E77.31283
G1 X143.048 Y60.68 E77.40984
G1 X143.951 Y60.813 E77.50699
G1 X144.838 Y61.024 E77.60403
G1 X145.703 Y61.312 E77.70106
G1 X146.54 Y61.674 E77.79812
G1 X147.341 Y62.109 E77.89513
G1 X148.102 Y62.612 E77.99222
G1 X148.815 Y63.18 E78.08924
G1 X149.477 Y63.808 E78.18636
G1 X150.08 Y64.492 E78.28341
G1 X150.621 Y65.226 E78.38046
G1 X151.096 Y66.004 E78.47748
G1 X151.501 Y66.821 E78.57453
G1 X151.833 Y67.671 E78.67165
G1 X152.089 Y68.546 E78.76869
G1 X152.267 Y69.44 E78.86571
G1 X152.385 Y70.734 E79.004
G1 X152.398 Y71.346 E79.06915
G1 X152.398 Y75.401 E79.50073
G1 X152.435 Y77.997 E79.77706
G1 X152.543 Y80.552 E80.04924
G1 X152.723 Y83.086 E80.31962
G1 X152.97 Y85.577 E80.58604
G1 X153.294 Y88.108 E80.85762
G1 X153.685 Y90.601 E81.1262
G1 X154.153 Y93.118 E81.39868
G1 X154.685 Y95.588 E81.6676
G1 X155.279 Y98.015 E81.93353
G1 X155.957 Y100.48 E82.20563
G1 X156.703 Y102.913 E82.47648
G1 X157.51 Y105.305 E82.74517
G1 X158.381 Y107.667 E83.01311
G1 X159.386 Y110.174 E83.30058
G1 X159.688 Y111.035 E83.39769
G1 X159.913 Y111.918 E83.49467
G1 X160.06 Y112.818 E83.59173
G1 X160.128 Y113.723 E83.68832
G1 X160.143 Y114.368 E83.75699
G1 X160.142 Y139.931 E86.47772
G1 X160.133 Y140.658 E86.5551
G1 X160.082 Y141.568 E86.65211
G1 X159.951 Y142.471 E86.74922
G1 X159.742 Y143.358 E86.84622
G1 X159.455 Y144.224 E86.94332
G1 X159.094 Y145.061 E87.04033
G1 X158.661 Y145.864 E87.13743
G1 X158.16 Y146.626 E87.23449
G1 X157.593 Y147.34 E87.33153
G1 X156.966 Y148.002 E87.42858
G1 X156.284 Y148.607 E87.52561
G1 X155.551 Y149.15 E87.6227
G1 X154.773 Y149.626 E87.71977
G1 X153.957 Y150.033 E87.81682
G1 X153.108 Y150.366 E87.91389
G1 X152.234 Y150.624 E88.01088
G1 X151.34 Y150.804 E88.10794
G1 X150.025 Y150.925 E88.24849
G1 X149.413 Y150.938 E88.31364
G1 X86.301 Y150.937 E95.0308
G1 X85.601 Y150.927 E95.10531
G1 X84.691 Y150.874 E95.20233
G1 X83.789 Y150.741 E95.29937
G1 X82.902 Y150.53 E95.39641
G1 X82.036 Y150.242 E95.49354
G1 X81.2 Y149.88 E95.5905
G1 X80.398 Y149.445 E95.68761
G1 X79.637 Y148.942 E95.7847
G1 X78.924 Y148.374 E95.88172
G1 X78.263 Y147.746 E95.97876
G1 X77.659 Y147.062 E96.07588
G1 X77.118 Y146.329 E96.17285
G1 X76.643 Y145.55 E96.26995
G1 X76.211 Y144.671 E96.3742
G1 X75.003 Y141.891 E96.69681
G1 X73.935 Y139.614 E96.96449
G1 X72.778 Y137.324 E97.23756
G1 X71.577 Y135.104 E97.5062
G1 X70.313 Y132.918 E97.77495
G1 X69.274 Y131.23 E97.98592
G1 X69.041 Y130.836 E98.03464
G1 X68.612 Y130.031 E98.13172
G1 X68.255 Y129.192 E98.22877
G1 X67.972 Y128.325 E98.32583
G1 X67.767 Y127.437 E98.42283
G1 X67.64 Y126.534 E98.51989
G1 X67.599 Y125.885 E98.5891
G1 X67.582 Y125.209 E98.66107
G1 X67.582 Y99.69 E101.37712
G1 X67.598 Y97.442 E101.61638
G1 X67.599 Y95.075 E101.86831
G1 X67.609 Y94.372 E101.94314
G1 X67.662 Y93.462 E102.04016
G1 X67.794 Y92.559 E102.13729
G1 X68.005 Y91.672 E102.23433
G1 X68.293 Y90.807 E102.33136
G1 X68.656 Y89.97 E102.42846
G1 X69.091 Y89.169 E102.52547
G1 X69.74 Y88.211 E102.64863
G1 X71.555 Y85.832 E102.96711
G1 X72.1 Y85.074 E103.06647
G1 X72.643 Y84.34 E103.16365
G1 X73.217 Y83.631 E103.26074
G1 X73.851 Y82.976 E103.35776
G1 F1500 E96.85776
G1 F300 Z1.12
;MESH:TarpKlemme-Ko??rper.stl(6)
G0 F6000 X97.015 Y95.341 Z1.12
;TYPE:WALL-INNER
G1 F300 Z0.32
G1 F1500 E103.35776
G1 F626.1 X96.831 Y94.714 E103.45773
G1 X96.823 Y94.191 E103.53776
G1 X95.173 Y94.191 E103.79021
G1 X95.165 Y94.714 E103.87023
G1 X94.981 Y95.341 E103.97021
G1 X97.015 Y95.341 E104.2814
G1 F1500 E97.7814
G1 F300 Z1.12
G0 F6000 X98.998 Y96.366 Z1.12
G1 F300 Z0.32
G1 F1500 E104.2814
G1 F1027.1 X112.418 Y96.365 E105.53297
G1 F1021.3 X125.838 Y96.363 E106.79168
G1 F1015.5 X139.258 Y96.362 E108.05753
G1 F976.9 X139.619 Y96.334 E108.09303
G1 F837.2 X140.241 Y96.238 E108.16504
G1 F752.4 X140.72 Y96.238 E108.22603
G1 X140.72 Y95.759 E108.28701
G1 F837.2 X140.816 Y95.137 E108.35902
G1 F976.9 X140.843 Y94.777 E108.39442
G1 F1016.9 X140.845 Y84.396 E109.37224
G1 F1025.6 X140.848 Y74.015 E110.34176
G1 F983.6 X140.816 Y73.394 E110.40232
G1 F837.2 X140.72 Y72.773 E110.47422
G1 F752.4 X140.72 Y72.294 E110.5352
G1 X140.241 Y72.294 E110.59619
G1 F837.2 X139.62 Y72.198 E110.66808
G1 F983.6 X138.998 Y72.166 E110.72874
G1 F1028.6 X122.183 Y72.166 E112.29469
G1 X122.183 Y72.866 E112.35988
G1 X138.998 Y72.866 E113.92583
G1 F983.6 X139.469 Y72.93 E113.97212
G1 F837.2 X139.903 Y73.111 E114.02593
G1 X140.084 Y73.545 E114.07973
G1 F983.6 X140.148 Y74.016 E114.12602
G1 F1025.6 X140.148 Y94.66 E116.05405
G1 F980.9 X140.084 Y94.986 E116.0865
G1 F837.2 X139.903 Y95.421 E116.1404
G1 X139.468 Y95.602 E116.19431
G1 F980.9 X139.142 Y95.666 E116.22675
G1 F1024.2 X119.07 Y95.666 E118.10404
G1 F1027.1 X98.998 Y95.666 E119.97598
G1 F960 X98.329 Y95.514 E120.04443
G1 F900 X97.932 Y95.068 E120.10798
G1 X97.802 Y94.626 E120.15702
G1 X97.798 Y93.216 E120.30709
G1 X94.198 Y93.216 E120.69025
G1 X94.194 Y94.626 E120.84032
G1 X94.064 Y95.068 E120.88935
G1 F909.1 X93.662 Y95.507 E120.95207
G1 F967.7 X93.164 Y95.666 E121.00382
G1 F1025.6 X89.998 Y95.666 E121.2995
G1 F963.9 X89.434 Y95.573 E121.35631
G1 F770.9 X88.928 Y95.319 E121.42666
G1 F767.6 X88.873 Y94.938 E121.4747
G1 F956.2 X88.849 Y94.617 E121.50695
G1 F1025.6 X88.848 Y91.666 E121.78256
G1 F1028.6 X88.148 Y91.666 E121.84775
G1 F1025.6 X88.147 Y94.617 E122.12335
G1 F956.2 X88.123 Y94.938 E122.1556
G1 F767.6 X88.068 Y95.319 E122.20364
G1 F770.9 X87.562 Y95.573 E122.27399
G1 F961.3 X87.149 Y95.666 E122.31618
G1 F1025.6 X83.998 Y95.666 E122.61046
G1 F963.9 X83.434 Y95.573 E122.66727
G1 F770.9 X82.928 Y95.319 E122.73762
G1 F767.6 X82.873 Y94.938 E122.78566
G1 F956.2 X82.849 Y94.617 E122.81791
G1 F1025.6 X82.848 Y91.666 E123.09352
G1 F1028.6 X82.148 Y91.666 E123.15871
G1 F1025.6 X82.147 Y94.617 E123.43431
G1 F956.2 X82.123 Y94.938 E123.46656
G1 F767.6 X82.068 Y95.319 E123.5146
G1 F770.9 X81.562 Y95.573 E123.58495
G1 F961.3 X81.149 Y95.666 E123.62714
G1 F1025.6 X79.148 Y95.666 E123.81402
