;FLAVOR:Marlin
;TIME:647
;Filament used: 0.747482m
;Layer height: 0.32
;MINX:86.25
;MINY:94.5
;MINZ:0.32
;MAXX:133.75
;MAXY:125.5
;MAXZ:15.84
;TARGET_MACHINE.NAME:Creality Ender-3 Pro
;Generated with Cura_SteamEngine 5.5.0
M82 ;absolute extrusion mode
; Ender 3 Custom Start G-code
G92 E0 ; Reset Extruder
G28 ; Home all axes
G1 Z5.0 F3000 ; Move Z Axis up a bit during heating to not damage bed
M104 S120 ; Start heating up the nozzle most of the way
M190 S70 ; Start heating the bed, wait until target temperature reached
M109 S220 ; Finish heating the nozzle
G1 Z2.0 F3000 ; Move Z Axis up little to prevent scratching of Heat Bed
G1 X0.1 Y20 Z0.3 F5000.0 ; Move to start position
G1 X0.1 Y200.0 Z0.3 F1500.0 E15 ; Draw the first line
G1 X0.4 Y200.0 Z0.3 F5000.0 ; Move to side a little
G1 X0.4 Y20 Z0.3 F1500.0 E30 ; Draw the second line
G92 E0 ; Reset Extruder
G1 Z2.0 F3000 ; Move Z Axis up little to prevent scratching of Heat Bed
G1 X5 Y20 Z0.3 F5000.0 ; Move over to prevent blob squish
G92 E0
G92 E0
G1 F1500 E-6.5
;LAYER_COUNT:47
;LAYER:0
M107
G1 F300 Z1.12
G0 F6000 X89.873 Y97.927 Z1.12
;TYPE:SKIRT
G1 F300 Z0.32
G1 F1500 E0
G1 F900 X90.77 Y97.134 E0.12743
G1 X91.618 Y96.515 E0.23917
G1 X92.457 Y96.006 E0.34362
G1 X93.4 Y95.538 E0.45566
G1 X94.446 Y95.132 E0.57508
G1 X95.39 Y94.858 E0.6797
G1 X96.519 Y94.638 E0.80212
G1 X97.876 Y94.516 E0.94713
G1 X98.544 Y94.5 E1.01825
G1 X99.565 Y94.5 E1.12692
G1 X101.306 Y94.524 E1.31224
G1 X102.539 Y94.559 E1.44352
G1 X104.999 Y94.559 E1.70534
G1 X107.582 Y94.5 E1.98033
G1 X108.734 Y94.501 E2.10294
G1 X109.878 Y94.517 E2.22471
G1 X112.485 Y94.517 E2.50218
G1 X113.274 Y94.502 E2.58617
G1 X114.734 Y94.501 E2.74156
G1 X115.878 Y94.517 E2.86333
G1 X118.486 Y94.517 E3.14091
G1 X119.28 Y94.502 E3.22543
G1 X121.215 Y94.501 E3.43138
G1 X121.984 Y94.513 E3.51323
G1 X122.894 Y94.566 E3.61025
G1 X124.075 Y94.741 E3.73732
G1 X125.03 Y94.971 E3.84187
G1 X126.093 Y95.329 E3.96125
G1 X127.056 Y95.752 E4.0732
G1 X127.857 Y96.187 E4.17021
G1 X128.852 Y96.846 E4.29723
G1 X129.669 Y97.504 E4.40888
G1 X130.331 Y98.132 E4.506
G1 X131.121 Y99.028 E4.63314
G1 X131.739 Y99.876 E4.74482
G1 X132.247 Y100.714 E4.84912
G1 X132.686 Y101.593 E4.95369
G1 X133.122 Y102.708 E5.08111
G1 X133.395 Y103.652 E5.1857
G1 X133.613 Y104.778 E5.30777
G1 X133.734 Y106.126 E5.45182
G1 X133.75 Y106.83 E5.52676
G1 X133.749 Y112.913 E6.17419
G1 X133.738 Y113.712 E6.25924
G1 X133.68 Y114.692 E6.36373
G1 X133.516 Y115.799 E6.48283
G1 X133.307 Y116.686 E6.57982
G1 X132.932 Y117.82 E6.70695
G1 X132.571 Y118.657 E6.80396
G1 X132.077 Y119.584 E6.91576
G1 X131.418 Y120.585 E7.04332
G1 X130.762 Y121.402 E7.15483
G1 X130.085 Y122.113 E7.25932
G1 X129.298 Y122.811 E7.37128
G1 X128.392 Y123.478 E7.49102
G1 X127.553 Y123.988 E7.59552
G1 X126.548 Y124.485 E7.71485
G1 X125.699 Y124.818 E7.81192
G1 X124.554 Y125.155 E7.93895
G1 X123.493 Y125.36 E8.05396
G1 X122.124 Y125.484 E8.20027
G1 X121.42 Y125.5 E8.27521
G1 X98.802 Y125.499 E10.6825
G1 X98.031 Y125.488 E10.76457
G1 X96.984 Y125.422 E10.87623
G1 X96.013 Y125.278 E10.9807
G1 X94.923 Y125.017 E11.09999
G1 X94.057 Y124.731 E11.19706
G1 X92.96 Y124.256 E11.32429
G1 X92.037 Y123.752 E11.43622
G1 X91.276 Y123.25 E11.53325
G1 X90.344 Y122.509 E11.65998
G1 X89.682 Y121.882 E11.75702
G1 X88.889 Y120.987 E11.88429
G1 X88.308 Y120.196 E11.98875
G1 X87.795 Y119.362 E12.09296
G1 X87.262 Y118.291 E12.22029
G1 X86.884 Y117.31 E12.33218
G1 X86.61 Y116.367 E12.4367
G1 X86.389 Y115.234 E12.55956
G1 X86.263 Y113.805 E12.71224
G1 X86.25 Y113.158 E12.78112
G1 X86.251 Y107.011 E13.43536
G1 X86.262 Y106.274 E13.51381
G1 X86.328 Y105.226 E13.62557
G1 X86.46 Y104.324 E13.72259
G1 X86.737 Y103.162 E13.84973
G1 X87.049 Y102.231 E13.95424
G1 X87.498 Y101.202 E14.07373
G1 X88.002 Y100.282 E14.18538
G1 X88.504 Y99.521 E14.28241
G1 X89.246 Y98.589 E14.4092
G1 X89.873 Y97.927 E14.50624
G0 F6000 X90.454 Y98.477
G1 F900 X91.243 Y97.779 E14.61836
G1 X92.035 Y97.198 E14.72291
G1 X92.813 Y96.723 E14.81992
G1 X93.756 Y96.255 E14.93197
G1 X94.671 Y95.9 E15.03643
G1 X95.546 Y95.643 E15.13349
G1 X96.592 Y95.435 E15.247
G1 X97.895 Y95.316 E15.38626
G1 X98.563 Y95.3 E15.45738
G1 X99.554 Y95.3 E15.56285
G1 X101.283 Y95.324 E15.74689
G1 X102.516 Y95.359 E15.87817
G1 X105.017 Y95.359 E16.14436
G1 X107.581 Y95.3 E16.41733
G1 X108.723 Y95.301 E16.53887
G1 X109.867 Y95.317 E16.66064
G1 X112.501 Y95.317 E16.94099
G1 X113.275 Y95.302 E17.02338
G1 X114.723 Y95.301 E17.17749
G1 X115.867 Y95.317 E17.29926
G1 X118.501 Y95.317 E17.57961
G1 X119.28 Y95.302 E17.66253
G1 X121.203 Y95.301 E17.8672
G1 X121.937 Y95.312 E17.94533
G1 X122.847 Y95.365 E18.04235
G1 X123.888 Y95.519 E18.15435
G1 X124.843 Y95.749 E18.2589
G1 X125.773 Y96.062 E18.36334
G1 X126.674 Y96.455 E18.46796
G1 X127.475 Y96.89 E18.56497
G1 X128.352 Y97.47 E18.67688
G1 X129.118 Y98.084 E18.78137
G1 X129.78 Y98.712 E18.87849
G1 X130.476 Y99.501 E18.99046
G1 X131.056 Y100.293 E19.09494
G1 X131.531 Y101.071 E19.19196
G1 X131.97 Y101.95 E19.29654
G1 X132.353 Y102.93 E19.40852
G1 X132.626 Y103.874 E19.51311
G1 X132.816 Y104.851 E19.61904
G1 X132.934 Y106.145 E19.75734
G1 X132.95 Y106.83 E19.83026
G1 X132.949 Y112.903 E20.47663
G1 X132.939 Y113.665 E20.55774
G1 X132.881 Y114.645 E20.66222
G1 X132.737 Y115.616 E20.7667
G1 X132.528 Y116.503 E20.86369
G1 X132.197 Y117.503 E20.9758
G1 X131.836 Y118.34 E21.07282
G1 X131.372 Y119.206 E21.17739
G1 X130.793 Y120.086 E21.2895
G1 X130.181 Y120.852 E21.39385
G1 X129.554 Y121.514 E21.4909
G1 X128.767 Y122.212 E21.60286
G1 X127.976 Y122.794 E21.70738
G1 X127.137 Y123.304 E21.81188
G1 X126.256 Y123.74 E21.9165
G1 X125.407 Y124.073 E22.01356
G1 X124.399 Y124.37 E22.12541
G1 X123.42 Y124.563 E22.23161
G1 X122.105 Y124.684 E22.37216
G1 X121.42 Y124.7 E22.44509
G1 X98.813 Y124.699 E24.8512
G1 X98.079 Y124.689 E24.92933
G1 X97.099 Y124.63 E25.03383
G1 X96.197 Y124.499 E25.13084
G1 X95.174 Y124.257 E25.24272
G1 X94.308 Y123.971 E25.33979
G1 X93.342 Y123.553 E25.45181
G1 X92.478 Y123.084 E25.55645
G1 X91.717 Y122.582 E25.65348
G1 X90.894 Y121.928 E25.76536
G1 X90.232 Y121.301 E25.8624
G1 X89.534 Y120.513 E25.97444
G1 X88.953 Y119.722 E26.0789
G1 X88.477 Y118.944 E26.17598
G1 X88.008 Y118.001 E26.28807
G1 X87.652 Y117.085 E26.39267
G1 X87.395 Y116.21 E26.48973
G1 X87.186 Y115.163 E26.60336
G1 X87.063 Y113.789 E26.75018
G1 X87.05 Y113.158 E26.81736
G1 X87.051 Y107.022 E27.47043
G1 X87.061 Y106.322 E27.54494
G1 X87.12 Y105.342 E27.64943
G1 X87.252 Y104.44 E27.74645
G1 X87.496 Y103.416 E27.85849
G1 X87.808 Y102.485 E27.963
G1 X88.2 Y101.585 E28.06748
G1 X88.67 Y100.723 E28.17197
G1 X89.172 Y99.962 E28.269
G1 X89.827 Y99.139 E28.38095
G1 X90.454 Y98.477 E28.478
G0 F6000 X91.035 Y99.027
G1 F900 X91.718 Y98.423 E28.57504
G1 X92.452 Y97.881 E28.67215
G1 X93.23 Y97.406 E28.76917
G1 X94.047 Y97 E28.86627
G1 X94.896 Y96.668 E28.96329
G1 X95.771 Y96.411 E29.06035
G1 X96.665 Y96.232 E29.15739
G1 X97.968 Y96.113 E29.29665
G1 X98.58 Y96.1 E29.3618
G1 X99.543 Y96.1 E29.4643
G1 X101.26 Y96.124 E29.64706
G1 X102.493 Y96.159 E29.77834
G1 X105.036 Y96.159 E30.049
G1 X107.58 Y96.1 E30.31984
G1 X108.712 Y96.101 E30.44032
G1 X109.856 Y96.117 E30.56209
G1 X112.517 Y96.117 E30.84531
G1 X113.276 Y96.102 E30.92611
G1 X114.712 Y96.101 E31.07894
G1 X115.856 Y96.117 E31.20071
G1 X118.517 Y96.117 E31.48393
G1 X119.28 Y96.102 E31.56515
G1 X121.192 Y96.101 E31.76865
G1 X121.89 Y96.111 E31.84295
G1 X122.8 Y96.164 E31.93997
G1 X123.703 Y96.297 E32.03711
G1 X124.59 Y96.508 E32.13415
G1 X125.455 Y96.796 E32.23119
G1 X126.292 Y97.158 E32.32824
G1 X127.093 Y97.593 E32.42526
G1 X127.854 Y98.096 E32.52235
G1 X128.567 Y98.664 E32.61937
G1 X129.229 Y99.292 E32.71649
G1 X129.832 Y99.976 E32.81354
G1 X130.373 Y100.71 E32.91059
G1 X130.848 Y101.488 E33.0076
G1 X131.253 Y102.305 E33.10466
G1 X131.585 Y103.155 E33.20178
G1 X131.841 Y104.03 E33.29881
G1 X132.019 Y104.924 E33.39583
G1 X132.137 Y106.218 E33.53413
G1 X132.15 Y106.83 E33.59928
G1 X132.149 Y112.893 E34.24458
G1 X132.14 Y113.62 E34.32196
G1 X132.089 Y114.53 E34.41896
G1 X131.958 Y115.433 E34.51608
G1 X131.749 Y116.32 E34.61307
G1 X131.462 Y117.186 E34.71017
G1 X131.101 Y118.023 E34.80719
G1 X130.668 Y118.826 E34.90429
G1 X130.167 Y119.588 E35.00135
G1 X129.6 Y120.302 E35.09839
G1 X128.973 Y120.964 E35.19543
G1 X128.291 Y121.569 E35.29246
G1 X127.558 Y122.112 E35.38955
G1 X126.78 Y122.588 E35.48662
G1 X125.964 Y122.995 E35.58368
G1 X125.115 Y123.328 E35.68074
G1 X124.241 Y123.586 E35.77773
G1 X123.347 Y123.766 E35.87479
G1 X122.032 Y123.887 E36.01534
G1 X121.42 Y123.9 E36.08049
G1 X98.823 Y123.899 E38.48555
G1 X98.125 Y123.89 E38.55984
G1 X97.214 Y123.838 E38.65696
G1 X96.312 Y123.707 E38.75397
G1 X95.425 Y123.497 E38.85098
G1 X94.559 Y123.211 E38.94805
G1 X93.722 Y122.849 E39.04511
G1 X92.919 Y122.416 E39.14221
G1 X92.158 Y121.914 E39.23924
G1 X91.444 Y121.347 E39.33628
G1 X90.782 Y120.72 E39.43332
G1 X90.177 Y120.037 E39.53043
G1 X89.635 Y119.304 E39.62746
G1 X89.159 Y118.526 E39.72453
G1 X88.753 Y117.709 E39.82163
G1 X88.42 Y116.86 E39.9187
G1 X88.163 Y115.985 E40.01576
G1 X87.983 Y115.091 E40.11282
G1 X87.863 Y113.772 E40.25378
G1 X87.85 Y113.158 E40.31915
G1 X87.851 Y107.033 E40.97105
G1 X87.86 Y106.368 E41.04183
G1 X87.912 Y105.458 E41.13884
G1 X88.044 Y104.556 E41.23587
G1 X88.255 Y103.668 E41.33301
G1 X88.542 Y102.803 E41.43001
G1 X88.904 Y101.966 E41.52707
G1 X89.338 Y101.164 E41.62412
G1 X89.84 Y100.403 E41.72115
G1 X90.408 Y99.689 E41.81826
G1 X91.035 Y99.027 E41.9153
G1 F1500 E35.4153
G1 F300 Z1.12
;MESH:TarpKlemme-Gegenklemme.stl
G0 F6000 X100.5 Y111.25 Z1.12
;TYPE:WALL-INNER
G1 F300 Z0.32
G1 F1500 E41.9153
G1 F554.3 X107.129 Y111.25 E43.06093
G1 F1500 E36.56093
G1 F300 Z1.12
G0 F6000 X109.25 Y112.35 Z1.12
G1 F300 Z0.32
G1 F1500 E43.06093
G1 F1021.3 X113.511 Y112.345 E43.46058
G1 F913.7 X114.25 Y112.266 E43.5385
G1 F919.5 X115.25 Y112.35 E43.64303
G1 F1021.3 X119.511 Y112.345 E44.04269
G1 F936.3 X120.123 Y112.287 E44.10558
G1 F870.6 X120.537 Y112.287 E44.15113
G1 X120.537 Y111.873 E44.19668
G1 F852.1 X120.519 Y111.186 E44.27394
G1 F809 X120.491 Y110.717 E44.32957
G1 X120.309 Y111.129 E44.3829
G1 F852.1 X119.901 Y111.524 E44.44674
G1 F939.9 X119.407 Y111.65 E44.4987
G1 F1025.6 X115.25 Y111.65 E44.88694
G1 F919.5 X114.509 Y111.487 E44.96597
G1 F831.4 X114.25 Y111.212 E45.0095
G1 X113.991 Y111.487 E45.05302
G1 F917.2 X113.411 Y111.65 E45.11594
G1 F1025.6 X109.25 Y111.65 E45.50456
G1 F967.7 X108.716 Y111.569 E45.55802
G1 F906.8 X108.324 Y111.264 E45.61048
G1 F900 X108.118 Y110.901 E45.65491
G1 X108.05 Y110.635 E45.68413
G1 X108.05 Y109.857 E45.76693
G1 X107.587 Y110.153 E45.82542
G1 X107.357 Y110.2 E45.8504
G1 X100.25 Y110.2 E46.60682
G1 X99.787 Y110.108 E46.65706
G1 X99.45 Y109.845 E46.70256
G1 X99.45 Y112.3 E46.96385
G1 F906.8 X108.543 Y112.306 E47.92438
G1 F967.7 X109.25 Y112.35 E47.9945
G1 F1500 E41.4945
G1 F300 Z1.12
G0 F6000 X120.491 Y110.717 Z1.12
G1 F300 Z0.32
G1 F1500 E47.9945
G1 F792.1 X120.5 Y110.5 E48.02076
G1 F800 X120.5 Y107.75 E48.35004
G1 F1500 E41.85004
G1 F300 Z1.12
G0 F6000 X121.35 Y113.1 Z1.12
;TYPE:WALL-OUTER
G1 F300 Z0.32
G1 F1500 E48.35004
G1 F900 X121.35 Y106.9 E49.00992
G1 X119.65 Y106.9 E49.19086
G1 X119.645 Y110.569 E49.58136
G1 F901.1 X119.594 Y110.704 E49.5967
G1 X119.465 Y110.838 E49.61647
G1 F900 X119.32 Y110.895 E49.63305
G1 X115.25 Y110.9 E50.06623
G1 X115.009 Y110.821 E50.09322
G1 F869.6 X114.894 Y110.737 E50.10891
G1 F775 X114.75 Y110.544 E50.13867
G1 F719.3 X114.75 Y107 E50.61064
G1 F720 X113.75 Y107 E50.74368
G1 F719.3 X113.75 Y110.544 E51.21565
G1 F775 X113.606 Y110.737 E51.24541
G1 F869.6 X113.32 Y110.895 E51.2814
G1 F900 X109.25 Y110.9 E51.71458
G1 F901.1 X109.071 Y110.858 E51.73413
G1 X108.941 Y110.755 E51.75176
G1 F900 X108.855 Y110.565 E51.77396
G1 F870.6 X108.824 Y109.75 E51.86369
G1 F774.2 X108.747 Y109.174 E51.93559
G1 F717.8 X108.75 Y107 E52.22569
G1 F720 X107.75 Y107 E52.35873
G1 F717.8 X107.747 Y109.087 E52.63722
G1 F774.2 X107.572 Y109.281 E52.66955
G1 F870.6 X107.337 Y109.398 E52.69843
G1 F900 X100.25 Y109.4 E53.45272
G1 X100.095 Y109.37 E53.46952
G1 F859.2 X99.899 Y109.263 E53.49441
G1 F764.3 X99.753 Y109.087 E53.52307
G1 F717.1 X99.75 Y107 E53.80184
G1 F720 X98.75 Y107 E53.93488
G1 F717.1 X98.754 Y109.174 E54.22527
G1 F764.3 X98.688 Y109.666 E54.28748
G1 F859.2 X98.65 Y110.333 E54.36196
G1 F900 X98.65 Y113.1 E54.65646
G1 X121.35 Y113.1 E57.07248
M104 S220
G1 F1500 E50.57248
G1 F300 Z1.12
;MESH:NONMESH
G0 F6000 X91.035 Y99.027 Z1.12
;TIME_ELAPSED:44.225705
;LAYER:1
G0 F7875 X91.035 Y99.027 Z1.44
;TYPE:SKIRT
G1 F300 Z0.64
G1 F1500 E57.07248
G1 F900 X91.718 Y98.423 E57.16952
G1 X92.452 Y97.881 E57.26663
G1 X93.23 Y97.406 E57.36365
G1 X94.047 Y97 E57.46075
G1 X94.896 Y96.668 E57.55777
G1 X95.771 Y96.411 E57.65483
G1 X96.665 Y96.232 E57.75187
G1 X97.968 Y96.113 E57.89113
G1 X98.58 Y96.1 E57.95628
G1 X99.543 Y96.1 E58.05878
G1 X101.26 Y96.124 E58.24154
G1 X102.493 Y96.159 E58.37282
G1 X105.036 Y96.159 E58.64348
G1 X107.58 Y96.1 E58.91432
G1 X108.712 Y96.101 E59.0348
G1 X109.856 Y96.117 E59.15657
G1 X112.517 Y96.117 E59.43979
G1 X113.276 Y96.102 E59.52059
G1 X114.712 Y96.101 E59.67342
G1 X115.856 Y96.117 E59.79519
G1 X118.517 Y96.117 E60.07841
G1 X119.28 Y96.102 E60.15963
G1 X121.192 Y96.101 E60.36313
G1 X121.89 Y96.111 E60.43743
G1 X122.8 Y96.164 E60.53445
G1 X123.703 Y96.297 E60.63159
G1 X124.59 Y96.508 E60.72863
G1 X125.455 Y96.796 E60.82566
G1 X126.292 Y97.158 E60.92272
G1 X127.093 Y97.593 E61.01974
G1 X127.854 Y98.096 E61.11683
G1 X128.567 Y98.664 E61.21385
G1 X129.229 Y99.292 E61.31097
G1 X129.832 Y99.976 E61.40802
G1 X130.373 Y100.71 E61.50506
G1 X130.848 Y101.488 E61.60208
G1 X131.253 Y102.305 E61.69914
G1 X131.585 Y103.155 E61.79626
G1 X131.841 Y104.03 E61.89329
G1 X132.019 Y104.924 E61.99031
G1 X132.137 Y106.218 E62.1286
G1 X132.15 Y106.83 E62.19376
G1 X132.149 Y112.893 E62.83906
G1 X132.14 Y113.62 E62.91644
G1 X132.089 Y114.53 E63.01344
G1 X131.958 Y115.433 E63.11056
G1 X131.749 Y116.32 E63.20755
G1 X131.462 Y117.186 E63.30465
G1 X131.101 Y118.023 E63.40167
G1 X130.668 Y118.826 E63.49876
G1 X130.167 Y119.588 E63.59582
G1 X129.6 Y120.302 E63.69286
G1 X128.973 Y120.964 E63.78991
G1 X128.291 Y121.569 E63.88694
G1 X127.558 Y122.112 E63.98403
G1 X126.78 Y122.588 E64.0811
G1 X125.964 Y122.995 E64.17816
G1 X125.115 Y123.328 E64.27522
G1 X124.241 Y123.586 E64.37221
G1 X123.347 Y123.766 E64.46927
G1 X122.032 Y123.887 E64.60982
G1 X121.42 Y123.9 E64.67497
G1 X98.823 Y123.899 E67.08002
G1 X98.125 Y123.89 E67.15432
G1 X97.214 Y123.838 E67.25144
G1 X96.312 Y123.707 E67.34845
G1 X95.425 Y123.497 E67.44546
G1 X94.559 Y123.211 E67.54253
G1 X93.722 Y122.849 E67.63959
G1 X92.919 Y122.416 E67.73669
G1 X92.158 Y121.914 E67.83372
G1 X91.444 Y121.347 E67.93076
G1 X90.782 Y120.72 E68.0278
G1 X90.177 Y120.037 E68.12491
G1 X89.635 Y119.304 E68.22194
G1 X89.159 Y118.526 E68.31901
G1 X88.753 Y117.709 E68.41611
G1 X88.42 Y116.86 E68.51318
G1 X88.163 Y115.985 E68.61024
G1 X87.983 Y115.091 E68.7073
G1 X87.863 Y113.772 E68.84826
G1 X87.85 Y113.158 E68.91363
G1 X87.851 Y107.033 E69.56552
G1 X87.86 Y106.368 E69.63631
G1 X87.912 Y105.458 E69.73332
G1 X88.044 Y104.556 E69.83034
G1 X88.255 Y103.668 E69.92749
G1 X88.542 Y102.803 E70.02449
G1 X88.904 Y101.966 E70.12155
G1 X89.338 Y101.164 E70.2186
G1 X89.84 Y100.403 E70.31563
G1 X90.408 Y99.689 E70.41274
G1 X91.035 Y99.027 E70.50978
G1 F1500 E64.00978
G1 F300 Z1.44
;MESH:TarpKlemme-Gegenklemme.stl
G0 F7875 X100.5 Y111.25 Z1.44
;TYPE:WALL-INNER
G1 F300 Z0.64
G1 F1500 E70.50978
G1 F877.6 X107.129 Y111.25 E71.6554
G1 F1500 E65.1554
G1 F300 Z1.44
G0 F7875 X109.25 Y112.35 Z1.44
G1 F300 Z0.64
G1 F1500 E71.6554
G1 F1617 X113.511 Y112.345 E72.05506
G1 F1446.7 X114.25 Y112.266 E72.13297
G1 F1455.9 X115.25 Y112.35 E72.23751
G1 F1617 X119.511 Y112.345 E72.63717
G1 F1482.4 X120.123 Y112.287 E72.70006
G1 F1378.5 X120.537 Y112.287 E72.74561
G1 X120.537 Y111.873 E72.79116
G1 F1349.1 X120.519 Y111.186 E72.86842
G1 F1280.9 X120.491 Y110.717 E72.92405
G1 X120.309 Y111.129 E72.97738
G1 F1349.1 X119.901 Y111.524 E73.04122
G1 F1488.3 X119.407 Y111.65 E73.09318
