;FLAVOR:Marlin
;TIME:936
;Filament used: 2.34178m
;Layer height: 0.32
;MINX:66
;MINY:84.75
;MINZ:0.32
;MAXX:154
;MAXY:135.25
;MAXZ:15.84
;TARGET_MACHINE.NAME:Creality Ender-3 Pro
;Generated with Cura_SteamEngine 5.5.0
M82 ;absolute extrusion mode
; Ender 3 Custom Start G-code
G92 E0 ; Reset Extruder
G28 ; Home all axes
G1 Z5.0 F3000 ; Move Z Axis up a bit during heating to not damage bed
M104 S120 ; Start heating up the nozzle most of the way
M190 S70 ; Start heating the bed, wait until target temperature reached
M109 S220 ; Finish heating the nozzle
G1 Z2.0 F3000 ; Move Z Axis up little to prevent scratching of Heat Bed
G1 X0.1 Y20 Z0.3 F5000.0 ; Move to start position
G1 X0.1 Y200.0 Z0.3 F1500.0 E15 ; Draw the first line
G1 X0.4 Y200.0 Z0.3 F5000.0 ; Move to side a little
G1 X0.4 Y20 Z0.3 F1500.0 E30 ; Draw the second line
G92 E0 ; Reset Extruder
G1 Z2.0 F3000 ; Move Z Axis up little to prevent scratching of Heat Bed
G1 X5 Y20 Z0.3 F5000.0 ; Move over to prevent blob squish
G92 E0
G92 E0
G1 F1500 E-6.5
;LAYER_COUNT:47
;LAYER:0
M107
G1 F300 Z1.12
G0 F6000 X70.52 Y87.384 Z1.12
;TYPE:SKIRT
G1 F300 Z0.32
G1 F1500 E0
G1 F900 X71.368 Y86.765 E0.11174
G1 X72.207 Y86.256 E0.21619
G1 X73.15 Y85.788 E0.32823
G1 X74.196 Y85.382 E0.44765
G1 X75.14 Y85.108 E0.55227
G1 X76.269 Y84.888 E0.6747
G1 X77.626 Y84.766 E0.81971
G1 X78.294 Y84.75 E0.89082
G1 X141.314 Y84.75 E7.5982
G1 X142.234 Y84.763 E7.69612
G1 X143.144 Y84.816 E7.79314
G1 X144.325 Y84.991 E7.92021
G1 X145.28 Y85.221 E8.02476
G1 X146.343 Y85.579 E8.14414
G1 X147.306 Y86.002 E8.25609
G1 X148.107 Y86.437 E8.3531
G1 X149.102 Y87.096 E8.48012
G1 X149.919 Y87.754 E8.59177
G1 X150.581 Y88.382 E8.68889
G1 X151.371 Y89.278 E8.81603
G1 X151.989 Y90.126 E8.92771
G1 X152.497 Y90.964 E9.032
G1 X152.936 Y91.843 E9.13658
G1 X153.372 Y92.958 E9.264
G1 X153.645 Y93.902 E9.36859
G1 X153.863 Y95.028 E9.49066
G1 X153.984 Y96.376 E9.63471
G1 X154 Y97.08 E9.70965
G1 X153.999 Y99.214 E9.93678
G1 X153.987 Y99.99 E10.01938
G1 X153.92 Y101.036 E10.13094
G1 X153.788 Y101.939 E10.22807
G1 X153.51 Y103.102 E10.35534
G1 X153.172 Y104.098 E10.46728
G1 X152.778 Y104.999 E10.57194
G1 X152.231 Y105.995 E10.69289
G1 X151.53 Y107.025 E10.82549
G1 X149.729 Y109.386 E11.14154
G1 X149.184 Y110.144 E11.24091
G1 X148.62 Y110.905 E11.34172
G1 X147.931 Y111.747 E11.45752
G1 X147.247 Y112.45 E11.56191
G1 X146.398 Y113.184 E11.68136
G1 X145.66 Y113.719 E11.77837
G1 X144.633 Y114.332 E11.90567
G1 X143.685 Y114.785 E12.0175
G1 X142.832 Y115.109 E12.11461
G1 X142.029 Y115.351 E12.20387
G1 X141.043 Y115.609 E12.31235
G1 X138.564 Y116.294 E12.58608
G1 X136.132 Y117.041 E12.85686
G1 X133.787 Y117.834 E13.12033
G1 X131.488 Y118.687 E13.38132
G1 X129.145 Y119.63 E13.65013
G1 X126.87 Y120.623 E13.91432
G1 X124.653 Y121.664 E14.175
G1 X122.401 Y122.802 E14.44355
G1 X120.245 Y123.968 E14.70443
G1 X118.037 Y125.245 E14.9759
G1 X115.978 Y126.514 E15.23333
G1 X113.84 Y127.917 E15.5055
G1 X111.807 Y129.336 E15.76937
G1 X109.821 Y130.807 E16.03241
G1 X107.405 Y132.71 E16.35974
G1 X106.55 Y133.317 E16.47134
G1 X105.766 Y133.783 E16.56841
G1 X104.69 Y134.3 E16.69547
G1 X103.773 Y134.642 E16.79963
G1 X102.829 Y134.909 E16.90405
G1 X101.634 Y135.131 E17.03341
G1 X100.392 Y135.235 E17.16606
G1 X99.71 Y135.25 E17.23867
G1 X78.552 Y135.249 E19.49056
G1 X77.781 Y135.238 E19.57263
G1 X76.734 Y135.172 E19.68429
G1 X75.763 Y135.028 E19.78876
G1 X74.673 Y134.767 E19.90805
G1 X73.807 Y134.481 E20.00512
G1 X72.71 Y134.006 E20.13235
G1 X71.787 Y133.502 E20.24428
G1 X71.026 Y133 E20.34131
G1 X70.094 Y132.259 E20.46804
G1 X69.432 Y131.632 E20.56508
G1 X68.639 Y130.737 E20.69235
G1 X68.058 Y129.946 E20.79681
G1 X67.545 Y129.112 E20.90102
G1 X67.012 Y128.041 E21.02835
G1 X66.634 Y127.06 E21.14024
G1 X66.36 Y126.117 E21.24476
G1 X66.139 Y124.984 E21.36762
G1 X66.013 Y123.555 E21.5203
G1 X66 Y122.908 E21.58918
G1 X66.001 Y97.261 E24.31885
G1 X66.012 Y96.524 E24.3973
G1 X66.078 Y95.476 E24.50906
G1 X66.21 Y94.574 E24.60608
G1 X66.487 Y93.412 E24.73322
G1 X66.799 Y92.481 E24.83773
G1 X67.248 Y91.452 E24.95722
G1 X67.752 Y90.532 E25.06887
G1 X68.254 Y89.771 E25.1659
G1 X68.996 Y88.839 E25.29269
G1 X69.623 Y88.177 E25.38974
G1 X70.52 Y87.384 E25.51716
G0 F6000 X70.993 Y88.029
G1 F900 X71.785 Y87.448 E25.62171
G1 X72.563 Y86.973 E25.71873
G1 X73.506 Y86.505 E25.83077
G1 X74.421 Y86.15 E25.93523
G1 X75.296 Y85.893 E26.03229
G1 X76.342 Y85.685 E26.1458
G1 X77.645 Y85.566 E26.28506
G1 X78.313 Y85.55 E26.35618
G1 X141.303 Y85.55 E33.06036
G1 X142.187 Y85.562 E33.15445
G1 X143.097 Y85.615 E33.25147
G1 X144.138 Y85.769 E33.36347
G1 X145.093 Y85.999 E33.46802
G1 X146.023 Y86.312 E33.57246
G1 X146.924 Y86.705 E33.67708
G1 X147.725 Y87.14 E33.77409
G1 X148.602 Y87.72 E33.886
G1 X149.368 Y88.334 E33.99048
G1 X150.03 Y88.962 E34.0876
G1 X150.726 Y89.751 E34.19958
G1 X151.306 Y90.543 E34.30406
G1 X151.781 Y91.321 E34.40108
G1 X152.22 Y92.2 E34.50565
G1 X152.603 Y93.18 E34.61764
G1 X152.876 Y94.124 E34.72223
G1 X153.066 Y95.101 E34.82816
G1 X153.184 Y96.395 E34.96646
G1 X153.2 Y97.08 E35.03938
G1 X153.199 Y99.202 E35.26523
G1 X153.188 Y99.941 E35.34389
G1 X153.128 Y100.92 E35.44829
G1 X152.996 Y101.823 E35.54542
G1 X152.752 Y102.847 E35.65745
G1 X152.439 Y103.777 E35.76189
G1 X152.045 Y104.678 E35.86656
G1 X151.569 Y105.546 E35.97192
G1 X150.894 Y106.54 E36.0998
G1 X149.093 Y108.901 E36.41585
G1 X148.541 Y109.668 E36.51643
G1 X147.977 Y110.429 E36.61724
G1 X147.356 Y111.191 E36.72186
G1 X146.722 Y111.846 E36.81889
G1 X145.928 Y112.536 E36.93085
G1 X145.19 Y113.071 E37.02786
G1 X144.286 Y113.611 E37.13993
G1 X143.401 Y114.037 E37.24447
G1 X142.548 Y114.361 E37.34159
G1 X141.826 Y114.577 E37.4218
G1 X140.84 Y114.835 E37.53027
G1 X138.329 Y115.529 E37.80754
G1 X135.897 Y116.276 E38.07832
G1 X133.531 Y117.076 E38.34415
G1 X131.196 Y117.942 E38.60921
G1 X128.846 Y118.888 E38.87883
G1 X126.538 Y119.895 E39.14684
G1 X124.292 Y120.95 E39.41094
G1 X122.032 Y122.092 E39.68045
G1 X119.844 Y123.275 E39.94518
G1 X117.636 Y124.552 E40.21665
G1 X115.539 Y125.845 E40.47886
G1 X113.401 Y127.248 E40.75103
G1 X111.349 Y128.68 E41.01736
G1 X109.345 Y130.164 E41.28276
G1 X106.94 Y132.059 E41.60864
G1 X106.141 Y132.629 E41.7131
G1 X105.357 Y133.095 E41.81017
G1 X104.408 Y133.551 E41.92223
G1 X103.555 Y133.872 E42.01924
G1 X102.611 Y134.139 E42.12365
G1 X101.566 Y134.334 E42.23679
G1 X100.374 Y134.435 E42.36411
G1 X99.71 Y134.45 E42.4348
G1 X78.563 Y134.449 E44.68553
G1 X77.829 Y134.439 E44.76366
G1 X76.849 Y134.38 E44.86815
G1 X75.947 Y134.249 E44.96516
G1 X74.924 Y134.007 E45.07705
G1 X74.058 Y133.721 E45.17411
G1 X73.092 Y133.303 E45.28614
G1 X72.228 Y132.834 E45.39077
G1 X71.467 Y132.332 E45.4878
G1 X70.644 Y131.678 E45.59968
G1 X69.982 Y131.051 E45.69673
G1 X69.284 Y130.263 E45.80877
G1 X68.703 Y129.472 E45.91323
G1 X68.227 Y128.694 E46.0103
G1 X67.758 Y127.751 E46.12239
G1 X67.402 Y126.835 E46.22699
G1 X67.145 Y125.96 E46.32405
G1 X66.936 Y124.913 E46.43768
G1 X66.813 Y123.539 E46.58451
G1 X66.8 Y122.908 E46.65168
G1 X66.801 Y97.272 E49.38018
G1 X66.811 Y96.572 E49.45469
G1 X66.87 Y95.592 E49.55919
G1 X67.002 Y94.69 E49.65621
G1 X67.246 Y93.666 E49.76825
G1 X67.558 Y92.735 E49.87275
G1 X67.95 Y91.835 E49.97723
G1 X68.42 Y90.973 E50.08173
G1 X68.922 Y90.212 E50.17876
G1 X69.577 Y89.389 E50.29071
G1 X70.204 Y88.727 E50.38775
G1 X70.993 Y88.029 E50.49987
G0 F6000 X71.468 Y88.673
G1 F900 X72.202 Y88.131 E50.59699
G1 X72.98 Y87.656 E50.694
G1 X73.797 Y87.25 E50.7911
G1 X74.646 Y86.918 E50.88813
G1 X75.521 Y86.661 E50.98519
G1 X76.415 Y86.482 E51.08223
G1 X77.718 Y86.363 E51.22149
G1 X78.33 Y86.35 E51.28664
G1 X141.293 Y86.35 E57.98794
G1 X142.14 Y86.361 E58.0781
G1 X143.05 Y86.414 E58.17512
G1 X143.953 Y86.547 E58.27226
G1 X144.84 Y86.758 E58.3693
G1 X145.705 Y87.046 E58.46634
G1 X146.542 Y87.408 E58.56339
G1 X147.343 Y87.843 E58.66041
G1 X148.104 Y88.346 E58.7575
G1 X148.817 Y88.914 E58.85452
G1 X149.479 Y89.542 E58.95164
G1 X150.082 Y90.226 E59.04869
G1 X150.623 Y90.96 E59.14574
G1 X151.098 Y91.738 E59.24275
G1 X151.503 Y92.555 E59.33981
G1 X151.835 Y93.405 E59.43693
G1 X152.091 Y94.28 E59.53396
G1 X152.269 Y95.174 E59.63098
G1 X152.387 Y96.468 E59.76928
G1 X152.4 Y97.08 E59.83443
G1 X152.399 Y99.191 E60.05911
G1 X152.389 Y99.894 E60.13394
G1 X152.336 Y100.804 E60.23095
G1 X152.204 Y101.707 E60.32808
G1 X151.993 Y102.594 E60.42512
G1 X151.705 Y103.459 E60.52216
G1 X151.342 Y104.296 E60.61926
G1 X150.907 Y105.097 E60.71627
G1 X150.258 Y106.055 E60.83943
G1 X148.443 Y108.434 E61.1579
G1 X147.898 Y109.192 E61.25727
G1 X147.355 Y109.926 E61.35444
G1 X146.781 Y110.635 E61.45153
G1 X146.147 Y111.29 E61.54856
G1 X145.458 Y111.888 E61.64566
G1 X144.72 Y112.423 E61.74267
G1 X143.937 Y112.891 E61.83976
G1 X143.117 Y113.289 E61.93677
G1 X142.264 Y113.613 E62.03389
G1 X141.623 Y113.803 E62.10504
G1 X140.637 Y114.061 E62.21352
G1 X138.094 Y114.764 E62.49433
G1 X135.662 Y115.511 E62.76511
G1 X133.275 Y116.318 E63.03329
G1 X130.904 Y117.197 E63.30242
G1 X128.547 Y118.146 E63.57285
G1 X126.206 Y119.167 E63.84468
G1 X123.931 Y120.236 E64.11221
G1 X121.663 Y121.382 E64.38267
G1 X119.443 Y122.582 E64.65125
G1 X117.235 Y123.859 E64.92273
G1 X115.1 Y125.176 E65.18972
G1 X112.962 Y126.579 E65.46189
G1 X110.891 Y128.024 E65.73066
G1 X108.869 Y129.521 E65.99843
G1 X106.473 Y131.409 E66.3231
G1 X105.732 Y131.941 E66.42019
G1 X104.948 Y132.407 E66.51726
G1 X104.126 Y132.802 E66.61432
G1 X103.273 Y133.123 E66.71133
G1 X102.395 Y133.369 E66.80837
G1 X101.498 Y133.537 E66.9055
G1 X100.355 Y133.635 E67.0276
G1 X99.71 Y133.65 E67.09627
G1 X78.573 Y133.649 E69.34593
G1 X77.875 Y133.64 E69.42023
G1 X76.964 Y133.588 E69.51734
G1 X76.062 Y133.457 E69.61435
G1 X75.175 Y133.247 E69.71137
G1 X74.309 Y132.961 E69.80844
G1 X73.472 Y132.599 E69.90549
G1 X72.669 Y132.166 E70.00259
G1 X71.908 Y131.664 E70.09962
G1 X71.194 Y131.097 E70.19666
G1 X70.532 Y130.47 E70.29371
G1 X69.927 Y129.787 E70.39082
G1 X69.385 Y129.054 E70.48784
G1 X68.909 Y128.276 E70.58492
G1 X68.503 Y127.459 E70.68202
G1 X68.17 Y126.61 E70.77908
G1 X67.913 Y125.735 E70.87614
G1 X67.733 Y124.841 E70.9732
G1 X67.613 Y123.522 E71.11417
G1 X67.6 Y122.908 E71.17953
G1 X67.601 Y97.283 E73.90686
G1 X67.61 Y96.618 E73.97765
G1 X67.662 Y95.708 E74.07466
G1 X67.794 Y94.806 E74.17168
G1 X68.005 Y93.918 E74.26883
G1 X68.292 Y93.053 E74.36583
G1 X68.654 Y92.216 E74.46288
G1 X69.088 Y91.414 E74.55994
G1 X69.59 Y90.653 E74.65697
G1 X70.158 Y89.939 E74.75408
G1 X70.785 Y89.277 E74.85112
G1 X71.468 Y88.673 E74.94816
G1 F1500 E68.44816
G1 F300 Z1.12
;MESH:TarpKlemme-Ko??rper.stl
G0 F6000 X123.175 Y100.075 Z1.12
;TYPE:WALL-INNER
G1 F300 Z0.32
G1 F1500 E74.94816
G1 F626.1 X124.825 Y100.075 E75.20061
G1 X124.833 Y99.552 E75.28063
G1 X125.017 Y98.925 E75.38061
G1 X122.983 Y98.925 E75.6918
G1 X123.167 Y99.552 E75.79178
G1 X123.175 Y100.075 E75.8718
G1 F1500 E69.3718
G1 F300 Z1.12
G0 F6000 X97.815 Y122.1 Z1.12
G1 F300 Z0.32
G1 F1500 E75.8718
G1 F1028.6 X97.815 Y121.4 E75.93699
G1 X81 Y121.4 E77.50295
G1 F983.6 X80.529 Y121.336 E77.54924
G1 F837.2 X80.095 Y121.155 E77.60304
G1 X79.914 Y120.72 E77.65695
G1 F980.9 X79.85 Y120.394 E77.68939
G1 F1025.6 X79.85 Y99.75 E79.61742
G1 F983.6 X79.914 Y99.279 E79.66371
G1 F837.2 X80.095 Y98.845 E79.71751
G1 X80.53 Y98.664 E79.77142
G1 F980.9 X80.856 Y98.6 E79.80386
G1 F1024.2 X100.928 Y98.6 E81.68115
G1 F1027.1 X121 Y98.6 E83.55309
G1 F960 X121.669 Y98.752 E83.62154
G1 F900 X122.066 Y99.198 E83.6851
G1 X122.196 Y99.64 E83.73413
G1 X122.2 Y101.05 E83.8842
G1 X125.8 Y101.05 E84.26736
G1 X125.804 Y99.64 E84.41743
G1 X125.934 Y99.198 E84.46646
G1 F909.1 X126.336 Y98.759 E84.52918
G1 F967.7 X126.834 Y98.6 E84.58093
G1 F1025.6 X130 Y98.6 E84.87662
G1 F963.9 X130.564 Y98.693 E84.93342
G1 F770.9 X131.07 Y98.947 E85.00378
G1 F767.6 X131.125 Y99.327 E85.05169
G1 F958.7 X131.15 Y99.75 E85.09403
G1 F1028.6 X131.15 Y102.6 E85.35944
G1 X131.85 Y102.6 E85.42463
G1 X131.85 Y99.75 E85.69005
G1 F958.7 X131.875 Y99.327 E85.73239
G1 F767.6 X131.93 Y98.947 E85.7803
G1 F770.9 X132.436 Y98.693 E85.85066
G1 F961.3 X132.849 Y98.6 E85.89284
G1 F1025.6 X136 Y98.6 E86.18713
G1 F963.9 X136.564 Y98.693 E86.24393
G1 F770.9 X137.07 Y98.947 E86.31429
G1 F767.6 X137.125 Y99.327 E86.3622
G1 F958.7 X137.15 Y99.75 E86.40454
G1 F1028.6 X137.15 Y102.6 E86.66995
G1 X137.85 Y102.6 E86.73514
G1 X137.85 Y99.75 E87.00056
G1 F958.7 X137.875 Y99.327 E87.0429
G1 F767.6 X137.93 Y98.947 E87.09081
G1 F770.9 X138.436 Y98.693 E87.16117
G1 F961.3 X138.849 Y98.6 E87.20335
G1 F1025.6 X140.85 Y98.6 E87.39023
G1 F1028.6 X140.85 Y97.9 E87.45542
G1 F1021.3 X138.739 Y97.905 E87.65342
G1 F957.4 X138.25 Y97.947 E87.70252
G1 F833.3 X137.875 Y98.017 E87.74637
G1 F717.1 X137.5 Y98.087 E87.79733
G1 X137.125 Y98.017 E87.84828
G1 F833.3 X136.75 Y97.947 E87.89213
G1 F963.9 X136 Y97.9 E87.96682
G1 F1021.3 X132.739 Y97.905 E88.27268
G1 F957.4 X132.25 Y97.947 E88.32178
G1 F833.3 X131.875 Y98.017 E88.36563
G1 F717.1 X131.5 Y98.087 E88.41658
G1 X131.125 Y98.017 E88.46754
G1 F833.3 X130.75 Y97.947 E88.51139
G1 F963.9 X130 Y97.9 E88.58607
G1 F1021.3 X126.739 Y97.905 E88.89193
G1 F963.9 X126.087 Y97.942 E88.95683
G1 F909.1 X125.174 Y97.95 E89.05304
G1 F900 X121.913 Y97.95 E89.40011
G1 F960 X121 Y97.9 E89.49135
G1 F1027.1 X107.58 Y97.901 E90.74292
G1 F1021.3 X94.16 Y97.903 E92.00163
G1 F1015.5 X80.74 Y97.904 E93.26748
G1 F976.9 X80.379 Y97.932 E93.30298
G1 F837.2 X79.757 Y98.028 E93.37499
G1 F752.4 X79.278 Y98.028 E93.43598
G1 X79.278 Y98.507 E93.49696
G1 F837.2 X79.182 Y99.128 E93.56886
G1 F983.6 X79.15 Y99.75 E93.62951
G1 F1025.6 X79.152 Y110.131 E94.59904
G1 F1016.9 X79.155 Y120.512 E95.57686
G1 F976.9 X79.182 Y120.871 E95.61216
G1 F837.2 X79.278 Y121.493 E95.68416
G1 F752.4 X79.278 Y121.972 E95.74515
G1 X79.757 Y121.972 E95.80614
G1 F837.2 X80.378 Y122.068 E95.87803
G1 F983.6 X81 Y122.1 E95.93869
G1 F1028.6 X97.815 Y122.1 E97.50464
G0 F6000 X98.565 Y122.85
;TYPE:WALL-OUTER
G1 F900 X98.565 Y120.65 E97.73879
G1 X81 Y120.65 E99.60828
G1 X80.84 Y120.618 E99.62564
G1 X80.717 Y120.533 E99.64156
G1 X80.605 Y120.32 E99.66717
G1 X80.6 Y99.75 E101.85648
G1 X80.632 Y99.59 E101.87385
G1 X80.717 Y99.467 E101.88976
G1 X80.93 Y99.355 E101.91538
G1 X121 Y99.35 E106.18012
G1 X121.223 Y99.417 E106.20491
G1 X121.356 Y99.566 E106.22616
G1 X121.399 Y99.713 E106.24247
G1 X121.4 Y101.85 E106.46991
G1 X126.6 Y101.85 E107.02336
G1 X126.601 Y99.713 E107.25081
G1 X126.644 Y99.566 E107.26711
G1 X126.777 Y99.417 E107.28836
G1 X126.93 Y99.355 E107.30593
G1 X130 Y99.35 E107.63268
G1 X130.189 Y99.396 E107.65339
G1 X130.32 Y99.51 E107.67187
G1 X130.4 Y99.75 E107.69879
G1 X130.4 Y103.35 E108.08195
G1 X132.6 Y103.35 E108.3161
G1 X132.6 Y99.75 E108.69926
G1 X132.68 Y99.51 E108.72618
G1 X132.811 Y99.396 E108.74467
G1 X132.93 Y99.355 E108.75806
G1 X136 Y99.35 E109.08481
G1 X136.189 Y99.396 E109.10551
G1 X136.32 Y99.51 E109.124
G1 X136.4 Y99.75 E109.15092
G1 X136.4 Y103.35 E109.53408
G1 X138.6 Y103.35 E109.76823
G1 X138.6 Y99.75 E110.15139
G1 X138.68 Y99.51 E110.17831
G1 X138.811 Y99.396 E110.1968
G1 X138.93 Y99.355 E110.21019
G1 X141.6 Y99.35 E110.49437
G1 X141.6 Y97.15 E110.72852
G1 X78.4 Y97.15 E117.45505
G1 X78.4 Y122.85 E120.19036
G1 X98.565 Y122.85 E122.33657
M104 S220
G1 F1500 E115.83657
G1 F300 Z1.12
;MESH:NONMESH
G0 F6000 X71.468 Y88.673 Z1.12
;TIME_ELAPSED:84.476460
;LAYER:1
G0 F7875 X71.468 Y88.673 Z1.44
;TYPE:SKIRT
G1 F300 Z0.64
G1 F1500 E122.33657
G1 F900 X72.202 Y88.131 E122.43368
G1 X72.98 Y87.656 E122.5307
G1 X73.797 Y87.25 E122.6278
G1 X74.646 Y86.918 E122.72483
G1 X75.521 Y86.661 E122.82189
G1 X76.415 Y86.482 E122.91893
G1 X77.718 Y86.363 E123.05819
G1 X78.33 Y86.35 E123.12334
G1 X141.293 Y86.35 E129.82464
G1 X142.14 Y86.361 E129.9148
G1 X143.05 Y86.414 E130.01182
G1 X143.953 Y86.547 E130.10896
G1 X144.84 Y86.758 E130.206
G1 X145.705 Y87.046 E130.30303
G1 X146.542 Y87.408 E130.40009
G1 X147.343 Y87.843 E130.49711
G1 X148.104 Y88.346 E130.59419
G1 X148.817 Y88.914 E130.69122
G1 X149.479 Y89.542 E130.78833
G1 X150.082 Y90.226 E130.88538
G1 X150.623 Y90.96 E130.98243
G1 X151.098 Y91.738 E131.07945
