;FLAVOR:Marlin
;TIME:9280
;Filament used: 20.534m
;Layer height: 0.32
;MINX:38.085
;MINY:37.609
;MINZ:0.32
;MAXX:181.999
;MAXY:182.39
;MAXZ:15.84
;TARGET_MACHINE.NAME:Creality Ender-3 Pro
;Generated with Cura_SteamEngine 5.5.0
M82 ;absolute extrusion mode
; Ender 3 Custom Start G-code
G92 E0 ; Reset Extruder
G28 ; Home all axes
G1 Z5.0 F3000 ; Move Z Axis up a bit during heating to not damage bed
M104 S120 ; Start heating up the nozzle most of the way
M190 S70 ; Start heating the bed, wait until target temperature reached
M109 S220 ; Finish heating the nozzle
G1 Z2.0 F3000 ; Move Z Axis up little to prevent scratching of Heat Bed
G1 X0.1 Y20 Z0.3 F5000.0 ; Move to start position
G1 X0.1 Y200.0 Z0.3 F1500.0 E15 ; Draw the first line
G1 X0.4 Y200.0 Z0.3 F5000.0 ; Move to side a little
G1 X0.4 Y20 Z0.3 F1500.0 E30 ; Draw the second line
G92 E0 ; Reset Extruder
G1 Z2.0 F3000 ; Move Z Axis up little to prevent scratching of Heat Bed
G1 X5 Y20 Z0.3 F5000.0 ; Move over to prevent blob squish
G92 E0
G92 E0
G1 F1500 E-6.5
;LAYER_COUNT:47
;LAYER:0
M107
G1 F300 Z1.12
G0 F6000 X62.892 Y51.04 Z1.12
;TYPE:SKIRT
G1 F300 Z0.32
G1 F1500 E0
G1 F900 X63.381 Y50.451 E0.08148
G1 X64.09 Y49.672 E0.19359
G1 X64.916 Y48.913 E0.31298
G1 X65.637 Y48.355 E0.41001
G1 X66.674 Y47.695 E0.54084
G1 X67.976 Y47.051 E0.69544
G1 X69.608 Y46.367 E0.88378
G1 X71.959 Y45.329 E1.15731
G1 X74.191 Y44.271 E1.4202
G1 X76.434 Y43.127 E1.68818
G1 X78.582 Y41.956 E1.94857
G1 X80.801 Y40.66 E2.22207
G1 X82.873 Y39.379 E2.48134
G1 X83.792 Y38.87 E2.59315
G1 X84.687 Y38.471 E2.69745
G1 X85.614 Y38.146 E2.802
G1 X86.704 Y37.868 E2.92172
G1 X87.809 Y37.693 E3.0408
G1 X88.734 Y37.626 E3.13951
G1 X89.411 Y37.609 E3.21158
G1 X90.436 Y37.609 E3.32068
G1 X92.177 Y37.633 E3.50599
G1 X93.41 Y37.668 E3.63728
G1 X95.87 Y37.668 E3.8991
G1 X98.453 Y37.609 E4.17409
G1 X99.605 Y37.61 E4.2967
G1 X100.749 Y37.626 E4.41847
G1 X103.356 Y37.626 E4.69594
G1 X104.145 Y37.611 E4.77993
G1 X105.605 Y37.61 E4.93532
G1 X106.749 Y37.626 E5.05709
G1 X109.357 Y37.626 E5.33467
G1 X110.151 Y37.611 E5.41919
G1 X112.101 Y37.61 E5.62673
G1 X112.878 Y37.623 E5.70944
G1 X113.788 Y37.677 E5.80646
G1 X114.97 Y37.853 E5.93365
G1 X115.911 Y38.08 E6.03668
G1 X116.495 Y38.263 E6.10182
G1 X117.841 Y38.721 E6.25314
G1 X120.335 Y39.523 E6.53197
G1 X122.671 Y40.202 E6.79089
G1 X125.068 Y40.827 E7.05454
G1 X127.606 Y41.41 E7.3317
G1 X129.913 Y41.873 E7.58213
G1 X132.478 Y42.312 E7.8591
G1 X134.875 Y42.654 E8.1168
G1 X137.386 Y42.94 E8.38578
G1 X139.796 Y43.145 E8.64321
G1 X142.769 Y43.312 E8.96013
G1 X143.813 Y43.423 E9.07187
G1 X144.778 Y43.608 E9.17645
G1 X145.786 Y43.893 E9.28794
G1 X146.705 Y44.238 E9.39242
G1 X147.782 Y44.758 E9.51971
G1 X148.565 Y45.225 E9.61674
G1 X149.527 Y45.92 E9.74305
G1 X150.207 Y46.506 E9.83859
G1 X150.576 Y46.851 E9.89236
G1 X152.501 Y48.594 E10.16875
G1 X154.416 Y50.228 E10.43668
G1 X156.341 Y51.782 E10.69999
G1 X158.314 Y53.284 E10.96391
G1 X160.34 Y54.738 E11.22932
G1 X162.417 Y56.141 E11.49609
G1 X164.528 Y57.482 E11.76227
G1 X166.621 Y58.727 E12.02147
G1 X168.856 Y59.974 E12.29386
G1 X171.011 Y61.099 E12.5526
G1 X173.281 Y62.202 E12.82121
G1 X174.286 Y62.657 E12.93863
G1 X175.14 Y63.058 E13.03904
G1 X176.068 Y63.551 E13.15088
G1 X176.948 Y64.121 E13.26248
G1 X177.671 Y64.678 E13.35961
G1 X178.549 Y65.488 E13.48675
G1 X179.251 Y66.268 E13.59844
G1 X179.804 Y66.993 E13.69549
G1 X180.442 Y68.004 E13.82273
G1 X180.918 Y68.939 E13.9344
G1 X181.286 Y69.847 E14.03867
G1 X181.579 Y70.784 E14.14316
G1 X181.831 Y71.955 E14.27065
G1 X181.954 Y72.97 E14.37947
G1 X181.986 Y73.572 E14.44363
G1 X181.999 Y74.219 E14.5125
G1 X181.998 Y137.353 E21.23201
G1 X181.986 Y138.129 E21.31461
G1 X181.919 Y139.175 E21.42617
G1 X181.787 Y140.078 E21.5233
G1 X181.509 Y141.241 E21.65057
G1 X181.168 Y142.244 E21.76332
G1 X180.725 Y143.246 E21.87992
G1 X180.244 Y144.201 E21.99373
G1 X179.148 Y146.454 E22.26039
G1 X178.111 Y148.75 E22.52853
G1 X177.153 Y151.041 E22.79282
G1 X176.241 Y153.407 E23.0627
G1 X175.427 Y155.718 E23.32348
G1 X174.659 Y158.108 E23.59066
G1 X173.956 Y160.523 E23.85837
G1 X173.352 Y162.852 E24.11445
G1 X173.102 Y163.933 E24.23254
G1 X172.872 Y164.864 E24.33461
G1 X172.616 Y165.739 E24.43164
G1 X172.181 Y166.851 E24.55872
G1 X171.742 Y167.73 E24.6633
G1 X171.156 Y168.684 E24.78246
G1 X170.572 Y169.47 E24.88668
G1 X169.925 Y170.208 E24.99114
G1 X169.111 Y170.986 E25.11098
G1 X168.232 Y171.681 E25.23025
G1 X167.411 Y172.221 E25.33483
G1 X166.52 Y172.706 E25.4428
G1 X165.832 Y173.042 E25.52429
G1 X163.589 Y174.176 E25.7918
G1 X161.329 Y175.399 E26.0653
G1 X159.23 Y176.613 E26.32337
G1 X157.119 Y177.915 E26.58735
G1 X154.965 Y179.329 E26.86159
G1 X153.526 Y180.314 E27.04719
G1 X152.557 Y180.905 E27.16799
G1 X151.617 Y181.367 E27.27947
G1 X150.769 Y181.702 E27.37651
G1 X149.624 Y182.04 E27.50357
G1 X148.73 Y182.221 E27.60066
G1 X147.151 Y182.375 E27.76951
G1 X146.469 Y182.39 E27.84211
G1 X98.835 Y182.389 E32.91192
G1 X98.073 Y182.377 E32.99303
G1 X97.209 Y182.329 E33.08513
G1 X96.057 Y182.217 E33.20832
G1 X93.596 Y182.007 E33.4712
G1 X91.091 Y181.867 E33.73823
G1 X87.185 Y181.784 E34.15405
G1 X72.766 Y181.783 E35.6887
G1 X71.995 Y181.771 E35.77076
G1 X71.084 Y181.718 E35.86789
G1 X69.902 Y181.543 E35.99506
G1 X68.881 Y181.294 E36.10692
G1 X67.95 Y180.982 E36.21142
G1 X67.049 Y180.594 E36.31583
G1 X65.999 Y180.025 E36.44294
G1 X65.185 Y179.483 E36.54702
G1 X64.415 Y178.875 E36.65144
G1 X63.647 Y178.153 E36.76363
G1 X62.882 Y177.292 E36.88622
G1 X61.77 Y175.901 E37.07576
G1 X60.131 Y173.933 E37.34834
G1 X58.529 Y172.118 E37.606
G1 X56.799 Y170.263 E37.87597
G1 X55.076 Y168.518 E38.13697
G1 X53.282 Y166.801 E38.40127
G1 X51.41 Y165.11 E38.66977
G1 X49.532 Y163.506 E38.93263
G1 X47.57 Y161.924 E39.20088
G1 X45.618 Y160.442 E39.46172
G1 X43.092 Y158.637 E39.79216
G1 X42.237 Y157.961 E39.90816
G1 X41.474 Y157.239 E40.01997
G1 X40.822 Y156.508 E40.12422
G1 X40.231 Y155.725 E40.22863
G1 X39.599 Y154.708 E40.35607
G1 X39.13 Y153.767 E40.46797
G1 X38.746 Y152.79 E40.5797
G1 X38.466 Y151.851 E40.68399
G1 X38.263 Y150.89 E40.78853
G1 X38.124 Y149.736 E40.91224
G1 X38.098 Y149.215 E40.96776
G1 X38.085 Y148.568 E41.03664
G1 X38.086 Y85.434 E47.75614
G1 X38.098 Y84.663 E47.83821
G1 X38.151 Y83.752 E47.93533
G1 X38.326 Y82.57 E48.06251
G1 X38.575 Y81.549 E48.17436
G1 X38.887 Y80.618 E48.27887
G1 X39.275 Y79.717 E48.38327
G1 X39.846 Y78.665 E48.51067
G1 X40.439 Y77.782 E48.62388
G1 X41.177 Y76.874 E48.74841
G1 X43.218 Y74.622 E49.07189
G1 X44.787 Y72.784 E49.3291
G1 X46.366 Y70.828 E49.59665
G1 X47.885 Y68.83 E49.86378
G1 X49.312 Y66.84 E50.1244
G1 X50.714 Y64.765 E50.39094
G1 X51.217 Y63.972 E50.49088
G1 X51.813 Y63.067 E50.60622
G1 X52.453 Y62.189 E50.72186
G1 X53.089 Y61.458 E50.82498
G1 X53.61 Y60.938 E50.90333
G1 X55.23 Y59.42 E51.13961
G1 X57.012 Y57.661 E51.40611
G1 X58.719 Y55.879 E51.66875
G1 X60.41 Y54.007 E51.93725
G1 X62.01 Y52.133 E52.19951
G1 X62.892 Y51.04 E52.34899
G0 F6000 X63.508 Y51.551
G1 F900 X63.997 Y50.962 E52.43047
G1 X64.633 Y50.26 E52.53129
G1 X65.406 Y49.546 E52.64329
G1 X66.127 Y48.988 E52.74032
G1 X67.029 Y48.412 E52.85423
G1 X68.285 Y47.789 E53.00345
G1 X69.917 Y47.105 E53.19178
G1 X72.297 Y46.055 E53.46865
G1 X74.534 Y44.994 E53.73216
G1 X76.797 Y43.84 E54.00253
G1 X78.983 Y42.648 E54.26753
G1 X81.204 Y41.351 E54.54127
G1 X83.262 Y40.078 E54.79883
G1 X84.12 Y39.6 E54.90336
G1 X84.952 Y39.226 E55.00045
G1 X85.879 Y38.901 E55.105
G1 X86.831 Y38.658 E55.20957
G1 X87.867 Y38.491 E55.32126
G1 X88.754 Y38.426 E55.41592
G1 X89.431 Y38.409 E55.488
G1 X90.425 Y38.409 E55.59379
G1 X92.154 Y38.433 E55.77783
G1 X93.387 Y38.468 E55.90911
G1 X95.888 Y38.468 E56.1753
G1 X98.452 Y38.409 E56.44827
G1 X99.594 Y38.41 E56.56981
G1 X100.738 Y38.426 E56.69158
G1 X103.372 Y38.426 E56.97192
G1 X104.146 Y38.411 E57.05432
G1 X105.594 Y38.41 E57.20843
G1 X106.738 Y38.426 E57.3302
G1 X109.372 Y38.426 E57.61055
G1 X110.151 Y38.411 E57.69347
G1 X112.088 Y38.41 E57.89963
G1 X112.831 Y38.422 E57.97872
G1 X113.741 Y38.476 E58.07575
G1 X114.782 Y38.631 E58.18776
G1 X115.723 Y38.858 E58.29079
G1 X116.237 Y39.02 E58.34815
G1 X117.596 Y39.483 E58.50095
G1 X120.09 Y40.285 E58.77978
G1 X122.469 Y40.976 E59.04345
G1 X124.889 Y41.607 E59.30963
G1 X127.427 Y42.19 E59.58679
G1 X129.778 Y42.662 E59.84201
G1 X132.343 Y43.101 E60.11897
G1 X134.779 Y43.448 E60.38086
G1 X137.296 Y43.735 E60.65049
G1 X139.751 Y43.944 E60.91272
G1 X142.687 Y44.108 E61.2257
G1 X143.662 Y44.209 E61.33002
G1 X144.627 Y44.394 E61.4346
G1 X145.505 Y44.642 E61.53171
G1 X146.424 Y44.987 E61.63618
G1 X147.372 Y45.445 E61.74824
G1 X148.155 Y45.912 E61.84527
G1 X149.005 Y46.527 E61.95694
G1 X149.661 Y47.091 E62.04901
G1 X150.039 Y47.444 E62.10406
G1 X151.982 Y49.203 E62.38301
G1 X153.899 Y50.839 E62.65124
G1 X155.856 Y52.419 E62.91894
G1 X157.829 Y53.921 E63.18286
G1 X159.892 Y55.401 E63.45309
G1 X161.969 Y56.804 E63.71986
G1 X164.101 Y58.158 E63.98866
G1 X166.231 Y59.426 E64.25249
G1 X168.466 Y60.673 E64.52489
G1 X170.661 Y61.819 E64.78843
G1 X172.931 Y62.922 E65.05705
G1 X173.946 Y63.381 E65.17561
G1 X174.767 Y63.766 E65.27212
G1 X175.635 Y64.224 E65.37658
G1 X176.46 Y64.755 E65.481
G1 X177.183 Y65.312 E65.57814
G1 X177.956 Y66.025 E65.69006
G1 X178.615 Y66.753 E65.79458
G1 X179.168 Y67.478 E65.89162
G1 X179.73 Y68.368 E66.00365
G1 X180.177 Y69.242 E66.10814
G1 X180.522 Y70.086 E66.20518
G1 X180.815 Y71.023 E66.30967
G1 X181.037 Y72.053 E66.42181
G1 X181.155 Y73.013 E66.52476
G1 X181.186 Y73.589 E66.58615
G1 X181.199 Y74.219 E66.65322
G1 X181.198 Y137.341 E73.37144
G1 X181.187 Y138.08 E73.45011
G1 X181.127 Y139.059 E73.5545
G1 X180.995 Y139.962 E73.65163
G1 X180.751 Y140.986 E73.76367
G1 X180.436 Y141.921 E73.86868
G1 X179.993 Y142.923 E73.98528
G1 X179.53 Y143.841 E74.09471
G1 X178.419 Y146.125 E74.36503
G1 X177.373 Y148.441 E74.63551
G1 X176.415 Y150.732 E74.8998
G1 X175.486 Y153.141 E75.1746
G1 X174.672 Y155.452 E75.43538
G1 X173.897 Y157.863 E75.70492
G1 X173.188 Y160.299 E75.97495
G1 X172.572 Y162.672 E76.23588
G1 X172.325 Y163.742 E76.35276
G1 X172.104 Y164.639 E76.45109
G1 X171.848 Y165.514 E76.54812
G1 X171.465 Y166.494 E76.6601
G1 X171.026 Y167.373 E76.76468
G1 X170.512 Y168.209 E76.86913
G1 X169.97 Y168.943 E76.96624
G1 X169.323 Y169.681 E77.0707
G1 X168.613 Y170.36 E77.17526
G1 X167.79 Y171.014 E77.28714
G1 X167.029 Y171.518 E77.38429
G1 X166.138 Y172.003 E77.49226
G1 X165.471 Y172.328 E77.57123
G1 X163.208 Y173.472 E77.84111
G1 X160.948 Y174.695 E78.11461
G1 X158.821 Y175.925 E78.37612
G1 X156.68 Y177.246 E78.64387
G1 X154.526 Y178.66 E78.91811
G1 X153.074 Y179.654 E79.1054
G1 X152.202 Y180.188 E79.21423
G1 X151.323 Y180.623 E79.31861
G1 X150.475 Y180.958 E79.41565
G1 X149.465 Y181.256 E79.52773
G1 X148.571 Y181.437 E79.62481
G1 X147.133 Y181.575 E79.77856
G1 X146.469 Y181.59 E79.84925
G1 X98.847 Y181.589 E84.91778
G1 X98.117 Y181.578 E84.99548
G1 X97.253 Y181.53 E85.08758
G1 X96.125 Y181.42 E85.20821
G1 X93.641 Y181.208 E85.47355
G1 X91.124 Y181.067 E85.74186
G1 X87.202 Y180.984 E86.15938
G1 X72.778 Y180.983 E87.69456
G1 X72.041 Y180.972 E87.77301
G1 X71.13 Y180.919 E87.87013
G1 X70.089 Y180.765 E87.98213
G1 X69.135 Y180.535 E88.08658
G1 X68.204 Y180.223 E88.19109
G1 X67.367 Y179.86 E88.28819
G1 X66.441 Y179.358 E88.40029
G1 X65.681 Y178.855 E88.49729
G1 X64.911 Y178.247 E88.60171
G1 X64.197 Y177.572 E88.70629
G1 X63.507 Y176.792 E88.81713
G1 X62.395 Y175.401 E89.00667
G1 X60.746 Y173.421 E89.28092
G1 X59.114 Y171.572 E89.5434
G1 X57.384 Y169.717 E89.81337
G1 X55.629 Y167.94 E90.07919
G1 X53.818 Y166.207 E90.34597
G1 X51.946 Y164.516 E90.61447
G1 X50.034 Y162.883 E90.88209
G1 X48.072 Y161.301 E91.15033
G1 X46.093 Y159.798 E91.41482
G1 X43.557 Y157.986 E91.74656
G1 X42.785 Y157.378 E91.85114
G1 X42.07 Y156.705 E91.95565
G1 X41.461 Y156.026 E92.05273
G1 X40.87 Y155.243 E92.15714
G1 X40.314 Y154.349 E92.26919
G1 X39.874 Y153.472 E92.37362
G1 X39.512 Y152.559 E92.47815
G1 X39.249 Y151.686 E92.57519
G1 X39.046 Y150.725 E92.67973
G1 X38.923 Y149.696 E92.79003
G1 X38.898 Y149.198 E92.8431
G1 X38.885 Y148.568 E92.91017
G1 X38.886 Y85.446 E99.62839
G1 X38.897 Y84.709 E99.70684
G1 X38.95 Y83.798 E99.80397
G1 X39.104 Y82.757 E99.91597
G1 X39.334 Y81.803 E100.02042
G1 X39.646 Y80.872 E100.12492
G1 X40.009 Y80.035 E100.22202
G1 X40.511 Y79.109 E100.33413
G1 X41.06 Y78.287 E100.43933
G1 X41.798 Y77.379 E100.56387
G1 X43.811 Y75.159 E100.88282
G1 X45.409 Y73.287 E101.14478
G1 X46.998 Y71.319 E101.414
G1 X48.522 Y69.314 E101.68204
G1 X49.975 Y67.288 E101.9474
G1 X51.377 Y65.213 E102.21393
G1 X51.885 Y64.412 E102.31488
G1 X52.481 Y63.507 E102.43021
G1 X53.058 Y62.713 E102.53468
G1 X53.655 Y62.024 E102.63171
G1 X54.157 Y61.522 E102.70727
G1 X55.777 Y60.004 E102.94356
G1 X57.586 Y58.218 E103.21412
G1 X59.308 Y56.42 E103.47909
G1 X61.004 Y54.543 E103.74834
G1 X62.618 Y52.653 E104.01286
G1 X63.508 Y51.551 E104.16362
G0 F6000 X64.124 Y52.062
G1 F900 X64.613 Y51.473 E104.2451
G1 X65.226 Y50.797 E104.34223
G1 X65.896 Y50.179 E104.43924
G1 X66.617 Y49.621 E104.53627
G1 X67.385 Y49.128 E104.63341
G1 X68.594 Y48.527 E104.77711
G1 X70.226 Y47.843 E104.96544
G1 X72.635 Y46.781 E105.24565
G1 X74.897 Y45.708 E105.51211
G1 X77.161 Y44.553 E105.78262
G1 X79.384 Y43.34 E106.05215
G1 X81.607 Y42.042 E106.32613
G1 X83.653 Y40.776 E106.58221
G1 X84.448 Y40.33 E106.67922
G1 X85.28 Y39.956 E106.77631
G1 X86.141 Y39.657 E106.87332
G1 X87.026 Y39.434 E106.97046
G1 X87.926 Y39.289 E107.06748
G1 X88.774 Y39.226 E107.15798
G1 X89.451 Y39.209 E107.23006
G1 X90.414 Y39.209 E107.33256
G1 X92.131 Y39.233 E107.51532
G1 X93.364 Y39.268 E107.6466
G1 X95.907 Y39.268 E107.91726
G1 X98.451 Y39.209 E108.1881
G1 X99.583 Y39.21 E108.30858
G1 X100.727 Y39.226 E108.43035
G1 X103.388 Y39.226 E108.71357
G1 X104.147 Y39.211 E108.79436
G1 X105.583 Y39.21 E108.9472
G1 X106.727 Y39.226 E109.06897
G1 X109.388 Y39.226 E109.35219
G1 X110.151 Y39.211 E109.43341
G1 X112.076 Y39.21 E109.63829
G1 X112.784 Y39.221 E109.71366
G1 X113.694 Y39.275 E109.81068
G1 X114.596 Y39.409 E109.90774
G1 X115.483 Y39.621 E110.0048
G1 X115.979 Y39.777 E110.06014
G1 X117.351 Y40.245 E110.21443
G1 X119.845 Y41.047 E110.49326
G1 X122.267 Y41.75 E110.76168
G1 X124.71 Y42.387 E111.03038
G1 X127.248 Y42.97 E111.30754
G1 X129.643 Y43.451 E111.56754
G1 X132.208 Y43.89 E111.84451
G1 X134.679 Y44.242 E112.11016
G1 X137.21 Y44.53 E112.38128
G1 X139.705 Y44.743 E112.64779
G1 X142.607 Y44.904 E112.95713
G1 X143.514 Y44.995 E113.05415
G1 X144.41 Y45.164 E113.1512
G1 X145.288 Y45.412 E113.2483
G1 X146.141 Y45.735 E113.34538
G1 X146.962 Y46.132 E113.44244
G1 X147.745 Y46.599 E113.53947
G1 X148.484 Y47.134 E113.63658
G1 X149.115 Y47.676 E113.72511
G1 X149.502 Y48.037 E113.78144
G1 X151.463 Y49.812 E114.06295
G1 X153.38 Y51.448 E114.33118
G1 X155.372 Y53.056 E114.60365
G1 X157.347 Y54.559 E114.8678
G1 X159.444 Y56.064 E115.14252
G1 X161.521 Y57.467 E115.40929
G1 X163.674 Y58.834 E115.68073
G1 X165.841 Y60.125 E115.94919
G1 X168.076 Y61.372 E116.22159
G1 X170.311 Y62.539 E116.48994
G1 X172.581 Y63.642 E116.75856
G1 X173.607 Y64.106 E116.8784
G1 X174.396 Y64.475 E116.97111
G1 X175.204 Y64.898 E117.06818
G1 X175.972 Y65.389 E117.16519
G1 X176.695 Y65.946 E117.26233
G1 X177.365 Y66.564 E117.35935
G1 X177.979 Y67.238 E117.45638
G1 X178.532 Y67.963 E117.55343
G1 X179.019 Y68.734 E117.65049
G1 X179.436 Y69.545 E117.74755
G1 X179.781 Y70.389 E117.84459
G1 X180.051 Y71.26 E117.94165
G1 X180.243 Y72.152 E118.03876
G1 X180.356 Y73.057 E118.13583
G1 X180.386 Y73.606 E118.19435
G1 X180.399 Y74.219 E118.25961
G1 X180.398 Y137.33 E124.97666
G1 X180.388 Y138.033 E125.05149
G1 X180.335 Y138.943 E125.14851
G1 X180.203 Y139.846 E125.24564
G1 X179.992 Y140.733 E125.34268
G1 X179.704 Y141.598 E125.43971
G1 X179.278 Y142.563 E125.55198
G1 X178.816 Y143.481 E125.66136
G1 X177.69 Y145.796 E125.93535
G1 X176.635 Y148.132 E126.20816
G1 X175.668 Y150.444 E126.47489
G1 X174.74 Y152.853 E126.74965
G1 X173.91 Y155.207 E127.01531
G1 X173.135 Y157.618 E127.28485
G1 X172.42 Y160.076 E127.5573
G1 X171.792 Y162.492 E127.82299
