;FLAVOR:Marlin
;TIME:17709
;Filament used: 11.3583m
;Layer height: 0.2
;MINX:58.5
;MINY:73.5
;MINZ:0.2
;MAXX:162.5
;MAXY:146.5
;MAXZ:31
;TARGET_MACHINE.NAME:Creality Ender-3 Pro
;Generated with Cura_SteamEngine 5.5.0
M82 ;absolute extrusion mode
; Ender 3 Custom Start G-code
G92 E0 ; Reset Extruder
G28 ; Home all axes
G1 Z5.0 F3000 ; Move Z Axis up a bit during heating to not damage bed
M104 S120 ; Start heating up the nozzle most of the way
M190 S70 ; Start heating the bed, wait until target temperature reached
M109 S230 ; Finish heating the nozzle
G1 Z2.0 F3000 ; Move Z Axis up little to prevent scratching of Heat Bed
G1 X0.1 Y20 Z0.3 F5000.0 ; Move to start position
G1 X0.1 Y200.0 Z0.3 F1500.0 E15 ; Draw the first line
G1 X0.4 Y200.0 Z0.3 F5000.0 ; Move to side a little
G1 X0.4 Y20 Z0.3 F1500.0 E30 ; Draw the second line
G92 E0 ; Reset Extruder
G1 Z2.0 F3000 ; Move Z Axis up little to prevent scratching of Heat Bed
G1 X5 Y20 Z0.3 F5000.0 ; Move over to prevent blob squish
G92 E0
G92 E0
G1 F1500 E-6.5
;LAYER_COUNT:155
;LAYER:0
M107
G0 F6000 X62.69 Y75.879 Z0.2
;TYPE:SKIRT
G1 F1500 E0
G1 F900 X63.479 Y75.311 E0.03234
G1 X64.316 Y74.813 E0.06473
G1 X65.194 Y74.392 E0.09711
G1 X66.107 Y74.05 E0.12954
G1 X67.045 Y73.79 E0.16192
G1 X68.011 Y73.612 E0.19459
G1 X69.155 Y73.515 E0.23277
G1 X69.83 Y73.5 E0.25523
G1 X136.215 Y73.501 E2.4632
G1 X136.956 Y73.514 E2.48785
G1 X137.928 Y73.575 E2.52024
G1 X138.891 Y73.722 E2.55265
G1 X139.768 Y73.934 E2.58265
G1 X140.838 Y74.3 E2.62027
G1 X141.517 Y74.573 E2.64461
G1 X142.924 Y75.161 E2.69533
G1 X145.307 Y76.081 E2.78029
G1 X147.667 Y76.913 E2.86352
G1 X150.086 Y77.691 E2.94803
G1 X152.482 Y78.387 E3.03102
G1 X154.431 Y78.907 E3.09811
G1 X155.291 Y79.184 E3.12816
G1 X156.252 Y79.592 E3.16288
G1 X157.111 Y80.052 E3.19529
G1 X157.897 Y80.566 E3.22653
G1 X158.689 Y81.19 E3.26006
G1 X159.397 Y81.859 E3.29246
G1 X159.998 Y82.533 E3.3225
G1 X160.62 Y83.372 E3.35724
G1 X161.127 Y84.203 E3.38961
G1 X161.56 Y85.076 E3.42202
G1 X161.889 Y85.917 E3.45206
G1 X162.182 Y86.921 E3.48685
G1 X162.364 Y87.849 E3.5183
G1 X162.487 Y89.206 E3.56362
G1 X162.5 Y89.83 E3.58438
G1 X162.499 Y129.915 E4.91761
G1 X162.487 Y130.678 E4.94299
G1 X162.429 Y131.651 E4.97541
G1 X162.283 Y132.614 E5.00781
G1 X162.052 Y133.56 E5.04019
G1 X161.739 Y134.483 E5.07261
G1 X161.347 Y135.374 E5.10499
G1 X160.895 Y136.197 E5.13622
G1 X160.333 Y137.034 E5.16975
G1 X159.767 Y137.737 E5.19977
G1 X159.041 Y138.49 E5.23456
G1 X158.304 Y139.126 E5.26693
G1 X157.514 Y139.696 E5.29933
G1 X156.738 Y140.159 E5.32939
G1 X155.797 Y140.612 E5.36413
G1 X154.926 Y140.94 E5.39508
G1 X154.291 Y141.13 E5.41713
G1 X151.181 Y141.981 E5.52437
G1 X148.774 Y142.722 E5.60813
G1 X146.39 Y143.529 E5.69184
G1 X144.061 Y144.392 E5.77445
G1 X141.624 Y145.374 E5.86184
G1 X140.959 Y145.652 E5.88582
G1 X140.111 Y145.963 E5.91586
G1 X139.102 Y146.234 E5.95061
G1 X138.138 Y146.401 E5.98315
G1 X137.051 Y146.486 E6.01941
G1 X136.427 Y146.499 E6.04017
G1 X70.197 Y146.5 E8.24299
G1 X69.331 Y146.488 E8.27179
G1 X68.359 Y146.431 E8.30418
G1 X67.396 Y146.285 E8.33657
G1 X66.45 Y146.056 E8.36895
G1 X65.526 Y145.744 E8.40138
G1 X64.636 Y145.352 E8.43373
G1 X63.813 Y144.901 E8.46494
G1 X62.974 Y144.34 E8.49851
G1 X62.27 Y143.774 E8.52856
G1 X61.517 Y143.049 E8.56332
G1 X60.88 Y142.313 E8.5957
G1 X60.35 Y141.582 E8.62573
G1 X59.814 Y140.685 E8.66048
G1 X59.392 Y139.807 E8.69288
G1 X59.05 Y138.895 E8.72528
G1 X58.79 Y137.957 E8.75765
G1 X58.612 Y136.988 E8.79042
G1 X58.514 Y135.809 E8.82977
G1 X58.5 Y135.158 E8.85143
G1 X58.501 Y85.054 E10.51789
G1 X58.512 Y84.33 E10.54198
G1 X58.57 Y83.357 E10.5744
G1 X58.715 Y82.394 E10.60679
G1 X58.935 Y81.481 E10.63802
G1 X59.256 Y80.525 E10.67156
G1 X59.649 Y79.634 E10.70395
G1 X60.1 Y78.812 E10.73514
G1 X60.661 Y77.973 E10.76871
G1 X61.227 Y77.269 E10.79875
G1 X61.953 Y76.516 E10.83354
G1 X62.69 Y75.879 E10.86594
G0 F6000 X62.924 Y76.203
G1 F900 X63.684 Y75.654 E10.89712
G1 X64.49 Y75.173 E10.92834
G1 X65.335 Y74.766 E10.95954
G1 X66.214 Y74.435 E10.99078
G1 X67.118 Y74.183 E11.02199
G1 X68.045 Y74.011 E11.05335
G1 X69.189 Y73.914 E11.09154
G1 X69.83 Y73.9 E11.11286
G1 X136.208 Y73.901 E13.3206
G1 X136.932 Y73.913 E13.34468
G1 X137.868 Y73.97 E13.37587
G1 X138.797 Y74.111 E13.40713
G1 X139.674 Y74.323 E13.43714
G1 X140.689 Y74.671 E13.47282
G1 X141.363 Y74.942 E13.49699
G1 X142.78 Y75.534 E13.54806
G1 X145.167 Y76.455 E13.63316
G1 X147.545 Y77.294 E13.71703
G1 X149.967 Y78.073 E13.80165
G1 X152.37 Y78.771 E13.88488
G1 X154.308 Y79.288 E13.95159
G1 X155.168 Y79.565 E13.98164
G1 X156.064 Y79.945 E14.01401
G1 X156.892 Y80.387 E14.04523
G1 X157.678 Y80.901 E14.07647
G1 X158.415 Y81.481 E14.10766
G1 X159.098 Y82.125 E14.13888
G1 X159.699 Y82.799 E14.16892
G1 X160.279 Y83.581 E14.2013
G1 X160.769 Y84.381 E14.2325
G1 X161.187 Y85.222 E14.26374
G1 X161.516 Y86.063 E14.29377
G1 X161.789 Y86.998 E14.32617
G1 X161.971 Y87.926 E14.35762
G1 X162.087 Y89.214 E14.40064
G1 X162.1 Y89.83 E14.42113
G1 X162.099 Y129.909 E15.75416
G1 X162.088 Y130.655 E15.77898
G1 X162.033 Y131.592 E15.8102
G1 X161.894 Y132.52 E15.8414
G1 X161.673 Y133.432 E15.87262
G1 X161.373 Y134.322 E15.90385
G1 X160.996 Y135.181 E15.93505
G1 X160.544 Y136.004 E15.96628
G1 X160.021 Y136.783 E15.99749
G1 X159.455 Y137.486 E16.02751
G1 X158.779 Y138.188 E16.05992
G1 X158.07 Y138.802 E16.09112
G1 X157.309 Y139.352 E16.12235
G1 X156.533 Y139.815 E16.1524
G1 X155.656 Y140.238 E16.18479
G1 X154.811 Y140.557 E16.21483
G1 X154.189 Y140.743 E16.23642
G1 X153.589 Y140.901 E16.25706
G1 X151.074 Y141.596 E16.34384
G1 X148.646 Y142.343 E16.42833
G1 X146.262 Y143.15 E16.51205
G1 X143.911 Y144.021 E16.59543
G1 X141.474 Y145.003 E16.68282
G1 X140.821 Y145.276 E16.70636
G1 X139.973 Y145.587 E16.73641
G1 X139.033 Y145.84 E16.76878
G1 X138.106 Y146.002 E16.80008
G1 X137.043 Y146.086 E16.83555
G1 X136.427 Y146.099 E16.85604
G1 X70.202 Y146.1 E19.05869
G1 X69.354 Y146.089 E19.0869
G1 X68.418 Y146.035 E19.11808
G1 X67.489 Y145.896 E19.14933
G1 X66.577 Y145.677 E19.18052
G1 X65.687 Y145.378 E19.21175
G1 X64.828 Y145.001 E19.24295
G1 X64.005 Y144.55 E19.27416
G1 X63.225 Y144.028 E19.30538
G1 X62.521 Y143.462 E19.33542
G1 X61.819 Y142.787 E19.36781
G1 X61.204 Y142.078 E19.39903
G1 X60.674 Y141.347 E19.42906
G1 X60.174 Y140.511 E19.46146
G1 X59.766 Y139.666 E19.49267
G1 X59.435 Y138.788 E19.52388
G1 X59.183 Y137.884 E19.55509
G1 X59.011 Y136.955 E19.58652
G1 X58.913 Y135.776 E19.62587
G1 X58.9 Y135.158 E19.64643
G1 X58.901 Y85.06 E21.31269
G1 X58.911 Y84.353 E21.33621
G1 X58.966 Y83.416 E21.36743
G1 X59.104 Y82.488 E21.39863
G1 X59.324 Y81.575 E21.42987
G1 X59.622 Y80.686 E21.46105
G1 X60 Y79.826 E21.4923
G1 X60.451 Y79.004 E21.52348
G1 X60.973 Y78.224 E21.5547
G1 X61.539 Y77.52 E21.58474
G1 X62.215 Y76.818 E21.61716
G1 X62.924 Y76.203 E21.64837
G0 F6000 X63.159 Y76.527
G1 F900 X63.89 Y75.997 E21.67841
G1 X64.664 Y75.533 E21.70842
G1 X65.477 Y75.14 E21.73845
G1 X66.322 Y74.82 E21.76851
G1 X67.192 Y74.576 E21.79856
G1 X68.079 Y74.41 E21.82857
G1 X69.223 Y74.313 E21.86676
G1 X69.83 Y74.3 E21.88695
G1 X136.202 Y74.301 E24.0945
G1 X136.908 Y74.312 E24.11798
G1 X137.809 Y74.366 E24.148
G1 X138.703 Y74.5 E24.17807
G1 X139.58 Y74.712 E24.20808
G1 X140.54 Y75.042 E24.24184
G1 X141.209 Y75.311 E24.26582
G1 X142.636 Y75.907 E24.31726
G1 X145.027 Y76.829 E24.40249
G1 X147.423 Y77.675 E24.487
G1 X149.848 Y78.455 E24.57173
G1 X152.258 Y79.155 E24.6552
G1 X154.185 Y79.669 E24.72153
G1 X155.045 Y79.946 E24.75158
G1 X155.876 Y80.298 E24.7816
G1 X156.674 Y80.722 E24.81166
G1 X157.431 Y81.215 E24.8417
G1 X158.141 Y81.773 E24.87174
G1 X158.799 Y82.391 E24.90176
G1 X159.4 Y83.065 E24.9318
G1 X159.938 Y83.79 E24.96182
G1 X160.411 Y84.56 E24.99188
G1 X160.814 Y85.368 E25.02191
G1 X161.143 Y86.209 E25.05195
G1 X161.397 Y87.076 E25.082
G1 X161.573 Y87.962 E25.11204
G1 X161.687 Y89.223 E25.15415
G1 X161.7 Y89.83 E25.17435
G1 X161.699 Y129.904 E26.50721
G1 X161.689 Y130.632 E26.53143
G1 X161.637 Y131.534 E26.56148
G1 X161.505 Y132.427 E26.5915
G1 X161.294 Y133.305 E26.62154
G1 X161.007 Y134.162 E26.6516
G1 X160.645 Y134.989 E26.68162
G1 X160.212 Y135.781 E26.71164
G1 X159.709 Y136.532 E26.74171
G1 X159.143 Y137.235 E26.77173
G1 X158.517 Y137.886 E26.80176
G1 X157.835 Y138.478 E26.8318
G1 X157.104 Y139.008 E26.86183
G1 X156.328 Y139.471 E26.89189
G1 X155.515 Y139.864 E26.92192
G1 X154.67 Y140.183 E26.95196
G1 X154.087 Y140.356 E26.97219
G1 X153.482 Y140.515 E26.99299
G1 X150.967 Y141.211 E27.07979
G1 X148.518 Y141.964 E27.16501
G1 X146.134 Y142.771 E27.24872
G1 X143.761 Y143.65 E27.33288
G1 X141.324 Y144.632 E27.42027
G1 X140.683 Y144.9 E27.44338
G1 X139.835 Y145.211 E27.47342
G1 X138.963 Y145.446 E27.50346
G1 X138.074 Y145.603 E27.53349
G1 X137.034 Y145.686 E27.56819
G1 X136.427 Y145.699 E27.58838
G1 X70.207 Y145.7 E29.79087
G1 X69.377 Y145.69 E29.81847
G1 X68.476 Y145.639 E29.84849
G1 X67.582 Y145.507 E29.87855
G1 X66.704 Y145.298 E29.90856
G1 X65.847 Y145.011 E29.93862
G1 X65.02 Y144.65 E29.96864
G1 X64.227 Y144.217 E29.99869
G1 X63.476 Y143.716 E30.02871
G1 X62.772 Y143.15 E30.05876
G1 X62.121 Y142.524 E30.0888
G1 X61.528 Y141.843 E30.11883
G1 X60.998 Y141.112 E30.14886
G1 X60.534 Y140.337 E30.17891
G1 X60.14 Y139.524 E30.20895
G1 X59.82 Y138.68 E30.23898
G1 X59.576 Y137.81 E30.26903
G1 X59.41 Y136.922 E30.29908
G1 X59.313 Y135.767 E30.33763
G1 X59.3 Y135.158 E30.35789
G1 X59.301 Y85.065 E32.02399
G1 X59.31 Y84.376 E32.0469
G1 X59.362 Y83.474 E32.07695
G1 X59.493 Y82.581 E32.10697
G1 X59.703 Y81.702 E32.13703
G1 X59.989 Y80.846 E32.16705
G1 X60.351 Y80.018 E32.19711
G1 X60.784 Y79.226 E32.22713
G1 X61.285 Y78.475 E32.25715
G1 X61.851 Y77.771 E32.2872
G1 X62.477 Y77.12 E32.31724
G1 X63.159 Y76.527 E32.3473
G1 F1500 E25.8473
G0 F6000 X139.996 Y89.7
G1 F1500 E32.3473
G1 F900 X151.3 Y89.7 E32.72327
G1 X151.3 Y130.3 E34.07363
G1 X139.817 Y130.3 E34.45556
G1 X139.817 Y123.318 E34.68778
G1 X139.831 Y123.303 E34.68846
G1 X139.85 Y123.218 E34.69136
G1 X139.85 Y123.077 E34.69605
G1 X139.864 Y123.063 E34.69671
G1 X139.885 Y122.994 E34.69911
G1 X139.917 Y122.708 E34.70868
G1 X139.918 Y122.695 E34.70911
G1 X139.938 Y122.25 E34.72393
G1 X139.938 Y122.232 E34.72453
G1 X139.92 Y121.84 E34.73758
G1 X139.915 Y121.805 E34.73875
G1 X139.897 Y121.726 E34.74145
G1 X139.897 Y114.891 E34.96878
G1 X139.969 Y114.867 E34.9713
G1 X140.05 Y114.706 E34.9773
G1 X141.323 Y114.706 E35.01964
G1 X141.339 Y114.755 E35.02135
G1 X141.433 Y114.824 E35.02523
G1 X141.87 Y114.98 E35.04067
G1 X141.886 Y114.985 E35.04122
G1 X142.244 Y115.079 E35.05353
G1 X142.263 Y115.083 E35.05418
G1 X142.679 Y115.15 E35.06819
G1 X142.694 Y115.152 E35.0687
G1 X143.052 Y115.183 E35.08065
G1 X143.063 Y115.184 E35.08102
G1 X143.385 Y115.193 E35.09173
G1 X143.391 Y115.193 E35.09193
G1 X144.825 Y115.191 E35.13962
G1 X144.84 Y115.19 E35.14012
G1 X145.254 Y115.158 E35.15394
G1 X145.286 Y115.153 E35.15501
G1 X145.793 Y115.03 E35.17236
G1 X145.83 Y115.018 E35.17366
G1 X146.355 Y114.776 E35.19289
G1 X146.392 Y114.753 E35.19433
G1 X146.828 Y114.42 E35.21258
G1 X146.859 Y114.391 E35.21399
G1 X147.194 Y114 E35.23112
G1 X147.217 Y113.967 E35.23246
G1 X147.467 Y113.515 E35.24964
G1 X147.485 Y113.472 E35.25119
G1 X147.612 Y113.017 E35.2669
G1 X147.616 Y112.996 E35.26761
G1 X147.661 Y112.731 E35.27655
G1 X147.663 Y112.716 E35.27705
G1 X147.69 Y112.411 E35.28724
G1 X147.691 Y112.398 E35.28767
G1 X147.698 Y112.111 E35.29722
G1 X147.698 Y112.105 E35.29742
G1 X147.681 Y107.632 E35.44619
G1 X147.68 Y107.612 E35.44686
G1 X147.635 Y107.191 E35.46094
G1 X147.632 Y107.174 E35.46152
G1 X147.572 Y106.866 E35.47195
G1 X147.566 Y106.84 E35.47284
G1 X147.454 Y106.506 E35.48456
G1 X147.443 Y106.48 E35.4855
G1 X147.267 Y106.129 E35.49856
G1 X147.248 Y106.099 E35.49974
G1 X146.968 Y105.727 E35.51522
G1 X146.943 Y105.699 E35.51647
G1 X146.643 Y105.425 E35.52998
G1 X146.618 Y105.406 E35.53103
G1 X146.248 Y105.162 E35.54577
G1 X146.215 Y105.144 E35.54702
G1 X145.818 Y104.979 E35.56132
G1 X145.789 Y104.97 E35.56233
G1 X145.362 Y104.864 E35.57696
G1 X145.338 Y104.859 E35.57778
G1 X145.042 Y104.823 E35.5877
G1 X145.027 Y104.822 E35.5882
G1 X144.677 Y104.807 E35.59985
G1 X144.668 Y104.807 E35.60015
G1 X140.038 Y104.801 E35.75414
G1 X140.038 Y98.159 E35.97505
G1 X140.068 Y98.041 E35.9791
G1 X140.074 Y97.999 E35.98052
G1 X140.092 Y97.479 E35.99782
G1 X140.092 Y97.462 E35.99839
G1 X140.072 Y97.045 E36.01227
G1 X140.071 Y97.033 E36.01267
G1 X140.032 Y96.68 E36.02448
G1 X139.996 Y96.601 E36.02737
G1 X139.996 Y89.7 E36.2569
G0 F6000 X140.396 Y90.1
G1 F900 X150.9 Y90.1 E36.60626
G1 X150.9 Y129.9 E37.93002
G1 X140.217 Y129.9 E38.28534
G1 X140.217 Y123.412 E38.50113
G1 X140.25 Y123.218 E38.50767
G1 X140.25 Y123.168 E38.50934
G1 X140.282 Y123.039 E38.51376
G1 X140.314 Y122.753 E38.52333
G1 X140.317 Y122.713 E38.52466
G1 X140.337 Y122.268 E38.53948
G1 X140.337 Y122.213 E38.54131
G1 X140.319 Y121.821 E38.55436
G1 X140.305 Y121.716 E38.55788
G1 X140.297 Y121.681 E38.55908
G1 X140.297 Y115.106 E38.77776
G1 X141.156 Y115.106 E38.80633
G1 X141.298 Y115.201 E38.81202
G1 X141.735 Y115.357 E38.82745
G1 X141.785 Y115.372 E38.82918
G1 X142.143 Y115.466 E38.8415
G1 X142.2 Y115.478 E38.84343
G1 X142.616 Y115.545 E38.85745
G1 X142.659 Y115.551 E38.85889
G1 X143.017 Y115.582 E38.87084
G1 X143.052 Y115.584 E38.87201
G1 X143.374 Y115.593 E38.88272
G1 X143.392 Y115.593 E38.88332
G1 X144.826 Y115.591 E38.93102
G1 X144.871 Y115.589 E38.93251
G1 X145.285 Y115.557 E38.94633
G1 X145.38 Y115.542 E38.94952
G1 X145.887 Y115.419 E38.96688
G1 X145.997 Y115.381 E38.97075
G1 X146.522 Y115.139 E38.98997
G1 X146.635 Y115.071 E38.99436
G1 X147.071 Y114.738 E39.01261
G1 X147.163 Y114.651 E39.01682
G1 X147.498 Y114.26 E39.03394
G1 X147.567 Y114.16 E39.03799
G1 X147.817 Y113.708 E39.05517
G1 X147.87 Y113.579 E39.0598
G1 X147.997 Y113.124 E39.07552
G1 X148.011 Y113.063 E39.0776
G1 X148.056 Y112.798 E39.08654
G1 X148.062 Y112.751 E39.08811
G1 X148.089 Y112.446 E39.0983
G1 X148.091 Y112.408 E39.09956
G1 X148.098 Y112.121 E39.10911
G1 X148.098 Y112.104 E39.10968
G1 X148.081 Y107.631 E39.25845
G1 X148.078 Y107.569 E39.26052
G1 X148.033 Y107.148 E39.2746
G1 X148.025 Y107.097 E39.27631
G1 X147.965 Y106.789 E39.28675
G1 X147.945 Y106.713 E39.28936
G1 X147.833 Y106.379 E39.30108
G1 X147.8 Y106.301 E39.3039
G1 X147.624 Y105.95 E39.31696
G1 X147.567 Y105.858 E39.32056
G1 X147.287 Y105.486 E39.33604
G1 X147.213 Y105.404 E39.33972
G1 X146.913 Y105.13 E39.35323
G1 X146.838 Y105.072 E39.35638
G1 X146.468 Y104.828 E39.37113
G1 X146.368 Y104.775 E39.37489
G1 X145.971 Y104.61 E39.38919
G1 X145.886 Y104.582 E39.39217
G1 X145.459 Y104.476 E39.4068
G1 X145.386 Y104.462 E39.40927
G1 X145.09 Y104.426 E39.41919
G1 X145.044 Y104.423 E39.42072
G1 X144.694 Y104.408 E39.43237
G1 X144.669 Y104.407 E39.43321
G1 X140.438 Y104.402 E39.57393
G1 X140.438 Y98.21 E39.77988
G1 X140.456 Y98.139 E39.78231
G1 X140.474 Y98.013 E39.78655
G1 X140.492 Y97.493 E39.80385
G1 X140.491 Y97.443 E39.80551
G1 X140.471 Y97.026 E39.8194
G1 X140.468 Y96.989 E39.82064
G1 X140.429 Y96.636 E39.83245
G1 X140.396 Y96.527 E39.83624
G1 X140.396 Y90.1 E40.05
G0 F6000 X140.796 Y90.5
G1 F900 X150.5 Y90.5 E40.37275
G1 X150.5 Y129.5 E41.6699
G1 X140.617 Y129.5 E41.99861
G1 X140.617 Y123.459 E42.19953
G1 X140.625 Y123.438 E42.20028
G1 X140.647 Y123.24 E42.20691
G1 X140.653 Y123.227 E42.20738
G1 X140.68 Y123.083 E42.21226
G1 X140.712 Y122.797 E42.22183
G1 X140.717 Y122.731 E42.22403
G1 X140.737 Y122.286 E42.23885
G1 X140.737 Y122.195 E42.24187
G1 X140.719 Y121.803 E42.25492
G1 X140.697 Y121.642 E42.26033
G1 X140.697 Y115.506 E42.46441
G1 X141.041 Y115.506 E42.47585
G1 X141.164 Y115.578 E42.48059
G1 X141.601 Y115.734 E42.49603
G1 X141.683 Y115.759 E42.49888
G1 X142.041 Y115.853 E42.51119
G1 X142.136 Y115.873 E42.51442
G1 X142.552 Y115.94 E42.52843
G1 X142.625 Y115.949 E42.53088
G1 X142.983 Y115.98 E42.54283
G1 X143.041 Y115.984 E42.54476
G1 X143.363 Y115.993 E42.55548
G1 X143.392 Y115.993 E42.55644
G1 X144.826 Y115.991 E42.60414
G1 X144.902 Y115.988 E42.60667
G1 X145.316 Y115.956 E42.62048
