;FLAVOR:Marlin
;TIME:10641
;Filament used: 19.6562m
;Layer height: 0.32
;MINX:23.192
;MINY:22.349
;MINZ:0.32
;MAXX:197.132
;MAXY:197.654
;MAXZ:8
;TARGET_MACHINE.NAME:Creality Ender-3 Pro
;Generated with Cura_SteamEngine 5.5.0
M82 ;absolute extrusion mode
; Ender 3 Custom Start G-code
G92 E0 ; Reset Extruder
G28 ; Home all axes
G1 Z5.0 F3000 ; Move Z Axis up a bit during heating to not damage bed
M104 S120 ; Start heating up the nozzle most of the way
M190 S70 ; Start heating the bed, wait until target temperature reached
M109 S230 ; Finish heating the nozzle
G1 Z2.0 F3000 ; Move Z Axis up little to prevent scratching of Heat Bed
G1 X0.1 Y20 Z0.3 F5000.0 ; Move to start position
G1 X0.1 Y200.0 Z0.3 F1500.0 E15 ; Draw the first line
G1 X0.4 Y200.0 Z0.3 F5000.0 ; Move to side a little
G1 X0.4 Y20 Z0.3 F1500.0 E30 ; Draw the second line
G92 E0 ; Reset Extruder
G1 Z2.0 F3000 ; Move Z Axis up little to prevent scratching of Heat Bed
G1 X5 Y20 Z0.3 F5000.0 ; Move over to prevent blob squish
G92 E0
G92 E0
G1 F1500 E-6.5
;LAYER_COUNT:25
;LAYER:0
M107
G0 F6000 X31.544 Y30.841 Z0.32
;TYPE:SKIRT
G1 F1500 E0
G1 F900 X32.445 Y29.938 E0.13577
G1 X33.097 Y29.304 E0.23256
G1 X33.778 Y28.698 E0.32958
G1 X34.359 Y28.248 E0.4078
G1 X35.177 Y27.656 E0.51527
G1 X36.126 Y26.991 E0.6386
G1 X36.829 Y26.513 E0.72908
G1 X37.734 Y25.96 E0.84196
G1 X38.284 Y25.673 E0.90799
G1 X39.299 Y25.182 E1.028
G1 X40.969 Y24.416 E1.22354
G1 X41.871 Y24.051 E1.32711
G1 X42.629 Y23.807 E1.41186
G1 X43.698 Y23.505 E1.53009
G1 X45.398 Y23.06 E1.71712
G1 X46.479 Y22.83 E1.83475
G1 X47.198 Y22.733 E1.91197
G1 X48.236 Y22.628 E2.02301
G1 X50.074 Y22.477 E2.21929
G1 X51.143 Y22.44 E2.33314
G1 X51.868 Y22.467 E2.41035
G1 X52.737 Y22.528 E2.50307
G1 X54.24 Y22.66 E2.66365
G1 X54.869 Y22.725 E2.73096
G1 X55.952 Y22.889 E2.84754
G1 X56.556 Y23.022 E2.91336
G1 X57.603 Y23.287 E3.02831
G1 X59.381 Y23.773 E3.22449
G1 X60.249 Y24.052 E3.32153
G1 X61.031 Y24.366 E3.41122
G1 X62.094 Y24.845 E3.53531
G1 X63.746 Y25.628 E3.72989
G1 X64.665 Y26.119 E3.84078
G1 X65.53 Y26.632 E3.94782
G1 X67.785 Y27.925 E4.22448
G1 X70.023 Y29.127 E4.49486
G1 X72.22 Y30.229 E4.75646
G1 X74.523 Y31.301 E5.02682
G1 X76.737 Y32.258 E5.28354
G1 X79.13 Y33.212 E5.55772
G1 X81.39 Y34.041 E5.81393
G1 X83.781 Y34.84 E6.08225
G1 X86.154 Y35.561 E6.34621
G1 X88.592 Y36.226 E6.61517
G1 X90.943 Y36.797 E6.87267
G1 X93.47 Y37.334 E7.14763
G1 X95.838 Y37.769 E7.40388
G1 X98.307 Y38.151 E7.66979
G1 X100.845 Y38.47 E7.94204
G1 X103.225 Y38.701 E8.19654
G1 X105.774 Y38.877 E8.46848
G1 X108.237 Y38.975 E8.73083
G1 X110.7 Y39.005 E8.99299
G1 X113.242 Y38.962 E9.26358
G1 X115.702 Y38.853 E9.52566
G1 X118.165 Y38.673 E9.78851
G1 X120.693 Y38.416 E10.05895
G1 X123.121 Y38.1 E10.31955
G1 X125.569 Y37.711 E10.58337
G1 X128.009 Y37.251 E10.84764
G1 X130.465 Y36.715 E11.11519
G1 X132.872 Y36.121 E11.37906
G1 X135.267 Y35.454 E11.64366
G1 X137.692 Y34.708 E11.9137
G1 X139.988 Y33.928 E12.17178
G1 X142.336 Y33.056 E12.43836
G1 X144.662 Y32.115 E12.70542
G1 X146.948 Y31.114 E12.97102
G1 X149.171 Y30.066 E13.2326
G1 X151.424 Y28.924 E13.50144
G1 X153.609 Y27.738 E13.76604
G1 X155.868 Y26.428 E14.04397
G1 X156.472 Y26.067 E14.11886
G1 X157.354 Y25.589 E14.22564
G1 X158.387 Y25.089 E14.34778
G1 X160.013 Y24.342 E14.53823
G1 X161.004 Y23.942 E14.65198
G1 X161.712 Y23.715 E14.73111
G1 X162.551 Y23.477 E14.82393
G1 X163.761 Y23.152 E14.95728
G1 X164.653 Y22.928 E15.05516
G1 X165.6 Y22.735 E15.15802
G1 X166.267 Y22.645 E15.22966
G1 X167.35 Y22.533 E15.34554
G1 X168.393 Y22.442 E15.45697
G1 X169.321 Y22.375 E15.556
G1 X170.232 Y22.349 E15.653
G1 X170.961 Y22.377 E15.73064
G1 X172.118 Y22.461 E15.85411
G1 X173.878 Y22.626 E16.04225
G1 X174.938 Y22.776 E16.15619
G1 X175.652 Y22.932 E16.23398
G1 X176.654 Y23.186 E16.344
G1 X178.436 Y23.672 E16.54059
G1 X179.455 Y24.003 E16.65462
G1 X180.151 Y24.288 E16.73467
G1 X180.926 Y24.635 E16.82504
G1 X182.243 Y25.249 E16.9797
G1 X182.875 Y25.556 E17.05448
G1 X183.759 Y26.035 E17.16149
G1 X184.333 Y26.399 E17.23383
G1 X185.2 Y26.987 E17.34533
G1 X186.184 Y27.676 E17.47318
G1 X186.842 Y28.152 E17.55962
G1 X187.557 Y28.717 E17.65661
G1 X188.114 Y29.222 E17.73663
G1 X188.738 Y29.828 E17.82921
G1 X190.185 Y31.289 E18.04806
G1 X190.838 Y32.012 E18.15175
G1 X191.323 Y32.635 E18.23578
G1 X192.003 Y33.579 E18.35961
G1 X193.025 Y35.061 E18.55121
G1 X193.571 Y35.938 E18.66116
G1 X193.903 Y36.57 E18.73715
G1 X194.365 Y37.524 E18.84996
G1 X194.813 Y38.483 E18.96262
G1 X195.169 Y39.274 E19.05494
G1 X195.553 Y40.243 E19.16588
G1 X195.76 Y40.897 E19.23889
G1 X196.019 Y41.802 E19.33907
G1 X196.509 Y43.662 E19.54379
G1 X196.74 Y44.745 E19.66165
G1 X196.838 Y45.468 E19.73931
G1 X196.924 Y46.306 E19.82897
G1 X197.094 Y48.342 E20.04642
G1 X197.132 Y49.414 E20.16058
G1 X197.104 Y50.145 E20.23844
G1 X197.021 Y51.302 E20.3619
G1 X196.859 Y53.033 E20.54694
G1 X196.704 Y54.125 E20.66433
G1 X196.55 Y54.83 E20.74113
G1 X196.331 Y55.704 E20.83703
G1 X195.793 Y57.675 E21.05448
G1 X195.514 Y58.544 E21.15162
G1 X195.19 Y59.347 E21.24378
G1 X194.783 Y60.251 E21.3493
G1 X194.303 Y61.282 E21.47034
G1 X193.887 Y62.139 E21.57173
G1 X193.396 Y63.036 E21.68057
G1 X191.89 Y65.495 E21.98747
G1 X190.647 Y67.663 E22.25345
G1 X189.48 Y69.838 E22.51616
G1 X188.347 Y72.104 E22.7858
G1 X187.293 Y74.367 E23.0515
G1 X186.319 Y76.62 E23.31274
G1 X185.38 Y78.976 E23.58268
G1 X184.547 Y81.255 E23.84093
G1 X183.743 Y83.657 E24.11053
G1 X183.023 Y86.035 E24.37497
G1 X182.363 Y88.458 E24.64225
G1 X181.793 Y90.807 E24.89951
G1 X181.258 Y93.327 E25.1737
G1 X180.817 Y95.728 E25.43352
G1 X180.434 Y98.22 E25.70187
G1 X180.128 Y100.664 E25.96402
G1 X179.887 Y103.149 E26.22974
G1 X179.718 Y105.635 E26.49494
G1 X179.62 Y108.098 E26.75729
G1 X179.591 Y110.585 E27.02201
G1 X179.634 Y113.122 E27.29207
G1 X179.744 Y115.542 E27.5499
G1 X179.924 Y118.024 E27.81476
G1 X180.178 Y120.516 E28.08136
G1 X180.502 Y123.002 E28.34819
G1 X180.886 Y125.412 E28.60793
G1 X181.347 Y127.857 E28.87274
G1 X181.883 Y130.316 E29.1406
G1 X182.473 Y132.706 E29.40261
G1 X183.155 Y135.155 E29.67319
G1 X183.874 Y137.489 E29.93312
G1 X184.678 Y139.853 E30.19888
G1 X185.545 Y142.184 E30.46358
G1 X186.486 Y144.51 E30.73063
G1 X187.5 Y146.827 E30.99982
G1 X188.536 Y149.021 E31.25805
G1 X189.677 Y151.272 E31.52665
G1 X190.852 Y153.436 E31.78874
G1 X192.14 Y155.655 E32.06181
G1 X192.932 Y156.97 E32.22519
G1 X193.436 Y157.9 E32.33778
G1 X193.873 Y158.803 E32.44455
G1 X194.345 Y159.814 E32.5633
G1 X194.71 Y160.626 E32.65805
G1 X195.081 Y161.562 E32.76521
G1 X195.294 Y162.234 E32.84024
G1 X195.604 Y163.333 E32.96178
G1 X196.052 Y165.048 E33.15043
G1 X196.274 Y166.093 E33.26414
G1 X196.372 Y166.82 E33.34221
G1 X196.476 Y167.855 E33.45293
G1 X196.626 Y169.68 E33.64782
G1 X196.663 Y170.75 E33.76177
G1 X196.635 Y171.483 E33.83984
G1 X196.553 Y172.612 E33.96032
G1 X196.39 Y174.358 E34.14696
G1 X196.235 Y175.451 E34.26446
G1 X196.08 Y176.166 E34.34232
G1 X195.806 Y177.249 E34.46122
G1 X195.329 Y178.994 E34.65376
G1 X195.05 Y179.862 E34.7508
G1 X194.727 Y180.664 E34.84282
G1 X194.381 Y181.439 E34.93315
G1 X193.492 Y183.322 E35.15478
G1 X193.037 Y184.181 E35.25824
G1 X192.607 Y184.865 E35.34423
G1 X192.014 Y185.738 E35.45655
G1 X191.424 Y186.581 E35.56606
G1 X190.86 Y187.363 E35.66868
G1 X190.295 Y188.078 E35.76567
G1 X189.788 Y188.637 E35.846
G1 X189.029 Y189.418 E35.96191
G1 X187.772 Y190.662 E36.15013
G1 X187.044 Y191.322 E36.25472
G1 X186.382 Y191.841 E36.34425
G1 X185.684 Y192.348 E36.43607
G1 X184.603 Y193.107 E36.57665
G1 X183.929 Y193.565 E36.66338
G1 X182.99 Y194.14 E36.78057
G1 X182.453 Y194.418 E36.84493
G1 X181.512 Y194.876 E36.95631
G1 X180.531 Y195.334 E37.07154
G1 X179.734 Y195.692 E37.16453
G1 X178.765 Y196.076 E37.27547
G1 X178.114 Y196.283 E37.34817
G1 X176.997 Y196.599 E37.47172
G1 X175.316 Y197.039 E37.65666
G1 X174.389 Y197.239 E37.7576
G1 X173.551 Y197.359 E37.8477
G1 X172.692 Y197.448 E37.93961
G1 X171.272 Y197.572 E38.09132
G1 X170.507 Y197.627 E38.17295
G1 X169.595 Y197.654 E38.27006
G1 X168.846 Y197.625 E38.34984
G1 X167.735 Y197.544 E38.4684
G1 X165.926 Y197.375 E38.66177
G1 X165.023 Y197.251 E38.75878
G1 X164.177 Y197.071 E38.85084
G1 X163.067 Y196.79 E38.97271
G1 X161.338 Y196.316 E39.16352
G1 X160.47 Y196.037 E39.26056
G1 X159.66 Y195.71 E39.35353
G1 X158.896 Y195.366 E39.44271
G1 X157.592 Y194.76 E39.59575
G1 X156.932 Y194.44 E39.67382
G1 X156.046 Y193.963 E39.78091
G1 X154.314 Y192.917 E39.99626
G1 X152.163 Y191.684 E40.26014
G1 X149.941 Y190.492 E40.52852
G1 X147.795 Y189.417 E40.78398
G1 X145.501 Y188.349 E41.05329
G1 X143.181 Y187.348 E41.32222
G1 X140.848 Y186.418 E41.58953
G1 X138.585 Y185.589 E41.84604
G1 X136.196 Y184.791 E42.11412
G1 X133.799 Y184.063 E42.38074
G1 X131.4 Y183.409 E42.64539
G1 X129.016 Y182.832 E42.90645
G1 X126.516 Y182.301 E43.17847
G1 X124.135 Y181.864 E43.43612
G1 X121.625 Y181.477 E43.70642
G1 X119.168 Y181.169 E43.96997
G1 X116.718 Y180.932 E44.23195
G1 X114.203 Y180.759 E44.50026
G1 X111.735 Y180.661 E44.76314
G1 X109.274 Y180.632 E45.02509
G1 X106.71 Y180.675 E45.29802
G1 X104.301 Y180.784 E45.55468
G1 X101.8 Y180.967 E45.82158
G1 X99.295 Y181.222 E46.08957
G1 X96.855 Y181.54 E46.35146
G1 X94.374 Y181.936 E46.61886
G1 X91.977 Y182.389 E46.87849
G1 X89.498 Y182.929 E47.14853
G1 X87.096 Y183.523 E47.41188
G1 X84.683 Y184.194 E47.67845
G1 X82.294 Y184.932 E47.94457
G1 X79.98 Y185.719 E48.20471
G1 X77.643 Y186.588 E48.47008
G1 X75.287 Y187.542 E48.74061
G1 X73.006 Y188.541 E49.00565
G1 X70.812 Y189.577 E49.26388
G1 X68.561 Y190.718 E49.53248
G1 X66.363 Y191.911 E49.79866
G1 X63.702 Y193.462 E50.12647
G1 X62.966 Y193.854 E50.21523
G1 X61.939 Y194.351 E50.33666
G1 X60.281 Y195.112 E50.53082
G1 X59.378 Y195.477 E50.63449
G1 X58.607 Y195.725 E50.72069
G1 X57.512 Y196.033 E50.84175
G1 X55.797 Y196.481 E51.03041
G1 X54.752 Y196.703 E51.14411
G1 X54.028 Y196.801 E51.22187
G1 X53.212 Y196.885 E51.30918
G1 X51.753 Y197.013 E51.46506
G1 X51.017 Y197.066 E51.5436
G1 X50.105 Y197.093 E51.64071
G1 X49.352 Y197.064 E51.72091
G1 X48.233 Y196.982 E51.84033
G1 X46.487 Y196.819 E52.02697
G1 X45.394 Y196.664 E52.14446
G1 X44.682 Y196.51 E52.22199
G1 X43.595 Y196.235 E52.34133
G1 X41.85 Y195.758 E52.53387
G1 X40.982 Y195.479 E52.63091
G1 X40.17 Y195.151 E52.72412
G1 X39.372 Y194.793 E52.8172
G1 X37.522 Y193.92 E53.03493
G1 X36.663 Y193.465 E53.13838
G1 X36.005 Y193.053 E53.22101
G1 X35.023 Y192.384 E53.34748
G1 X33.558 Y191.343 E53.53876
G1 X32.745 Y190.706 E53.64868
G1 X32.228 Y190.237 E53.72298
G1 X31.427 Y189.458 E53.8419
G1 X30.183 Y188.201 E54.03012
G1 X29.523 Y187.473 E54.13471
G1 X29 Y186.807 E54.22484
G1 X28.352 Y185.908 E54.34279
G1 X27.322 Y184.417 E54.53566
G1 X26.756 Y183.509 E54.64954
G1 X26.427 Y182.882 E54.7249
G1 X25.969 Y181.942 E54.83619
G1 X25.509 Y180.957 E54.9519
G1 X25.154 Y180.167 E55.04408
G1 X24.77 Y179.198 E55.15501
G1 X24.563 Y178.544 E55.22802
G1 X24.298 Y177.618 E55.33054
G1 X23.814 Y175.778 E55.53303
G1 X23.583 Y174.695 E55.65089
G1 X23.486 Y173.979 E55.72779
G1 X23.397 Y173.113 E55.82045
G1 X23.229 Y171.077 E56.03788
G1 X23.192 Y170.007 E56.15183
G1 X23.22 Y169.273 E56.23001
G1 X23.303 Y168.14 E56.35092
G1 X23.47 Y166.354 E56.54184
G1 X23.594 Y165.451 E56.63885
G1 X23.774 Y164.606 E56.7308
G1 X24.054 Y163.499 E56.85234
G1 X24.519 Y161.801 E57.03971
G1 X24.83 Y160.839 E57.14732
G1 X25.133 Y160.094 E57.23292
G1 X25.54 Y159.191 E57.33834
G1 X26.022 Y158.154 E57.46005
G1 X26.55 Y157.071 E57.58828
G1 X27.515 Y155.249 E57.80772
G1 X28.628 Y153.026 E58.07232
G1 X29.669 Y150.795 E58.33435
G1 X30.666 Y148.487 E58.60193
G1 X31.603 Y146.14 E58.8709
G1 X32.429 Y143.881 E59.1269
G1 X33.232 Y141.485 E59.39585
G1 X33.95 Y139.122 E59.65871
G1 X34.613 Y136.693 E59.92669
G1 X35.205 Y134.255 E60.19371
G1 X35.714 Y131.861 E60.45421
G1 X36.172 Y129.369 E60.72388
G1 X36.546 Y126.941 E60.98534
G1 X36.862 Y124.424 E61.25534
G1 X37.097 Y122.01 E61.51348
G1 X37.269 Y119.492 E61.7821
G1 X37.368 Y117.025 E62.04488
G1 X37.399 Y114.654 E62.29725
G1 X37.399 Y103.222 E63.51399
G1 X37.362 Y100.644 E63.7884
G1 X37.258 Y98.182 E64.05067
G1 X37.079 Y95.656 E64.32019
G1 X36.839 Y93.245 E64.57807
G1 X36.517 Y90.722 E64.84878
G1 X36.136 Y88.302 E65.10952
G1 X35.673 Y85.81 E65.37928
G1 X35.152 Y83.387 E65.64306
G1 X34.564 Y80.989 E65.90585
G1 X33.916 Y78.633 E66.16592
G1 X33.16 Y76.166 E66.44054
G1 X32.388 Y73.881 E66.69724
G1 X31.507 Y71.492 E66.96825
G1 X30.593 Y69.215 E67.22939
G1 X29.591 Y66.91 E67.49689
G1 X28.534 Y64.656 E67.76186
G1 X27.535 Y62.677 E67.9978
G1 X26.812 Y61.187 E68.17407
G1 X26.05 Y59.526 E68.36857
G1 X25.685 Y58.623 E68.47223
G1 X25.443 Y57.873 E68.55611
G1 X25.13 Y56.765 E68.67865
G1 X24.682 Y55.048 E68.86752
G1 X24.46 Y54 E68.98153
G1 X24.363 Y53.275 E69.05938
G1 X24.258 Y52.234 E69.17074
G1 X24.097 Y50.262 E69.38133
G1 X24.07 Y49.35 E69.47843
G1 X24.099 Y48.598 E69.55853
G1 X24.173 Y47.58 E69.66716
G1 X24.269 Y46.478 E69.7849
G1 X24.363 Y45.56 E69.88311
G1 X24.505 Y44.602 E69.98619
G1 X24.653 Y43.927 E70.05974
G1 X24.918 Y42.881 E70.17458
G1 X25.395 Y41.137 E70.36702
G1 X25.726 Y40.117 E70.48115
G1 X26.006 Y39.433 E70.55982
G1 X26.477 Y38.387 E70.68191
G1 X27.226 Y36.804 E70.8683
G1 X27.728 Y35.861 E70.982
G1 X28.12 Y35.241 E71.06007
G1 X28.769 Y34.283 E71.18323
G1 X29.774 Y32.866 E71.36813
G1 X30.416 Y32.043 E71.47922
G1 X30.949 Y31.454 E71.56377
G1 X31.544 Y30.841 E71.65469
G0 F6000 X32.11 Y31.406
G1 F900 X33.003 Y30.511 E71.78925
G1 X33.629 Y29.902 E71.88221
G1 X34.31 Y29.296 E71.97923
G1 X34.828 Y28.896 E72.04888
G1 X35.646 Y28.304 E72.15635
G1 X36.576 Y27.653 E72.27718
G1 X37.279 Y27.175 E72.36766
G1 X38.104 Y26.669 E72.47066
G1 X38.633 Y26.393 E72.53417
G1 X39.633 Y25.909 E72.65241
G1 X41.269 Y25.158 E72.84401
G1 X42.171 Y24.793 E72.94757
G1 X42.846 Y24.577 E73.023
G1 X43.901 Y24.279 E73.13968
G1 X45.601 Y23.834 E73.32671
G1 X46.587 Y23.623 E73.43403
G1 X47.279 Y23.529 E73.50836
G1 X48.302 Y23.425 E73.6178
G1 X50.14 Y23.274 E73.81408
G1 X51.113 Y23.239 E73.91771
G1 X51.812 Y23.265 E73.99215
G1 X52.667 Y23.325 E74.08338
G1 X54.158 Y23.456 E74.24268
G1 X54.787 Y23.521 E74.30998
G1 X55.78 Y23.67 E74.41685
G1 X56.36 Y23.798 E74.48007
G1 X57.392 Y24.059 E74.59337
G1 X59.136 Y24.535 E74.78577
G1 X60.004 Y24.814 E74.88281
G1 X60.731 Y25.108 E74.96628
G1 X61.752 Y25.568 E75.08546
G1 X63.37 Y26.334 E75.27599
G1 X64.257 Y26.807 E75.38298
G1 X65.132 Y27.326 E75.49126
G1 X67.406 Y28.63 E75.77026
G1 X69.643 Y29.832 E76.04054
G1 X71.867 Y30.947 E76.30533
G1 X74.185 Y32.026 E76.57746
G1 X76.441 Y33.001 E76.83904
G1 X78.843 Y33.959 E77.11427
G1 X81.136 Y34.8 E77.37422
G1 X83.527 Y35.599 E77.64253
G1 X85.943 Y36.333 E77.91127
G1 X88.381 Y36.998 E78.18024
G1 X90.777 Y37.58 E78.44266
G1 X93.303 Y38.117 E78.71752
G1 X95.716 Y38.56 E78.97863
G1 X98.193 Y38.943 E79.2454
G1 X100.745 Y39.264 E79.51916
G1 X103.165 Y39.499 E79.77793
G1 X105.722 Y39.675 E80.05073
G1 X108.227 Y39.775 E80.31755
G1 X110.703 Y39.805 E80.5811
G1 X113.255 Y39.762 E80.85275
G1 X115.761 Y39.651 E81.11973
G1 X118.235 Y39.47 E81.38375
G1 X120.774 Y39.212 E81.65537
G1 X123.247 Y38.89 E81.9208
G1 X125.7 Y38.5 E82.18516
G1 X128.179 Y38.033 E82.45365
G1 X130.65 Y37.494 E82.72283
G1 X133.077 Y36.895 E82.98889
G1 X135.487 Y36.224 E83.25515
G1 X137.927 Y35.473 E83.52687
G1 X140.267 Y34.678 E83.7899
G1 X142.63 Y33.8 E84.0582
G1 X144.962 Y32.857 E84.32592
G1 X147.282 Y31.841 E84.59549
G1 X149.53 Y30.782 E84.85997
G1 X151.786 Y29.638 E85.12918
G1 X153.991 Y28.441 E85.39622
G1 X156.278 Y27.115 E85.67758
G1 X156.882 Y26.754 E85.75248
G1 X157.703 Y26.309 E85.85187
G1 X158.721 Y25.816 E85.97225
G1 X160.347 Y25.069 E86.1627
G1 X161.248 Y24.704 E86.26617
G1 X161.931 Y24.485 E86.3425
G1 X162.758 Y24.25 E86.43401
G1 X163.957 Y23.928 E86.56614
G1 X164.814 Y23.712 E86.66021
G1 X165.707 Y23.528 E86.75725
G1 X166.349 Y23.441 E86.8262
G1 X167.42 Y23.33 E86.9408
G1 X168.451 Y23.24 E87.05095
G1 X169.344 Y23.175 E87.14625
G1 X170.255 Y23.149 E87.24325
G1 X170.903 Y23.175 E87.31227
G1 X172.043 Y23.258 E87.43392
G1 X173.803 Y23.423 E87.62207
G1 X174.768 Y23.558 E87.72577
