;FLAVOR:Marlin
;TIME:5235
;Filament used: 13.995m
;Layer height: 0.32
;MINX:68.313
;MINY:20.713
;MINZ:0.32
;MAXX:151.687
;MAXY:171.588
;MAXZ:44.96
;TARGET_MACHINE.NAME:Creality Ender-3 Pro
;Generated with Cura_SteamEngine 5.5.0
M82 ;absolute extrusion mode
; Ender 3 Custom Start G-code
G92 E0 ; Reset Extruder
G28 ; Home all axes
G1 Z5.0 F3000 ; Move Z Axis up a bit during heating to not damage bed
M104 S120 ; Start heating up the nozzle most of the way
M190 S70 ; Start heating the bed, wait until target temperature reached
M109 S220 ; Finish heating the nozzle
G1 Z2.0 F3000 ; Move Z Axis up little to prevent scratching of Heat Bed
G1 X0.1 Y20 Z0.3 F5000.0 ; Move to start position
G1 X0.1 Y200.0 Z0.3 F1500.0 E15 ; Draw the first line
G1 X0.4 Y200.0 Z0.3 F5000.0 ; Move to side a little
G1 X0.4 Y20 Z0.3 F1500.0 E30 ; Draw the second line
G92 E0 ; Reset Extruder
G1 Z2.0 F3000 ; Move Z Axis up little to prevent scratching of Heat Bed
G1 X5 Y20 Z0.3 F5000.0 ; Move over to prevent blob squish
G92 E0
G92 E0
G1 F1500 E-6.5
;LAYER_COUNT:139
;LAYER:0
M107
G1 F300 Z1.12
G0 F6000 X71.519 Y34.972 Z1.12
;TYPE:SKIRT
G1 F300 Z0.32
G1 F1500 E0
G1 F900 X72.026 Y34.038 E0.11311
G1 X72.354 Y33.523 E0.1781
G1 X72.983 Y32.598 E0.29715
G1 X74.031 Y31.119 E0.49008
G1 X74.652 Y30.321 E0.5977
G1 X75.189 Y29.728 E0.68284
G1 X75.922 Y28.974 E0.79477
G1 X77.2 Y27.709 E0.98615
G1 X77.975 Y27.008 E1.09737
G1 X78.599 Y26.522 E1.18155
G1 X79.543 Y25.842 E1.30538
G1 X81.025 Y24.82 E1.49698
G1 X81.902 Y24.274 E1.60693
G1 X82.534 Y23.942 E1.68292
G1 X83.488 Y23.48 E1.79573
G1 X84.447 Y23.032 E1.90839
G1 X85.238 Y22.676 E2.00071
G1 X86.207 Y22.292 E2.11165
G1 X86.861 Y22.085 E2.18466
G1 X87.766 Y21.826 E2.28485
G1 X89.626 Y21.336 E2.48956
G1 X90.709 Y21.105 E2.60742
G1 X91.432 Y21.007 E2.68508
G1 X92.271 Y20.921 E2.77484
G1 X94.346 Y20.749 E2.99645
G1 X95.381 Y20.713 E3.10667
G1 X96.114 Y20.741 E3.18474
G1 X97.207 Y20.82 E3.30138
G1 X98.447 Y20.931 E3.43388
G1 X100.173 Y21.107 E3.61854
G1 X101.065 Y21.211 E3.71412
G1 X103.471 Y21.423 E3.97119
G1 X106.002 Y21.573 E4.24104
G1 X108.501 Y21.651 E4.50714
G1 X110.94 Y21.659 E4.76673
G1 X113.473 Y21.594 E5.03641
G1 X115.974 Y21.46 E5.30298
G1 X118.353 Y21.265 E5.55704
G1 X119.116 Y21.177 E5.63878
G1 X119.406 Y21.155 E5.66974
G1 X121.669 Y20.921 E5.91188
G1 X123.746 Y20.749 E6.13369
G1 X124.781 Y20.713 E6.24392
G1 X125.514 Y20.741 E6.32199
G1 X126.666 Y20.824 E6.44492
G1 X128.397 Y20.986 E6.62996
G1 X129.49 Y21.141 E6.74745
G1 X130.201 Y21.296 E6.8249
G1 X131.278 Y21.569 E6.94316
G1 X133.002 Y22.041 E7.1334
G1 X134.021 Y22.371 E7.2474
G1 X134.692 Y22.646 E7.32458
G1 X135.482 Y23.001 E7.41676
G1 X136.786 Y23.608 E7.56985
G1 X137.428 Y23.919 E7.64577
G1 X138.362 Y24.426 E7.75888
G1 X138.877 Y24.754 E7.82387
G1 X139.802 Y25.383 E7.94292
G1 X141.281 Y26.431 E8.13585
G1 X142.079 Y27.052 E8.24347
G1 X142.672 Y27.589 E8.32862
G1 X143.426 Y28.322 E8.44054
G1 X144.691 Y29.6 E8.63192
G1 X145.392 Y30.375 E8.74315
G1 X145.878 Y30.999 E8.82733
G1 X146.558 Y31.943 E8.95115
G1 X147.58 Y33.425 E9.14275
G1 X148.126 Y34.302 E9.25271
G1 X148.458 Y34.934 E9.32869
G1 X148.92 Y35.888 E9.44151
G1 X149.368 Y36.847 E9.55416
G1 X149.724 Y37.638 E9.64648
G1 X150.108 Y38.607 E9.75742
G1 X150.315 Y39.261 E9.83043
G1 X150.574 Y40.166 E9.93062
G1 X151.064 Y42.026 E10.13534
G1 X151.295 Y43.109 E10.2532
G1 X151.393 Y43.832 E10.33085
G1 X151.479 Y44.67 E10.42051
G1 X151.649 Y46.706 E10.63796
G1 X151.687 Y47.778 E10.75213
G1 X151.659 Y48.509 E10.82999
G1 X151.576 Y49.666 E10.95344
G1 X151.414 Y51.397 E11.13848
G1 X151.259 Y52.489 E11.25587
G1 X151.105 Y53.196 E11.33289
G1 X150.846 Y54.226 E11.44592
G1 X150.571 Y55.252 E11.55898
G1 X150.332 Y56.096 E11.65234
G1 X150.001 Y57.096 E11.76445
G1 X149.391 Y58.696 E11.9467
G1 X148.528 Y61.094 E12.21795
G1 X147.762 Y63.428 E12.4794
G1 X147.046 Y65.836 E12.74678
G1 X146.398 Y68.268 E13.01465
G1 X145.838 Y70.633 E13.27332
G1 X145.33 Y73.096 E13.54099
G1 X144.893 Y75.56 E13.80733
G1 X144.524 Y78.035 E14.07366
G1 X144.238 Y80.439 E14.33133
G1 X144.008 Y82.962 E14.60097
G1 X143.854 Y85.423 E14.86341
G1 X143.767 Y87.944 E15.13189
G1 X143.752 Y90.41 E15.39436
G1 X143.807 Y92.889 E15.65827
G1 X143.932 Y95.36 E15.9216
G1 X144.13 Y97.885 E16.19116
G1 X144.394 Y100.325 E16.45237
G1 X144.737 Y102.839 E16.72242
G1 X145.13 Y105.228 E16.98011
G1 X145.614 Y107.714 E17.24967
G1 X146.148 Y110.102 E17.51011
G1 X146.751 Y112.484 E17.77163
G1 X147.457 Y114.969 E18.04658
G1 X148.186 Y117.287 E18.3052
G1 X149.017 Y119.687 E18.57552
G1 X149.999 Y122.294 E18.87202
G1 X150.292 Y123.171 E18.97043
G1 X150.564 Y124.123 E19.07581
G1 X151.067 Y126.037 E19.28644
G1 X151.297 Y127.118 E19.40407
G1 X151.394 Y127.837 E19.48128
G1 X151.499 Y128.875 E19.59233
G1 X151.65 Y130.711 E19.7884
G1 X151.687 Y131.779 E19.90213
G1 X151.66 Y132.505 E19.97946
G1 X151.584 Y133.56 E20.09203
G1 X151.467 Y134.879 E20.23297
G1 X151.402 Y135.508 E20.30027
G1 X151.238 Y136.591 E20.41685
G1 X151.102 Y137.203 E20.48358
G1 X150.839 Y138.243 E20.59775
G1 X150.364 Y139.983 E20.78972
G1 X150.034 Y141 E20.90352
G1 X149.762 Y141.666 E20.98009
G1 X149.282 Y142.732 E21.10451
G1 X148.513 Y144.356 E21.29576
G1 X148.057 Y145.217 E21.39946
G1 X147.634 Y145.89 E21.48406
G1 X147.123 Y146.644 E21.581
G1 X145.947 Y148.305 E21.79761
G1 X145.348 Y149.074 E21.90136
G1 X144.816 Y149.661 E21.98567
G1 X144.059 Y150.442 E22.10144
G1 X142.796 Y151.692 E22.29056
G1 X142.068 Y152.352 E22.39515
G1 X141.406 Y152.871 E22.48468
G1 X140.708 Y153.378 E22.5765
G1 X139.627 Y154.137 E22.71708
G1 X138.953 Y154.595 E22.80381
G1 X138.014 Y155.17 E22.921
G1 X137.477 Y155.448 E22.98536
G1 X136.536 Y155.906 E23.09674
G1 X135.555 Y156.364 E23.21197
G1 X134.758 Y156.722 E23.30496
G1 X133.789 Y157.106 E23.4159
G1 X133.141 Y157.311 E23.48824
G1 X132.237 Y157.57 E23.58832
G1 X130.374 Y158.061 E23.79338
G1 X129.291 Y158.292 E23.91124
G1 X128.568 Y158.39 E23.98889
G1 X127.729 Y158.476 E24.07866
G1 X125.654 Y158.648 E24.30026
G1 X124.619 Y158.684 E24.41048
G1 X123.888 Y158.656 E24.48834
G1 X122.826 Y158.58 E24.60166
G1 X119.426 Y158.288 E24.96487
G1 X116.915 Y158.141 E25.23258
G1 X114.425 Y158.066 E25.49771
G1 X111.953 Y158.06 E25.76081
G1 X109.481 Y158.126 E26.02401
G1 X106.937 Y158.265 E26.29518
G1 X104.545 Y158.464 E26.55064
G1 X103.836 Y158.544 E26.62658
G1 X101.331 Y158.798 E26.89456
G1 X99.254 Y158.97 E27.11638
G1 X98.219 Y159.006 E27.2266
G1 X97.486 Y158.978 E27.30468
G1 X96.334 Y158.895 E27.4276
G1 X94.603 Y158.733 E27.61264
G1 X93.512 Y158.578 E27.72993
G1 X92.802 Y158.424 E27.80725
G1 X91.715 Y158.149 E27.92659
G1 X89.995 Y157.678 E28.11639
G1 X89.034 Y157.367 E28.2239
G1 X88.285 Y157.062 E28.30997
G1 X87.518 Y156.718 E28.39944
G1 X86.214 Y156.111 E28.55253
G1 X85.572 Y155.8 E28.62845
G1 X84.638 Y155.293 E28.74156
G1 X84.123 Y154.965 E28.80655
G1 X83.198 Y154.336 E28.9256
G1 X81.719 Y153.288 E29.11853
G1 X80.921 Y152.667 E29.22615
G1 X80.328 Y152.13 E29.31129
G1 X79.574 Y151.397 E29.42322
G1 X78.309 Y150.119 E29.6146
G1 X77.608 Y149.344 E29.72582
G1 X77.122 Y148.72 E29.81001
G1 X76.442 Y147.776 E29.93383
G1 X75.42 Y146.294 E30.12543
G1 X74.874 Y145.417 E30.23539
G1 X74.541 Y144.783 E30.3116
G1 X74.07 Y143.811 E30.42656
G1 X73.631 Y142.871 E30.53698
G1 X73.276 Y142.081 E30.62916
G1 X72.892 Y141.112 E30.7401
G1 X72.685 Y140.458 E30.81311
G1 X72.426 Y139.553 E30.9133
G1 X71.936 Y137.693 E31.11802
G1 X71.705 Y136.61 E31.23588
G1 X71.607 Y135.887 E31.31353
G1 X71.521 Y135.049 E31.40319
G1 X71.351 Y133.013 E31.62064
G1 X71.313 Y131.941 E31.73481
G1 X71.341 Y131.21 E31.81267
G1 X71.424 Y130.053 E31.93612
G1 X71.586 Y128.322 E32.12116
G1 X71.741 Y127.229 E32.23866
G1 X71.897 Y126.513 E32.31665
G1 X72.157 Y125.485 E32.42951
G1 X72.428 Y124.471 E32.54122
G1 X72.678 Y123.591 E32.63859
G1 X72.873 Y122.972 E32.70766
G1 X73.063 Y122.422 E32.76959
G1 X73.86 Y120 E33.04097
G1 X74.591 Y117.55 E33.31309
G1 X75.221 Y115.203 E33.57173
G1 X75.814 Y112.708 E33.84467
G1 X76.299 Y110.371 E34.09871
G1 X76.751 Y107.843 E34.37204
G1 X77.114 Y105.424 E34.63238
G1 X77.409 Y102.975 E34.89492
G1 X77.644 Y100.442 E35.16567
G1 X77.804 Y97.953 E35.43112
G1 X77.889 Y95.543 E35.68779
G1 X77.908 Y92.996 E35.95888
G1 X77.853 Y90.479 E36.22683
G1 X77.735 Y88.088 E36.48162
G1 X77.539 Y85.54 E36.75361
G1 X77.279 Y83.108 E37.01393
G1 X76.941 Y80.599 E37.28338
G1 X76.544 Y78.165 E37.54586
G1 X76.069 Y75.711 E37.81189
G1 X75.542 Y73.333 E38.07113
G1 X74.919 Y70.867 E38.34184
G1 X74.239 Y68.468 E38.60723
G1 X73.501 Y66.11 E38.8702
G1 X72.698 Y63.781 E39.1324
G1 X71.798 Y61.393 E39.40402
G1 X70.87 Y59.126 E39.66473
G1 X70.237 Y57.681 E39.83264
G1 X69.846 Y56.664 E39.9486
G1 X69.685 Y56.148 E40.00613
G1 X69.424 Y55.228 E40.10791
G1 X68.936 Y53.374 E40.31196
G1 X68.705 Y52.291 E40.42982
G1 X68.607 Y51.568 E40.50747
G1 X68.521 Y50.73 E40.59713
G1 X68.351 Y48.694 E40.81458
G1 X68.313 Y47.622 E40.92875
G1 X68.341 Y46.891 E41.00661
G1 X68.424 Y45.734 E41.13007
G1 X68.586 Y44.003 E41.31511
G1 X68.741 Y42.911 E41.4325
G1 X68.895 Y42.206 E41.5093
G1 X69.114 Y41.332 E41.6052
G1 X69.652 Y39.361 E41.82265
G1 X69.931 Y38.492 E41.91979
G1 X70.255 Y37.689 E42.01195
G1 X70.662 Y36.785 E42.11747
G1 X71.208 Y35.614 E42.25498
G1 X71.519 Y34.972 E42.33091
G0 F6000 X72.239 Y35.321
G1 F900 X72.701 Y34.468 E42.43416
G1 X73.029 Y33.953 E42.49914
G1 X73.636 Y33.061 E42.61398
G1 X74.684 Y31.582 E42.8069
G1 X75.283 Y30.813 E42.91065
G1 X75.763 Y30.286 E42.98652
G1 X76.485 Y29.543 E43.09678
G1 X77.763 Y28.278 E43.28817
G1 X78.511 Y27.602 E43.39547
G1 X79.067 Y27.171 E43.47035
G1 X79.997 Y26.5 E43.5924
G1 X81.449 Y25.498 E43.78017
G1 X82.274 Y24.982 E43.88374
G1 X82.883 Y24.662 E43.95696
G1 X83.826 Y24.205 E44.06849
G1 X84.775 Y23.762 E44.17996
G1 X85.566 Y23.406 E44.27228
G1 X86.501 Y23.036 E44.3793
G1 X87.081 Y22.854 E44.444
G1 X87.97 Y22.6 E44.5424
G1 X89.83 Y22.11 E44.74712
G1 X90.817 Y21.898 E44.85457
G1 X91.514 Y21.803 E44.92944
G1 X92.337 Y21.718 E45.0175
G1 X94.376 Y21.548 E45.23526
G1 X95.35 Y21.512 E45.339
G1 X96.056 Y21.539 E45.4142
G1 X97.136 Y21.617 E45.52944
G1 X98.366 Y21.727 E45.66088
G1 X100.08 Y21.902 E45.84425
G1 X100.971 Y22.006 E45.93973
G1 X103.424 Y22.222 E46.20182
G1 X105.966 Y22.373 E46.47284
G1 X108.476 Y22.451 E46.74012
G1 X110.957 Y22.459 E47.00418
G1 X113.501 Y22.394 E47.27503
G1 X116.017 Y22.259 E47.5432
G1 X118.446 Y22.06 E47.80259
G1 X119.176 Y21.975 E47.88081
G1 X119.48 Y21.952 E47.91326
G1 X121.735 Y21.718 E48.15455
G1 X123.776 Y21.548 E48.37253
G1 X124.75 Y21.512 E48.47627
G1 X125.456 Y21.539 E48.55147
G1 X126.591 Y21.621 E48.67258
G1 X128.322 Y21.783 E48.85762
G1 X129.32 Y21.923 E48.96488
G1 X130.005 Y22.072 E49.03949
G1 X131.067 Y22.341 E49.15609
G1 X132.791 Y22.813 E49.34633
G1 X133.718 Y23.112 E49.45
G1 X134.364 Y23.376 E49.52428
G1 X135.144 Y23.726 E49.61527
G1 X136.437 Y24.328 E49.76707
G1 X137.079 Y24.639 E49.843
G1 X137.932 Y25.101 E49.94624
G1 X138.447 Y25.429 E50.01123
G1 X139.339 Y26.036 E50.12606
G1 X140.818 Y27.084 E50.31899
G1 X141.587 Y27.683 E50.42274
G1 X142.114 Y28.163 E50.4986
G1 X142.857 Y28.885 E50.60887
G1 X144.122 Y30.163 E50.80026
G1 X144.798 Y30.911 E50.90756
G1 X145.229 Y31.467 E50.98244
G1 X145.9 Y32.397 E51.10449
G1 X146.902 Y33.849 E51.29226
G1 X147.418 Y34.674 E51.39583
G1 X147.738 Y35.283 E51.46905
G1 X148.195 Y36.226 E51.58058
G1 X148.638 Y37.175 E51.69204
G1 X148.994 Y37.966 E51.78437
G1 X149.364 Y38.901 E51.89139
G1 X149.546 Y39.481 E51.95609
G1 X149.8 Y40.37 E52.05449
G1 X150.29 Y42.23 E52.25921
G1 X150.502 Y43.217 E52.36666
G1 X150.597 Y43.914 E52.44152
G1 X150.682 Y44.737 E52.52958
G1 X150.852 Y46.773 E52.74703
G1 X150.888 Y47.747 E52.85077
G1 X150.861 Y48.452 E52.92586
G1 X150.779 Y49.591 E53.0474
G1 X150.617 Y51.322 E53.23244
G1 X150.477 Y52.319 E53.33959
G1 X150.329 Y53.001 E53.41387
G1 X150.073 Y54.019 E53.52559
G1 X149.801 Y55.034 E53.63743
G1 X149.562 Y55.878 E53.73079
G1 X149.253 Y56.811 E53.8354
G1 X148.643 Y58.411 E54.01765
G1 X147.775 Y60.823 E54.29048
G1 X146.995 Y63.2 E54.55674
G1 X146.279 Y65.608 E54.82412
G1 X145.625 Y68.062 E55.09442
G1 X145.054 Y70.471 E55.35792
G1 X144.546 Y72.934 E55.62558
G1 X144.105 Y75.42 E55.89431
G1 X143.733 Y77.917 E56.163
G1 X143.441 Y80.366 E56.4255
G1 X143.211 Y82.889 E56.69514
G1 X143.054 Y85.395 E56.96239
G1 X142.967 Y87.916 E57.23086
G1 X142.952 Y90.428 E57.49822
G1 X143.007 Y92.911 E57.76256
G1 X143.134 Y95.423 E58.03026
G1 X143.333 Y97.948 E58.29984
G1 X143.601 Y100.433 E58.56585
G1 X143.944 Y102.947 E58.8359
G1 X144.345 Y105.381 E59.09845
G1 X144.833 Y107.889 E59.37039
G1 X145.372 Y110.298 E59.63313
G1 X145.981 Y112.703 E59.89718
G1 X146.687 Y115.188 E60.17213
G1 X147.43 Y117.549 E60.43556
G1 X148.268 Y119.969 E60.70814
G1 X149.24 Y122.548 E61.00147
G1 X149.533 Y123.425 E61.09989
G1 X149.79 Y124.326 E61.19961
G1 X150.293 Y126.24 E61.41023
G1 X150.504 Y127.226 E61.51755
G1 X150.598 Y127.918 E61.59188
G1 X150.702 Y128.941 E61.70132
G1 X150.853 Y130.777 E61.89739
G1 X150.888 Y131.749 E62.00091
G1 X150.862 Y132.448 E62.07536
G1 X150.787 Y133.489 E62.18644
G1 X150.671 Y134.797 E62.3262
G1 X150.606 Y135.426 E62.3935
G1 X150.457 Y136.418 E62.50027
G1 X150.327 Y137.006 E62.56436
G1 X150.067 Y138.032 E62.67701
G1 X149.592 Y139.772 E62.86898
G1 X149.293 Y140.698 E62.97255
G1 X149.021 Y141.364 E63.04912
G1 X148.559 Y142.39 E63.16888
G1 X147.806 Y143.982 E63.35632
G1 X147.35 Y144.843 E63.46001
G1 X146.972 Y145.441 E63.53531
G1 X146.47 Y146.182 E63.63057
G1 X145.316 Y147.813 E63.84322
G1 X144.717 Y148.582 E63.94696
G1 X144.242 Y149.104 E64.02208
G1 X143.496 Y149.873 E64.13611
G1 X142.233 Y151.123 E64.32524
G1 X141.531 Y151.759 E64.42606
G1 X140.936 Y152.224 E64.50643
G1 X140.249 Y152.723 E64.5968
G1 X139.177 Y153.475 E64.73617
G1 X138.503 Y153.933 E64.8229
G1 X137.646 Y154.46 E64.92998
G1 X137.127 Y154.729 E64.9922
G1 X136.198 Y155.181 E65.10216
G1 X135.227 Y155.634 E65.2162
G1 X134.43 Y155.992 E65.30919
G1 X133.495 Y156.362 E65.41621
G1 X132.921 Y156.542 E65.48024
G1 X132.033 Y156.796 E65.57854
G1 X130.17 Y157.287 E65.78359
G1 X129.183 Y157.499 E65.89104
G1 X128.486 Y157.594 E65.96591
G1 X127.663 Y157.679 E66.05397
G1 X125.624 Y157.849 E66.27174
G1 X124.65 Y157.885 E66.37547
G1 X123.945 Y157.858 E66.45056
G1 X122.894 Y157.783 E66.56271
G1 X119.473 Y157.489 E66.92815
G1 X116.951 Y157.341 E67.19704
G1 X114.449 Y157.266 E67.46345
G1 X111.934 Y157.26 E67.73113
G1 X109.451 Y157.326 E67.99549
G1 X106.893 Y157.466 E68.26816
G1 X104.454 Y157.669 E68.52864
G1 X103.78 Y157.746 E68.60084
G1 X103.579 Y157.76 E68.62229
G1 X101.265 Y158.001 E68.86991
G1 X99.224 Y158.171 E69.08789
G1 X98.25 Y158.207 E69.19162
G1 X97.544 Y158.18 E69.26682
G1 X96.409 Y158.098 E69.38794
G1 X94.678 Y157.936 E69.57297
G1 X93.681 Y157.796 E69.68013
G1 X92.998 Y157.648 E69.75451
G1 X91.926 Y157.377 E69.87219
G1 X90.206 Y156.906 E70.062
G1 X89.281 Y156.606 E70.1655
G1 X88.612 Y156.332 E70.24244
G1 X87.856 Y155.993 E70.33062
G1 X86.563 Y155.391 E70.48242
G1 X85.921 Y155.08 E70.55835
G1 X85.068 Y154.618 E70.6616
G1 X84.553 Y154.29 E70.72658
G1 X83.661 Y153.683 E70.84142
G1 X82.182 Y152.635 E71.03434
G1 X81.413 Y152.036 E71.13809
G1 X80.886 Y151.556 E71.21396
G1 X80.143 Y150.834 E71.32422
G1 X78.878 Y149.556 E71.51561
G1 X78.202 Y148.808 E71.62292
G1 X77.771 Y148.252 E71.69779
G1 X77.1 Y147.322 E71.81985
G1 X76.098 Y145.87 E72.00761
G1 X75.582 Y145.045 E72.11118
G1 X75.261 Y144.434 E72.18464
G1 X74.795 Y143.473 E72.29831
G1 X74.361 Y142.543 E72.40754
G1 X74.006 Y141.753 E72.49972
G1 X73.636 Y140.818 E72.60674
G1 X73.454 Y140.238 E72.67144
G1 X73.2 Y139.349 E72.76985
G1 X72.71 Y137.489 E72.97456
G1 X72.498 Y136.502 E73.08201
G1 X72.403 Y135.805 E73.15688
G1 X72.318 Y134.982 E73.24494
G1 X72.148 Y132.946 E73.46239
G1 X72.112 Y131.972 E73.56612
G1 X72.139 Y131.267 E73.64121
G1 X72.221 Y130.128 E73.76275
G1 X72.383 Y128.397 E73.94779
G1 X72.523 Y127.399 E74.05505
G1 X72.673 Y126.709 E74.13021
G1 X72.93 Y125.692 E74.24185
G1 X73.198 Y124.69 E74.35225
G1 X73.448 Y123.81 E74.44961
G1 X73.629 Y123.233 E74.51397
G1 X73.819 Y122.683 E74.57591
G1 X74.627 Y120.229 E74.85089
