;FLAVOR:Marlin
;TIME:5223
;Filament used: 14.0047m
;Layer height: 0.32
;MINX:68.313
;MINY:48.412
;MINZ:0.32
;MAXX:151.687
;MAXY:199.287
;MAXZ:44.96
;TARGET_MACHINE.NAME:Creality Ender-3 Pro
;Generated with Cura_SteamEngine 5.5.0
M82 ;absolute extrusion mode
; Ender 3 Custom Start G-code
G92 E0 ; Reset Extruder
G28 ; Home all axes
G1 Z5.0 F3000 ; Move Z Axis up a bit during heating to not damage bed
M104 S120 ; Start heating up the nozzle most of the way
M190 S70 ; Start heating the bed, wait until target temperature reached
M109 S220 ; Finish heating the nozzle
G1 Z2.0 F3000 ; Move Z Axis up little to prevent scratching of Heat Bed
G1 X0.1 Y20 Z0.3 F5000.0 ; Move to start position
G1 X0.1 Y200.0 Z0.3 F1500.0 E15 ; Draw the first line
G1 X0.4 Y200.0 Z0.3 F5000.0 ; Move to side a little
G1 X0.4 Y20 Z0.3 F1500.0 E30 ; Draw the second line
G92 E0 ; Reset Extruder
G1 Z2.0 F3000 ; Move Z Axis up little to prevent scratching of Heat Bed
G1 X5 Y20 Z0.3 F5000.0 ; Move over to prevent blob squish
G92 E0
G92 E0
G1 F1500 E-6.5
;LAYER_COUNT:139
;LAYER:0
M107
G1 F300 Z1.12
G0 F6000 X75.187 Y69.562 Z1.12
;TYPE:SKIRT
G1 F300 Z0.32
G1 F1500 E0
G1 F900 X75.879 Y68.849 E0.10575
G1 X76.725 Y68.004 E0.23301
G1 X77.336 Y67.412 E0.32356
G1 X78.103 Y66.735 E0.43245
G1 X78.599 Y66.354 E0.49901
G1 X79.543 Y65.674 E0.62284
G1 X81.025 Y64.652 E0.81444
G1 X81.902 Y64.106 E0.92439
G1 X82.534 Y63.774 E1.00038
G1 X83.488 Y63.312 E1.11319
G1 X84.447 Y62.864 E1.22585
G1 X85.238 Y62.508 E1.31817
G1 X86.207 Y62.124 E1.42911
G1 X86.861 Y61.917 E1.50212
G1 X87.766 Y61.658 E1.60231
G1 X89.626 Y61.168 E1.80702
G1 X90.709 Y60.937 E1.92488
G1 X91.432 Y60.839 E2.00254
G1 X92.271 Y60.753 E2.0923
G1 X94.346 Y60.581 E2.31391
G1 X95.381 Y60.545 E2.42413
G1 X96.114 Y60.573 E2.5022
G1 X97.264 Y60.657 E2.62493
G1 X99.103 Y60.832 E2.82154
G1 X100.43 Y61.04 E2.9645
G1 X101.087 Y61.182 E3.03604
G1 X103.624 Y61.698 E3.31159
G1 X106.088 Y62.125 E3.57775
G1 X108.515 Y62.477 E3.83876
G1 X111.057 Y62.773 E4.11114
G1 X113.464 Y62.983 E4.3683
G1 X115.975 Y63.13 E4.63601
G1 X118.486 Y63.208 E4.90339
G1 X120.926 Y63.215 E5.16308
G1 X124.299 Y63.115 E5.52224
G1 X125.502 Y63.14 E5.6503
G1 X126.666 Y63.224 E5.77451
G1 X128.397 Y63.386 E5.95955
G1 X129.488 Y63.541 E6.07684
G1 X130.198 Y63.695 E6.15416
G1 X131.285 Y63.97 E6.2735
G1 X133.005 Y64.441 E6.4633
G1 X133.966 Y64.752 E6.5708
G1 X134.719 Y65.059 E6.65735
G1 X135.676 Y65.491 E6.76911
G1 X137.358 Y66.286 E6.96711
G1 X138.165 Y66.711 E7.06419
G1 X138.897 Y67.168 E7.15603
G1 X139.802 Y67.783 E7.27249
G1 X141.281 Y68.831 E7.46542
G1 X142.079 Y69.452 E7.57304
G1 X142.672 Y69.989 E7.65818
G1 X143.426 Y70.722 E7.77011
G1 X144.691 Y72 E7.96149
G1 X145.392 Y72.775 E8.07271
G1 X145.878 Y73.399 E8.15689
G1 X146.558 Y74.343 E8.28072
G1 X147.58 Y75.825 E8.47232
G1 X148.126 Y76.702 E8.58227
G1 X148.458 Y77.334 E8.65826
G1 X148.92 Y78.288 E8.77107
G1 X149.368 Y79.247 E8.88373
G1 X149.724 Y80.038 E8.97605
G1 X150.108 Y81.007 E9.08699
G1 X150.315 Y81.661 E9.16
G1 X150.574 Y82.566 E9.26019
G1 X151.064 Y84.426 E9.4649
G1 X151.295 Y85.509 E9.58276
G1 X151.393 Y86.232 E9.66042
G1 X151.479 Y87.07 E9.75008
G1 X151.649 Y89.106 E9.96753
G1 X151.687 Y90.178 E10.08169
G1 X151.659 Y90.909 E10.15955
G1 X151.576 Y92.066 E10.28301
G1 X151.414 Y93.797 E10.46805
G1 X151.259 Y94.889 E10.58544
G1 X151.105 Y95.596 E10.66245
G1 X150.846 Y96.626 E10.77549
G1 X150.571 Y97.653 E10.88865
G1 X150.323 Y98.526 E10.98524
G1 X150.027 Y99.424 E11.08587
G1 X149.787 Y100.058 E11.15803
G1 X148.921 Y102.457 E11.42948
G1 X148.136 Y104.842 E11.69672
G1 X147.426 Y107.218 E11.96065
G1 X146.771 Y109.666 E12.23037
G1 X146.201 Y112.058 E12.49208
G1 X145.682 Y114.559 E12.76394
G1 X145.26 Y116.917 E13.01889
G1 X144.887 Y119.41 E13.28718
G1 X144.594 Y121.85 E13.54874
G1 X144.361 Y124.365 E13.81757
G1 X144.199 Y126.887 E14.08654
G1 X144.115 Y129.273 E14.34065
G1 X144.096 Y131.832 E14.61302
G1 X144.151 Y134.344 E14.88044
G1 X144.27 Y136.765 E15.13842
G1 X144.462 Y139.259 E15.40465
G1 X144.726 Y141.721 E15.66819
G1 X145.064 Y144.233 E15.93796
G1 X145.457 Y146.633 E16.1968
G1 X145.936 Y149.11 E16.46532
G1 X146.466 Y151.494 E16.72525
G1 X147.077 Y153.92 E16.99151
G1 X147.771 Y156.371 E17.26264
G1 X148.502 Y158.708 E17.52325
G1 X149.316 Y161.067 E17.78885
G1 X150.022 Y162.959 E18.00379
G1 X150.313 Y163.851 E18.10365
G1 X150.631 Y164.978 E18.22828
G1 X151.072 Y166.662 E18.41356
G1 X151.295 Y167.709 E18.52749
G1 X151.393 Y168.432 E18.60515
G1 X151.479 Y169.27 E18.6948
G1 X151.649 Y171.306 E18.91225
G1 X151.687 Y172.378 E19.02642
G1 X151.659 Y173.109 E19.10428
G1 X151.576 Y174.266 E19.22774
G1 X151.414 Y175.997 E19.41278
G1 X151.259 Y177.089 E19.53017
G1 X151.105 Y177.794 E19.60697
G1 X150.886 Y178.668 E19.70287
G1 X150.348 Y180.639 E19.92032
G1 X150.069 Y181.508 E20.01746
G1 X149.745 Y182.311 E20.10962
G1 X149.338 Y183.215 E20.21514
G1 X148.792 Y184.386 E20.35265
G1 X148.481 Y185.028 E20.42858
G1 X147.974 Y185.962 E20.54169
G1 X147.646 Y186.477 E20.60667
G1 X147.017 Y187.402 E20.72573
G1 X145.969 Y188.881 E20.91866
G1 X145.348 Y189.679 E21.02628
G1 X144.811 Y190.272 E21.11142
G1 X144.078 Y191.026 E21.22334
G1 X142.8 Y192.291 E21.41473
G1 X142.025 Y192.992 E21.52595
G1 X141.401 Y193.478 E21.61013
G1 X140.457 Y194.158 E21.73396
G1 X138.975 Y195.18 E21.92556
G1 X138.098 Y195.726 E22.03551
G1 X137.466 Y196.058 E22.1115
G1 X136.511 Y196.521 E22.22445
G1 X135.554 Y196.967 E22.33683
G1 X134.692 Y197.352 E22.43731
G1 X133.789 Y197.709 E22.54065
G1 X133.141 Y197.914 E22.61299
G1 X132.237 Y198.173 E22.71308
G1 X130.374 Y198.664 E22.91813
G1 X129.291 Y198.895 E23.03599
G1 X128.568 Y198.993 E23.11365
G1 X127.729 Y199.079 E23.20341
G1 X125.654 Y199.251 E23.42502
G1 X124.619 Y199.287 E23.53524
G1 X123.886 Y199.259 E23.61331
G1 X122.793 Y199.18 E23.72995
G1 X121.553 Y199.069 E23.86245
G1 X119.827 Y198.893 E24.0471
G1 X118.937 Y198.789 E24.14247
G1 X116.529 Y198.577 E24.39975
G1 X113.998 Y198.427 E24.66961
G1 X111.499 Y198.349 E24.93571
G1 X109.06 Y198.341 E25.1953
G1 X106.527 Y198.406 E25.46498
G1 X104.026 Y198.54 E25.73155
G1 X101.647 Y198.735 E25.9856
G1 X100.884 Y198.823 E26.06735
G1 X100.594 Y198.845 E26.09831
G1 X98.331 Y199.079 E26.34045
G1 X96.254 Y199.251 E26.56226
G1 X95.219 Y199.287 E26.67249
G1 X94.486 Y199.259 E26.75056
G1 X93.334 Y199.176 E26.87349
G1 X91.603 Y199.014 E27.05853
G1 X90.51 Y198.859 E27.17602
G1 X89.799 Y198.704 E27.25347
G1 X88.713 Y198.429 E27.37271
G1 X86.962 Y197.949 E27.56594
G1 X86.094 Y197.67 E27.66298
G1 X85.285 Y197.343 E27.75585
G1 X84.518 Y196.999 E27.84532
G1 X83.214 Y196.392 E27.99841
G1 X82.572 Y196.081 E28.07434
G1 X81.638 Y195.574 E28.18744
G1 X81.123 Y195.246 E28.25243
G1 X80.198 Y194.617 E28.37149
G1 X78.719 Y193.569 E28.56441
G1 X77.921 Y192.948 E28.67203
G1 X77.328 Y192.411 E28.75718
G1 X76.574 Y191.678 E28.8691
G1 X75.309 Y190.4 E29.06049
G1 X74.608 Y189.625 E29.17171
G1 X74.122 Y189.001 E29.25589
G1 X73.442 Y188.057 E29.37971
G1 X72.42 Y186.575 E29.57132
G1 X71.874 Y185.698 E29.68127
G1 X71.541 Y185.064 E29.75749
G1 X71.07 Y184.092 E29.87245
G1 X70.631 Y183.152 E29.98287
G1 X70.276 Y182.362 E30.07505
G1 X69.892 Y181.393 E30.18598
G1 X69.685 Y180.739 E30.25899
G1 X69.426 Y179.834 E30.35918
G1 X68.936 Y177.974 E30.5639
G1 X68.705 Y176.891 E30.68176
G1 X68.607 Y176.168 E30.75941
G1 X68.521 Y175.33 E30.84907
G1 X68.351 Y173.294 E31.06652
G1 X68.313 Y172.222 E31.18069
G1 X68.341 Y171.491 E31.25855
G1 X68.424 Y170.334 E31.38201
G1 X68.586 Y168.603 E31.56705
G1 X68.741 Y167.511 E31.68444
G1 X68.895 Y166.804 E31.76145
G1 X69.154 Y165.774 E31.87449
G1 X69.429 Y164.747 E31.98764
G1 X69.691 Y163.828 E32.08935
G1 X69.974 Y162.973 E32.18521
G1 X70.319 Y162.058 E32.28929
G1 X70.773 Y160.901 E32.42157
G1 X71.62 Y158.548 E32.68774
G1 X72.394 Y156.194 E32.95147
G1 X73.095 Y153.838 E33.21309
G1 X73.744 Y151.405 E33.4811
G1 X74.32 Y148.975 E33.74689
G1 X74.813 Y146.587 E34.00642
G1 X75.262 Y144.069 E34.27864
G1 X75.622 Y141.654 E34.53851
G1 X75.914 Y139.217 E34.79975
G1 X76.148 Y136.659 E35.07314
G1 X76.298 Y134.271 E35.3278
G1 X76.388 Y131.707 E35.60086
G1 X76.404 Y129.26 E35.8613
G1 X76.348 Y126.715 E36.13224
G1 X76.227 Y124.301 E36.38949
G1 X76.029 Y121.77 E36.65969
G1 X75.768 Y119.343 E36.9195
G1 X75.424 Y116.802 E37.19241
G1 X75.024 Y114.376 E37.4541
G1 X74.558 Y111.976 E37.71431
G1 X74.018 Y109.558 E37.978
G1 X73.397 Y107.103 E38.24752
G1 X72.717 Y104.706 E38.51271
G1 X71.972 Y102.339 E38.77682
G1 X71.154 Y99.974 E39.04316
G1 X69.998 Y96.925 E39.39021
G1 X69.699 Y96.021 E39.49155
G1 X69.419 Y95.042 E39.59993
G1 X68.935 Y93.203 E39.80232
G1 X68.705 Y92.121 E39.92006
G1 X68.607 Y91.4 E39.9975
G1 X68.521 Y90.562 E40.08716
G1 X68.351 Y88.526 E40.30461
G1 X68.313 Y87.454 E40.41878
G1 X68.341 Y86.723 E40.49664
G1 X68.424 Y85.566 E40.6201
G1 X68.586 Y83.835 E40.80514
G1 X68.741 Y82.743 E40.92252
G1 X68.896 Y82.031 E41.00008
G1 X69.121 Y81.136 E41.0983
G1 X69.652 Y79.192 E41.31278
G1 X69.931 Y78.324 E41.40982
G1 X70.255 Y77.521 E41.50198
G1 X70.662 Y76.617 E41.6075
G1 X71.208 Y75.446 E41.74501
G1 X71.519 Y74.804 E41.82094
G1 X72.026 Y73.87 E41.93405
G1 X72.354 Y73.355 E41.99903
G1 X72.983 Y72.43 E42.11809
G1 X74.031 Y70.951 E42.31102
G1 X74.652 Y70.153 E42.41864
G1 X75.187 Y69.562 E42.50348
G0 F6000 X75.762 Y70.119
G1 F900 X76.444 Y69.415 E42.6078
G1 X77.282 Y68.578 E42.73386
G1 X77.866 Y68.011 E42.8205
G1 X78.591 Y67.369 E42.92356
G1 X79.067 Y67.003 E42.98747
G1 X79.997 Y66.332 E43.10953
G1 X81.449 Y65.33 E43.29729
G1 X82.274 Y64.814 E43.40086
G1 X82.883 Y64.494 E43.47408
G1 X83.826 Y64.037 E43.58561
G1 X84.775 Y63.594 E43.69708
G1 X85.566 Y63.238 E43.7894
G1 X86.501 Y62.868 E43.89642
G1 X87.081 Y62.686 E43.96112
G1 X87.97 Y62.432 E44.05953
G1 X89.83 Y61.942 E44.26424
G1 X90.817 Y61.73 E44.37169
G1 X91.514 Y61.635 E44.44656
G1 X92.337 Y61.55 E44.53462
G1 X94.376 Y61.38 E44.75239
G1 X95.35 Y61.344 E44.85612
G1 X96.056 Y61.371 E44.93132
G1 X97.189 Y61.453 E45.05222
G1 X98.98 Y61.622 E45.24369
G1 X100.261 Y61.822 E45.38168
G1 X100.918 Y61.964 E45.45322
G1 X103.471 Y62.483 E45.7305
G1 X105.973 Y62.917 E46.00077
G1 X108.415 Y63.271 E46.2634
G1 X110.964 Y63.568 E46.53653
G1 X113.417 Y63.782 E46.7986
G1 X115.94 Y63.93 E47.06759
G1 X118.461 Y64.008 E47.33603
G1 X120.948 Y64.015 E47.60073
G1 X124.323 Y63.915 E47.9601
G1 X125.444 Y63.938 E48.07944
G1 X126.591 Y64.021 E48.20183
G1 X128.322 Y64.183 E48.38687
G1 X129.319 Y64.323 E48.49403
G1 X130.002 Y64.471 E48.56841
G1 X131.074 Y64.742 E48.68609
G1 X132.794 Y65.213 E48.8759
G1 X133.719 Y65.513 E48.97939
G1 X134.39 Y65.788 E49.05658
G1 X135.334 Y66.214 E49.1668
G1 X136.985 Y66.994 E49.36115
G1 X137.792 Y67.419 E49.45822
G1 X138.447 Y67.829 E49.54047
G1 X139.339 Y68.436 E49.6553
G1 X140.818 Y69.484 E49.84823
G1 X141.587 Y70.083 E49.95197
G1 X142.114 Y70.563 E50.02784
G1 X142.857 Y71.285 E50.13811
G1 X144.122 Y72.563 E50.32949
G1 X144.798 Y73.311 E50.4368
G1 X145.229 Y73.867 E50.51167
G1 X145.9 Y74.797 E50.63373
G1 X146.902 Y76.249 E50.8215
G1 X147.418 Y77.074 E50.92506
G1 X147.738 Y77.683 E50.99828
G1 X148.195 Y78.626 E51.10981
G1 X148.638 Y79.575 E51.22128
G1 X148.994 Y80.366 E51.3136
G1 X149.364 Y81.301 E51.42063
G1 X149.546 Y81.881 E51.48532
G1 X149.8 Y82.77 E51.58373
G1 X150.29 Y84.63 E51.78845
G1 X150.502 Y85.617 E51.89589
G1 X150.597 Y86.314 E51.97076
G1 X150.682 Y87.137 E52.05882
G1 X150.852 Y89.173 E52.27627
G1 X150.888 Y90.147 E52.38001
G1 X150.861 Y90.852 E52.4551
G1 X150.779 Y91.991 E52.57664
G1 X150.617 Y93.722 E52.76168
G1 X150.477 Y94.719 E52.86883
G1 X150.329 Y95.401 E52.94311
G1 X150.073 Y96.419 E53.05483
G1 X149.801 Y97.434 E53.16667
G1 X149.553 Y98.307 E53.26326
G1 X149.278 Y99.142 E53.35683
G1 X149.039 Y99.776 E53.42894
G1 X148.161 Y102.207 E53.70404
G1 X147.369 Y104.613 E53.97363
G1 X146.659 Y106.989 E54.23756
G1 X145.998 Y109.459 E54.5097
G1 X145.423 Y111.873 E54.77382
G1 X144.899 Y114.396 E55.04808
G1 X144.469 Y116.799 E55.3079
G1 X144.096 Y119.292 E55.57619
G1 X143.797 Y121.776 E55.84247
G1 X143.564 Y124.291 E56.1113
G1 X143.401 Y126.836 E56.38272
G1 X143.315 Y129.267 E56.64162
G1 X143.296 Y131.826 E56.91399
G1 X143.351 Y134.364 E57.18418
G1 X143.472 Y136.827 E57.44664
G1 X143.665 Y139.321 E57.71287
G1 X143.933 Y141.828 E57.98122
G1 X144.271 Y144.34 E58.25099
G1 X144.672 Y146.785 E58.51469
G1 X145.155 Y149.284 E58.78559
G1 X145.69 Y151.689 E59.04782
G1 X146.307 Y154.138 E59.31661
G1 X147.001 Y156.589 E59.58774
G1 X147.746 Y158.969 E59.85317
G1 X148.566 Y161.347 E60.12089
G1 X149.272 Y163.239 E60.33582
G1 X149.543 Y164.068 E60.42865
G1 X149.857 Y165.181 E60.55173
G1 X150.298 Y166.865 E60.73701
G1 X150.502 Y167.817 E60.84063
G1 X150.597 Y168.514 E60.9155
G1 X150.682 Y169.337 E61.00356
G1 X150.852 Y171.373 E61.22101
G1 X150.888 Y172.347 E61.32475
G1 X150.861 Y173.052 E61.39984
G1 X150.779 Y174.191 E61.52138
G1 X150.617 Y175.922 E61.70642
G1 X150.477 Y176.919 E61.81357
G1 X150.329 Y177.6 E61.88774
G1 X150.114 Y178.458 E61.98188
G1 X149.586 Y180.394 E62.19546
G1 X149.307 Y181.263 E62.2926
G1 X149.015 Y181.983 E62.3753
G1 X148.613 Y182.877 E62.47962
G1 X148.072 Y184.037 E62.61585
G1 X147.761 Y184.679 E62.69178
G1 X147.299 Y185.532 E62.79503
G1 X146.971 Y186.047 E62.86001
G1 X146.364 Y186.939 E62.97485
G1 X145.316 Y188.418 E63.16777
G1 X144.717 Y189.187 E63.27152
G1 X144.237 Y189.714 E63.34739
G1 X143.515 Y190.457 E63.45765
G1 X142.237 Y191.722 E63.64904
G1 X141.489 Y192.398 E63.75634
G1 X140.933 Y192.829 E63.83122
G1 X140.003 Y193.5 E63.95327
G1 X138.551 Y194.502 E64.14104
G1 X137.726 Y195.018 E64.24461
G1 X137.117 Y195.338 E64.31783
G1 X136.173 Y195.796 E64.4295
G1 X135.227 Y196.237 E64.54059
G1 X134.398 Y196.608 E64.63725
G1 X133.495 Y196.965 E64.7406
G1 X132.921 Y197.145 E64.80463
G1 X132.033 Y197.399 E64.90293
G1 X130.17 Y197.89 E65.10798
G1 X129.183 Y198.102 E65.21543
G1 X128.486 Y198.197 E65.2903
G1 X127.663 Y198.282 E65.37836
G1 X125.624 Y198.452 E65.59613
G1 X124.65 Y198.488 E65.69986
G1 X123.944 Y198.461 E65.77506
G1 X122.864 Y198.383 E65.8903
G1 X121.634 Y198.273 E66.02174
G1 X119.92 Y198.098 E66.20511
G1 X119.03 Y197.994 E66.30048
G1 X116.576 Y197.778 E66.56268
G1 X114.034 Y197.627 E66.8337
G1 X111.524 Y197.549 E67.10098
G1 X109.043 Y197.541 E67.36504
G1 X106.499 Y197.606 E67.63589
G1 X103.983 Y197.741 E67.90406
G1 X101.554 Y197.94 E68.16345
G1 X100.824 Y198.025 E68.24167
G1 X100.52 Y198.048 E68.27412
G1 X98.265 Y198.282 E68.51541
G1 X96.224 Y198.452 E68.73339
G1 X95.25 Y198.488 E68.83713
G1 X94.544 Y198.461 E68.91233
G1 X93.409 Y198.379 E69.03344
G1 X91.678 Y198.217 E69.21848
G1 X90.68 Y198.077 E69.32574
G1 X89.995 Y197.928 E69.40035
G1 X88.924 Y197.657 E69.51793
G1 X87.207 Y197.187 E69.7074
G1 X86.339 Y196.908 E69.80444
G1 X85.612 Y196.613 E69.88794
G1 X84.856 Y196.274 E69.97613
G1 X83.563 Y195.672 E70.12793
G1 X82.921 Y195.361 E70.20385
G1 X82.068 Y194.899 E70.3071
G1 X81.553 Y194.571 E70.37209
G1 X80.661 Y193.964 E70.48692
G1 X79.182 Y192.916 E70.67985
G1 X78.413 Y192.317 E70.78359
G1 X77.886 Y191.837 E70.85946
G1 X77.143 Y191.115 E70.96973
G1 X75.878 Y189.837 E71.16111
G1 X75.202 Y189.089 E71.26842
G1 X74.771 Y188.533 E71.34329
G1 X74.1 Y187.603 E71.46535
G1 X73.098 Y186.151 E71.65312
G1 X72.582 Y185.326 E71.75668
G1 X72.261 Y184.715 E71.83014
G1 X71.795 Y183.754 E71.94381
G1 X71.361 Y182.824 E72.05304
G1 X71.006 Y182.034 E72.14522
G1 X70.636 Y181.099 E72.25225
G1 X70.454 Y180.519 E72.31695
G1 X70.2 Y179.63 E72.41535
G1 X69.71 Y177.77 E72.62007
G1 X69.498 Y176.783 E72.72751
G1 X69.403 Y176.086 E72.80238
G1 X69.318 Y175.263 E72.89044
G1 X69.148 Y173.227 E73.10789
G1 X69.112 Y172.253 E73.21163
G1 X69.139 Y171.548 E73.28672
G1 X69.221 Y170.409 E73.40826
G1 X69.383 Y168.678 E73.5933
G1 X69.523 Y167.681 E73.70045
G1 X69.671 Y166.999 E73.77473
G1 X69.927 Y165.981 E73.88645
G1 X70.199 Y164.966 E73.99829
G1 X70.451 Y164.079 E74.09643
G1 X70.723 Y163.255 E74.18879
G1 X71.064 Y162.35 E74.29172
G1 X71.518 Y161.193 E74.424
G1 X72.373 Y158.819 E74.69256
G1 X73.154 Y156.444 E74.95866
G1 X73.862 Y154.066 E75.22273
G1 X74.517 Y151.611 E75.49316
G1 X75.098 Y149.16 E75.76126
