;FLAVOR:Marlin
;TIME:8749
;Filament used: 15.8191m
;Layer height: 0.32
;MINX:51.684
;MINY:50.385
;MINZ:0.32
;MAXX:190.743
;MAXY:191.742
;MAXZ:26.72
;TARGET_MACHINE.NAME:Creality Ender-3 Pro
;Generated with Cura_SteamEngine 5.5.0
M82 ;absolute extrusion mode
; Ender 3 Custom Start G-code
G92 E0 ; Reset Extruder
G28 ; Home all axes
G1 Z5.0 F3000 ; Move Z Axis up a bit during heating to not damage bed
M104 S120 ; Start heating up the nozzle most of the way
M190 S70 ; Start heating the bed, wait until target temperature reached
M109 S225 ; Finish heating the nozzle
G1 Z2.0 F3000 ; Move Z Axis up little to prevent scratching of Heat Bed
G1 X0.1 Y20 Z0.3 F5000.0 ; Move to start position
G1 X0.1 Y200.0 Z0.3 F1500.0 E15 ; Draw the first line
G1 X0.4 Y200.0 Z0.3 F5000.0 ; Move to side a little
G1 X0.4 Y20 Z0.3 F1500.0 E30 ; Draw the second line
G92 E0 ; Reset Extruder
G1 Z2.0 F3000 ; Move Z Axis up little to prevent scratching of Heat Bed
G1 X5 Y20 Z0.3 F5000.0 ; Move over to prevent blob squish
G92 E0
G92 E0
G1 F1500 E-6.5
;LAYER_COUNT:81
;LAYER:0
M107
G1 F300 Z1.12
G0 F6000 X57.232 Y56.588 Z1.12
;TYPE:SKIRT
G1 F300 Z0.32
G1 F1500 E0
G1 F900 X58.489 Y55.344 E0.18823
G1 X59.07 Y54.852 E0.26926
G1 X59.818 Y54.31 E0.36757
G1 X60.791 Y53.63 E0.49391
G1 X61.435 Y53.197 E0.57651
G1 X61.85 Y52.957 E0.62753
G1 X62.819 Y52.482 E0.74239
G1 X64.421 Y51.746 E0.93003
G1 X65.133 Y51.483 E1.01081
G1 X66.017 Y51.23 E1.10868
G1 X67.775 Y50.77 E1.30208
G1 X68.528 Y50.633 E1.38354
G1 X69.457 Y50.538 E1.48293
G1 X70.563 Y50.441 E1.6011
G1 X71.328 Y50.387 E1.68272
G1 X71.878 Y50.385 E1.74126
G1 X72.902 Y50.454 E1.8505
G1 X74.052 Y50.555 E1.97336
G1 X74.748 Y50.626 E2.04783
G1 X75.458 Y50.75 E2.12454
G1 X76.34 Y50.972 E2.22134
G1 X77.486 Y51.28 E2.34764
G1 X78.288 Y51.509 E2.43641
G1 X79.273 Y51.817 E2.54625
G1 X81.939 Y52.613 E2.84238
G1 X84.524 Y53.305 E3.12719
G1 X87.115 Y53.922 E3.41067
G1 X89.762 Y54.471 E3.69839
G1 X92.402 Y54.943 E3.98383
G1 X95.086 Y55.345 E4.27268
G1 X97.68 Y55.659 E4.55078
G1 X100.44 Y55.914 E4.84578
G1 X103.065 Y56.082 E5.12574
G1 X105.772 Y56.177 E5.41403
G1 X107.85 Y56.2 E5.63521
G1 X150.678 Y56.199 E10.1935
G1 X153.467 Y56.16 E10.49037
G1 X156.119 Y56.047 E10.77288
G1 X158.794 Y55.858 E11.0583
G1 X161.455 Y55.592 E11.34293
G1 X164.154 Y55.249 E11.6325
G1 X167.599 Y54.713 E12.00357
G1 X168.563 Y54.614 E12.10671
G1 X169.668 Y54.517 E12.22477
G1 X170.433 Y54.463 E12.3064
G1 X170.983 Y54.461 E12.36493
G1 X172.007 Y54.53 E12.47417
G1 X173.157 Y54.631 E12.59704
G1 X173.853 Y54.702 E12.6715
G1 X174.563 Y54.826 E12.74821
G1 X175.469 Y55.054 E12.84764
G1 X177.181 Y55.521 E13.03651
G1 X177.906 Y55.781 E13.11849
G1 X178.816 Y56.189 E13.22463
G1 X180.477 Y56.979 E13.42039
G1 X180.98 Y57.268 E13.48213
G1 X181.797 Y57.818 E13.58696
G1 X183.323 Y58.902 E13.78618
G1 X183.818 Y59.313 E13.85466
G1 X184.516 Y59.988 E13.958
G1 X185.346 Y60.819 E14.08301
G1 X185.9 Y61.395 E14.16807
G1 X186.246 Y61.811 E14.22566
G1 X186.81 Y62.586 E14.32767
G1 X187.498 Y63.569 E14.45537
G1 X187.931 Y64.214 E14.53806
G1 X188.202 Y64.686 E14.59598
G1 X188.641 Y65.585 E14.70247
G1 X189.449 Y67.354 E14.90946
G1 X189.618 Y67.817 E14.96191
G1 X189.916 Y68.854 E15.07675
G1 X190.361 Y70.554 E15.26378
G1 X190.498 Y71.304 E15.34493
G1 X190.582 Y72.125 E15.43276
G1 X190.743 Y74.12 E15.64579
G1 X190.743 Y74.759 E15.7138
G1 X190.677 Y75.69 E15.81314
G1 X190.57 Y76.903 E15.94274
G1 X190.505 Y77.532 E16.01004
G1 X190.381 Y78.237 E16.08623
G1 X190.169 Y79.079 E16.17864
G1 X189.667 Y80.911 E16.38081
G1 X189.449 Y81.52 E16.44966
G1 X189.032 Y82.459 E16.55901
G1 X188.554 Y83.484 E16.67938
G1 X188.235 Y84.138 E16.75683
G1 X187.906 Y84.704 E16.82651
G1 X187.332 Y85.552 E16.93549
G1 X186.297 Y87.007 E17.12554
G1 X185.888 Y87.498 E17.19355
G1 X185.209 Y88.2 E17.2975
G1 X184.367 Y89.041 E17.42416
G1 X183.813 Y89.573 E17.50591
G1 X183.355 Y89.954 E17.56931
G1 X182.619 Y90.487 E17.66603
G1 X181.001 Y91.602 E17.87517
G1 X180.529 Y91.874 E17.93315
G1 X179.674 Y92.292 E18.03444
G1 X178.614 Y92.787 E18.15896
G1 X177.851 Y93.125 E18.24778
G1 X177.34 Y93.309 E18.30558
G1 X176.443 Y93.567 E18.40492
G1 X174.632 Y94.041 E18.60416
G1 X174.172 Y94.14 E18.65424
G1 X173.229 Y94.294 E18.75594
G1 X170.556 Y94.77 E19.04491
G1 X167.98 Y95.304 E19.32491
G1 X165.328 Y95.936 E19.61507
G1 X162.743 Y96.629 E19.89991
G1 X160.149 Y97.402 E20.188
G1 X157.619 Y98.235 E20.47149
G1 X155.11 Y99.14 E20.75537
G1 X152.569 Y100.139 E21.04597
G1 X150.093 Y101.196 E21.3325
G1 X147.655 Y102.318 E21.61814
G1 X145.295 Y103.486 E21.8984
G1 X142.874 Y104.769 E22.19002
G1 X140.537 Y106.096 E22.47606
G1 X138.235 Y107.491 E22.76254
G1 X136.015 Y108.922 E23.04365
G1 X133.791 Y110.447 E23.33066
G1 X131.598 Y112.043 E23.61934
G1 X129.471 Y113.686 E23.90539
G1 X127.388 Y115.39 E24.19182
G1 X125.391 Y117.123 E24.47324
G1 X123.374 Y118.973 E24.76454
G1 X121.451 Y120.838 E25.04965
G1 X119.565 Y122.777 E25.33755
G1 X117.778 Y124.722 E25.61867
G1 X115.998 Y126.771 E25.90754
G1 X114.321 Y128.817 E26.18911
G1 X112.647 Y130.98 E26.48021
G1 X111.056 Y133.16 E26.76745
G1 X109.558 Y135.339 E27.04889
G1 X108.09 Y137.609 E27.33661
G1 X106.676 Y139.942 E27.62696
G1 X105.355 Y142.265 E27.91138
G1 X104.13 Y144.566 E28.18883
G1 X102.903 Y147.041 E28.48284
G1 X101.787 Y149.461 E28.76648
G1 X100.737 Y151.915 E29.05057
G1 X99.736 Y154.45 E29.34065
G1 X98.817 Y156.989 E29.62804
G1 X97.986 Y159.502 E29.90975
G1 X97.223 Y162.057 E30.19355
G1 X96.509 Y164.714 E30.48637
G1 X95.891 Y167.304 E30.76977
G1 X95.337 Y169.954 E31.05791
G1 X94.871 Y172.547 E31.33831
G1 X94.646 Y174.076 E31.5028
G1 X94.475 Y175.148 E31.61834
G1 X94.393 Y175.546 E31.66159
G1 X94.162 Y176.46 E31.76193
G1 X93.675 Y178.236 E31.95793
G1 X93.457 Y178.844 E32.02667
G1 X93.04 Y179.783 E32.13602
G1 X92.562 Y180.807 E32.2563
G1 X92.217 Y181.513 E32.33993
G1 X91.975 Y181.934 E32.39162
G1 X91.417 Y182.767 E32.49833
G1 X90.312 Y184.322 E32.70136
G1 X89.901 Y184.817 E32.76984
G1 X89.226 Y185.515 E32.87319
G1 X88.395 Y186.345 E32.99819
G1 X87.819 Y186.899 E33.08325
G1 X87.403 Y187.245 E33.14084
G1 X86.628 Y187.809 E33.24285
G1 X85.645 Y188.497 E33.37056
G1 X85 Y188.93 E33.45324
G1 X84.481 Y189.225 E33.51678
G1 X83.636 Y189.637 E33.61683
G1 X82.63 Y190.107 E33.73501
G1 X81.858 Y190.449 E33.82488
G1 X81.344 Y190.634 E33.88302
G1 X80.431 Y190.896 E33.98412
G1 X78.66 Y191.36 E34.17897
G1 X77.91 Y191.497 E34.26012
G1 X77.089 Y191.581 E34.34795
G1 X75.092 Y191.742 E34.56119
G1 X74.451 Y191.742 E34.62941
G1 X73.524 Y191.676 E34.72833
G1 X72.311 Y191.569 E34.85793
G1 X71.682 Y191.504 E34.92523
G1 X70.977 Y191.38 E35.00142
G1 X70.135 Y191.168 E35.09383
G1 X68.302 Y190.666 E35.29611
G1 X67.633 Y190.424 E35.37182
G1 X66.755 Y190.031 E35.47421
G1 X65.731 Y189.553 E35.59448
G1 X65.025 Y189.208 E35.67812
G1 X64.604 Y188.966 E35.7298
G1 X63.721 Y188.372 E35.84306
G1 X62.129 Y187.236 E36.05122
G1 X61.667 Y186.844 E36.11571
G1 X61.039 Y186.233 E36.20896
G1 X59.751 Y184.932 E36.40381
G1 X59.295 Y184.398 E36.47855
G1 X58.745 Y183.641 E36.57814
G1 X58.058 Y182.661 E36.70552
G1 X57.61 Y181.994 E36.79103
G1 X57.316 Y181.477 E36.85433
G1 X56.873 Y180.568 E36.96196
G1 X56.151 Y178.995 E37.14617
G1 X55.907 Y178.343 E37.22026
G1 X55.626 Y177.363 E37.32877
G1 X55.15 Y175.524 E37.53095
G1 X55.049 Y174.956 E37.59235
G1 X54.954 Y174.052 E37.6891
G1 X54.845 Y172.812 E37.82158
G1 X54.797 Y172.159 E37.89127
G1 X54.797 Y171.435 E37.96833
G1 X54.869 Y170.453 E38.07313
G1 X55.061 Y168.454 E38.28686
G1 X55.394 Y166.117 E38.53811
G1 X55.71 Y163.414 E38.82775
G1 X55.941 Y160.779 E39.10928
G1 X56.104 Y158.04 E39.40131
G1 X56.186 Y155.378 E39.68477
G1 X56.2 Y153.741 E39.85901
G1 X56.2 Y102.219 E45.34262
G1 X56.161 Y99.451 E45.63725
G1 X56.048 Y96.801 E45.91956
G1 X55.857 Y94.098 E46.20796
G1 X55.6 Y91.515 E46.48423
G1 X55.247 Y88.752 E46.78069
G1 X54.837 Y86.147 E47.06136
G1 X54.338 Y83.462 E47.35203
G1 X53.774 Y80.837 E47.63779
G1 X53.134 Y78.228 E47.9237
G1 X52.239 Y74.932 E48.28721
G1 X52.03 Y74.094 E48.37913
G1 X51.936 Y73.553 E48.43757
G1 X51.844 Y72.668 E48.53227
G1 X51.684 Y70.681 E48.74444
G1 X51.685 Y70.041 E48.81256
G1 X51.755 Y69.069 E48.91628
G1 X51.933 Y67.202 E49.11589
G1 X52.02 Y66.692 E49.17095
G1 X52.285 Y65.621 E49.28838
G1 X52.742 Y63.946 E49.47317
G1 X53.003 Y63.219 E49.55538
G1 X53.391 Y62.355 E49.65619
G1 X54.202 Y60.649 E49.85723
G1 X54.494 Y60.141 E49.9196
G1 X55.067 Y59.292 E50.02861
G1 X56.104 Y57.83 E50.21938
G1 X56.536 Y57.311 E50.29125
G1 X57.232 Y56.588 E50.39807
G0 F6000 X57.795 Y57.157
G1 F900 X59.052 Y55.913 E50.58629
G1 X59.539 Y55.5 E50.65425
G1 X60.276 Y54.966 E50.75112
G1 X61.239 Y54.293 E50.87616
G1 X61.836 Y53.89 E50.95283
G1 X62.251 Y53.65 E51.00385
G1 X63.153 Y53.209 E51.11071
G1 X64.755 Y52.473 E51.29835
G1 X65.353 Y52.252 E51.3662
G1 X66.22 Y52.004 E51.46218
G1 X67.978 Y51.544 E51.65559
G1 X68.61 Y51.429 E51.72396
G1 X69.527 Y51.335 E51.82207
G1 X70.622 Y51.239 E51.93906
G1 X71.331 Y51.187 E52.01472
G1 X71.881 Y51.185 E52.07326
G1 X72.832 Y51.251 E52.17472
G1 X73.971 Y51.351 E52.29641
G1 X74.667 Y51.422 E52.37088
G1 X75.263 Y51.526 E52.43527
G1 X76.133 Y51.745 E52.53075
G1 X77.266 Y52.049 E52.65561
G1 X78.049 Y52.273 E52.74229
G1 X79.044 Y52.584 E52.85324
G1 X81.714 Y53.381 E53.1498
G1 X84.317 Y54.078 E53.43661
G1 X86.944 Y54.703 E53.72401
G1 X89.621 Y55.259 E54.01501
G1 X92.261 Y55.731 E54.30045
G1 X94.98 Y56.138 E54.59306
G1 X97.606 Y56.456 E54.87459
G1 X100.366 Y56.711 E55.1696
G1 X103.037 Y56.882 E55.45446
G1 X105.744 Y56.977 E55.74275
G1 X107.841 Y57 E55.96595
G1 X150.689 Y56.999 E60.52637
G1 X153.478 Y56.96 E60.82324
G1 X156.173 Y56.845 E61.11034
G1 X158.864 Y56.655 E61.39746
G1 X161.556 Y56.386 E61.6854
G1 X164.255 Y56.042 E61.97499
G1 X167.681 Y55.509 E62.34401
G1 X168.633 Y55.411 E62.44587
G1 X169.727 Y55.315 E62.56275
G1 X170.436 Y55.263 E62.63842
G1 X170.986 Y55.261 E62.69696
G1 X171.937 Y55.327 E62.79842
G1 X173.076 Y55.427 E62.92011
G1 X173.772 Y55.498 E62.99457
G1 X174.368 Y55.602 E63.05896
G1 X175.258 Y55.826 E63.15664
G1 X176.97 Y56.293 E63.34551
G1 X177.579 Y56.511 E63.41436
G1 X178.473 Y56.912 E63.51864
G1 X180.078 Y57.673 E63.70769
G1 X180.581 Y57.962 E63.76944
G1 X181.334 Y58.471 E63.86617
G1 X182.814 Y59.52 E64.05925
G1 X183.262 Y59.889 E64.12102
G1 X183.95 Y60.553 E64.22279
G1 X184.771 Y61.375 E64.34644
G1 X185.285 Y61.907 E64.42517
G1 X185.631 Y62.323 E64.48276
G1 X186.155 Y63.045 E64.57771
G1 X186.835 Y64.016 E64.70388
G1 X187.237 Y64.612 E64.78039
G1 X187.508 Y65.084 E64.83832
G1 X187.914 Y65.918 E64.93704
G1 X188.697 Y67.628 E65.13721
G1 X188.866 Y68.091 E65.18967
G1 X189.142 Y69.057 E65.2966
G1 X189.587 Y70.757 E65.48363
G1 X189.702 Y71.386 E65.55169
G1 X189.785 Y72.19 E65.63771
G1 X189.943 Y74.123 E65.84413
G1 X189.945 Y74.702 E65.90576
G1 X189.88 Y75.62 E66.00371
G1 X189.774 Y76.821 E66.13203
G1 X189.709 Y77.45 E66.19933
G1 X189.605 Y78.042 E66.26331
G1 X189.397 Y78.869 E66.35407
G1 X188.914 Y80.641 E66.54955
G1 X188.696 Y81.25 E66.61839
G1 X188.307 Y82.121 E66.71992
G1 X187.835 Y83.133 E66.83877
G1 X187.516 Y83.787 E66.91621
G1 X187.243 Y84.256 E66.97397
G1 X186.68 Y85.088 E67.08089
G1 X185.645 Y86.543 E67.27093
G1 X185.312 Y86.942 E67.32625
G1 X184.644 Y87.634 E67.42861
G1 X183.812 Y88.465 E67.55377
G1 X183.3 Y88.959 E67.62949
G1 X182.885 Y89.306 E67.68707
G1 X182.164 Y89.829 E67.78187
G1 X180.599 Y90.91 E67.98431
G1 X180.177 Y91.155 E68.03624
G1 X179.335 Y91.567 E68.13601
G1 X178.288 Y92.056 E68.259
G1 X177.577 Y92.373 E68.34186
G1 X177.119 Y92.54 E68.39374
G1 X176.24 Y92.793 E68.49109
G1 X174.429 Y93.267 E68.69034
G1 X174.043 Y93.35 E68.73236
G1 X173.1 Y93.504 E68.83405
G1 X170.416 Y93.982 E69.12421
G1 X167.809 Y94.523 E69.40759
G1 X165.121 Y95.163 E69.70168
G1 X162.527 Y95.858 E69.98751
G1 X159.913 Y96.637 E70.27781
G1 X157.348 Y97.482 E70.56524
G1 X154.817 Y98.395 E70.85161
G1 X152.276 Y99.394 E71.14221
G1 X149.779 Y100.46 E71.43118
G1 X147.31 Y101.596 E71.72044
G1 X144.92 Y102.779 E72.00427
G1 X142.49 Y104.067 E72.29698
G1 X140.142 Y105.4 E72.58435
G1 X137.82 Y106.807 E72.87332
G1 X135.563 Y108.262 E73.15912
G1 X133.32 Y109.8 E73.44858
G1 X131.127 Y111.396 E73.73726
G1 X128.964 Y113.067 E74.02817
G1 X126.881 Y114.771 E74.3146
G1 X124.85 Y116.533 E74.60077
G1 X122.833 Y118.383 E74.89207
G1 X120.894 Y120.264 E75.17959
G1 X118.992 Y122.219 E75.46989
G1 X117.174 Y124.197 E75.75583
G1 X115.394 Y126.246 E76.04471
G1 X113.688 Y128.327 E76.33111
G1 X112.014 Y130.49 E76.62221
G1 X110.41 Y132.688 E76.91182
G1 X108.886 Y134.905 E77.19815
G1 X107.418 Y137.175 E77.48587
G1 X105.992 Y139.527 E77.77862
G1 X104.66 Y141.869 E78.06538
G1 X103.413 Y144.211 E78.34778
G1 X102.186 Y146.686 E78.64179
G1 X101.051 Y149.146 E78.93014
G1 X100.001 Y151.6 E79.21423
G1 X98.992 Y154.156 E79.5067
G1 X98.065 Y156.717 E79.79658
G1 X97.219 Y159.273 E80.08313
G1 X96.456 Y161.828 E80.36694
G1 X95.736 Y164.506 E80.66208
G1 X95.113 Y167.118 E80.94788
G1 X94.554 Y169.79 E81.23843
G1 X94.084 Y172.405 E81.52121
G1 X93.856 Y173.95 E81.68743
G1 X93.685 Y175.022 E81.80297
G1 X93.617 Y175.35 E81.83862
G1 X93.39 Y176.25 E81.93741
G1 X92.922 Y177.966 E82.12672
G1 X92.704 Y178.574 E82.19546
G1 X92.315 Y179.445 E82.29699
G1 X91.843 Y180.457 E82.41584
G1 X91.523 Y181.114 E82.49362
G1 X91.281 Y181.535 E82.5453
G1 X90.764 Y182.304 E82.64392
G1 X89.694 Y183.813 E82.84081
G1 X89.325 Y184.261 E82.90258
G1 X88.661 Y184.949 E83.00435
G1 X87.839 Y185.77 E83.128
G1 X87.307 Y186.284 E83.20673
G1 X86.891 Y186.63 E83.26432
G1 X86.169 Y187.154 E83.35927
G1 X85.198 Y187.834 E83.48544
G1 X84.602 Y188.236 E83.56195
G1 X84.131 Y188.506 E83.61973
G1 X83.297 Y188.912 E83.71846
G1 X82.304 Y189.376 E83.83511
G1 X81.584 Y189.697 E83.91902
G1 X81.123 Y189.865 E83.97124
G1 X80.228 Y190.122 E84.07035
G1 X78.457 Y190.586 E84.2652
G1 X77.828 Y190.701 E84.33325
G1 X77.024 Y190.784 E84.41928
G1 X75.089 Y190.942 E84.62591
G1 X74.508 Y190.944 E84.68775
G1 X73.594 Y190.879 E84.78528
G1 X72.393 Y190.773 E84.9136
G1 X71.764 Y190.708 E84.9809
G1 X71.172 Y190.604 E85.04487
G1 X70.345 Y190.396 E85.13563
G1 X68.572 Y189.913 E85.33122
G1 X67.96 Y189.694 E85.4004
G1 X67.093 Y189.306 E85.50149
G1 X66.081 Y188.834 E85.62034
G1 X65.424 Y188.514 E85.69812
G1 X65.003 Y188.272 E85.7498
G1 X64.185 Y187.72 E85.85484
G1 X62.645 Y186.624 E86.05601
G1 X62.225 Y186.27 E86.11447
G1 X61.608 Y185.67 E86.20607
G1 X60.32 Y184.369 E86.40092
G1 X59.905 Y183.88 E86.46918
G1 X59.4 Y183.182 E86.56088
G1 X58.721 Y182.214 E86.68672
G1 X58.304 Y181.596 E86.76607
G1 X58.035 Y181.127 E86.82362
G1 X57.6 Y180.234 E86.92934
G1 X56.878 Y178.661 E87.11355
G1 X56.676 Y178.122 E87.17481
G1 X56.4 Y177.162 E87.28113
G1 X55.938 Y175.384 E87.47665
G1 X55.837 Y174.816 E87.53805
G1 X55.751 Y173.982 E87.62729
G1 X55.643 Y172.753 E87.75859
G1 X55.595 Y172.1 E87.82828
G1 X55.595 Y171.493 E87.89289
G1 X55.665 Y170.529 E87.99576
G1 X55.853 Y168.567 E88.20553
G1 X56.189 Y166.21 E88.45893
G1 X56.505 Y163.507 E88.74858
G1 X56.74 Y160.827 E89.03491
G1 X56.903 Y158.088 E89.32695
G1 X56.986 Y155.403 E89.61285
G1 X57 Y153.748 E89.78901
G1 X57 Y102.219 E95.27336
G1 X56.961 Y99.44 E95.56917
G1 X56.846 Y96.745 E95.85626
G1 X56.655 Y94.042 E96.14467
G1 X56.394 Y91.414 E96.42575
G1 X56.041 Y88.651 E96.72221
G1 X55.624 Y86.001 E97.00773
G1 X55.125 Y83.316 E97.29839
G1 X54.551 Y80.646 E97.58906
G1 X53.911 Y78.037 E97.87497
G1 X53.015 Y74.737 E98.23892
G1 X52.818 Y73.954 E98.32485
G1 X52.732 Y73.469 E98.37728
G1 X52.641 Y72.603 E98.46995
G1 X52.484 Y70.68 E98.6753
G1 X52.483 Y70.098 E98.73725
G1 X52.551 Y69.144 E98.83904
G1 X52.722 Y67.337 E99.03223
G1 X52.809 Y66.827 E99.08729
G1 X53.057 Y65.832 E99.19643
G1 X53.514 Y64.157 E99.38122
G1 X53.733 Y63.547 E99.4502
G1 X54.114 Y62.698 E99.54924
G1 X54.896 Y61.048 E99.74358
G1 X55.188 Y60.54 E99.80595
G1 X55.72 Y59.755 E99.90687
G1 X56.757 Y58.293 E100.09765
G1 X57.112 Y57.866 E100.15675
G1 X57.795 Y57.157 E100.26153
G0 F6000 X58.358 Y57.726
G1 F900 X59.615 Y56.482 E100.44975
G1 X60.009 Y56.148 E100.50473
G1 X60.734 Y55.622 E100.60006
G1 X61.688 Y54.955 E100.72395
G1 X62.237 Y54.583 E100.79454
G1 X62.652 Y54.343 E100.84556
