;FLAVOR:Marlin
;TIME:2968
;Filament used: 4.75679m
;Layer height: 0.32
;MINX:76.941
;MINY:81.094
;MINZ:0.4
;MAXX:143.059
;MAXY:138.896
;MAXZ:20.72
;TARGET_MACHINE.NAME:Creality Ender-3 Pro
;Generated with Cura_SteamEngine 5.5.0
M82 ;absolute extrusion mode
; Ender 3 Custom Start G-code
G92 E0 ; Reset Extruder
G28 ; Home all axes
G1 Z5.0 F3000 ; Move Z Axis up a bit during heating to not damage bed
M104 S120 ; Start heating up the nozzle most of the way
M190 S90 ; Start heating the bed, wait until target temperature reached
M109 S235.0 ; Finish heating the nozzle
G1 Z2.0 F3000 ; Move Z Axis up little to prevent scratching of Heat Bed
G1 X0.1 Y20 Z0.3 F5000.0 ; Move to start position
G1 X0.1 Y200.0 Z0.3 F1500.0 E15 ; Draw the first line
G1 X0.4 Y200.0 Z0.3 F5000.0 ; Move to side a little
G1 X0.4 Y20 Z0.3 F1500.0 E30 ; Draw the second line
G92 E0 ; Reset Extruder
G1 Z2.0 F3000 ; Move Z Axis up little to prevent scratching of Heat Bed
G1 X5 Y20 Z0.3 F5000.0 ; Move over to prevent blob squish
G92 E0
G92 E0
G1 F1500 E-6.5
;LAYER_COUNT:62
;LAYER:0
M107
G1 F300 Z1.2
G0 F6000 X95.515 Y82.639 Z1.2
;TYPE:SKIRT
G1 F300 Z0.4
G1 F1500 E0
G1 F900 X96.089 Y82.127 E0.10233
G1 X96.733 Y81.707 E0.20462
G1 X97.43 Y81.397 E0.30611
G1 X98.179 Y81.19 E0.40949
G1 X98.978 Y81.106 E0.51637
G1 X99.406 Y81.094 E0.57334
G1 X104.485 Y81.094 E1.24905
G1 X105.188 Y81.104 E1.34259
G1 X105.606 Y81.13 E1.39831
G1 X106.148 Y81.19 E1.47086
G1 X106.88 Y81.334 E1.57011
G1 X109.597 Y82.119 E1.94636
G1 X112.193 Y82.795 E2.30325
G1 X115.508 Y83.546 E2.75546
G1 X116.691 Y83.832 E2.91738
G1 X117.499 Y84.053 E3.02883
G1 X118.207 Y84.318 E3.1294
G1 X120.654 Y85.472 E3.48934
G1 X122.282 Y86.191 E3.72611
G1 X122.919 Y86.504 E3.82053
G1 X123.473 Y86.828 E3.90592
G1 X124.078 Y87.321 E4.00975
G1 X124.565 Y87.871 E4.10748
G1 X124.87 Y88.277 E4.17504
G1 X125.396 Y89.174 E4.31338
G1 X126.635 Y91.933 E4.71575
G1 X127.787 Y94.314 E5.06765
G1 X129.048 Y96.741 E5.43152
G1 X130.322 Y99.033 E5.78039
G1 X131.706 Y101.364 E6.14105
G1 X133.148 Y103.643 E6.49985
G1 X134.65 Y105.874 E6.85766
G1 X136.218 Y108.065 E7.21611
G1 X137.279 Y109.489 E7.45236
G1 X137.793 Y110.374 E7.58852
G1 X138.518 Y112.001 E7.82549
G1 X139.867 Y114.886 E8.2492
G1 X140.106 Y115.54 E8.34184
G1 X140.447 Y116.83 E8.51936
G1 X140.687 Y117.859 E8.65993
G1 X141.126 Y119.859 E8.93235
G1 X141.781 Y122.484 E9.29229
G1 X142.834 Y126.192 E9.80511
G1 X142.961 Y126.852 E9.89452
G1 X143.019 Y127.352 E9.96149
G1 X143.049 Y127.824 E10.02441
G1 X143.059 Y128.538 E10.11941
G1 X143.059 Y133.231 E10.74377
G1 X143.043 Y134.078 E10.85648
G1 X142.986 Y134.714 E10.94143
G1 X142.799 Y135.463 E11.04414
G1 X142.498 Y136.178 E11.14735
G1 X142.099 Y136.828 E11.24881
G1 X141.606 Y137.408 E11.35009
G1 X141.025 Y137.911 E11.45233
G1 X140.369 Y138.321 E11.55524
G1 X139.667 Y138.623 E11.65691
G1 X138.928 Y138.814 E11.75846
G1 X138.188 Y138.886 E11.85738
G1 X137.825 Y138.895 E11.90569
G1 X118.682 Y138.896 E14.45248
G1 X117.741 Y138.875 E14.5777
G1 X116.503 Y138.785 E14.74284
G1 X113.775 Y138.622 E15.10642
G1 X111.091 Y138.536 E15.46369
G1 X108.433 Y138.527 E15.81731
G1 X105.722 Y138.595 E16.1781
G1 X102.07 Y138.797 E16.66471
G1 X101.707 Y138.806 E16.71301
G1 X82.574 Y138.807 E19.25848
G1 X81.754 Y138.791 E19.36759
G1 X81.119 Y138.733 E19.45242
G1 X80.368 Y138.545 E19.55542
G1 X79.663 Y138.248 E19.6572
G1 X79.012 Y137.848 E19.75885
G1 X78.422 Y137.348 E19.86174
G1 X77.923 Y136.768 E19.96353
G1 X77.519 Y136.123 E20.06479
G1 X77.213 Y135.414 E20.16752
G1 X77.022 Y134.672 E20.26946
G1 X76.951 Y133.931 E20.36849
G1 X76.942 Y133.557 E20.41826
G1 X76.941 Y128.439 E21.09916
G1 X76.951 Y127.742 E21.1919
G1 X76.984 Y127.244 E21.2583
G1 X77.057 Y126.653 E21.33753
G1 X77.186 Y126.024 E21.42295
G1 X77.997 Y123.218 E21.81154
G1 X78.686 Y120.553 E22.17775
G1 X79.407 Y117.359 E22.61338
G1 X79.659 Y116.316 E22.75613
G1 X79.879 Y115.498 E22.86882
G1 X80.166 Y114.72 E22.97915
G1 X81.306 Y112.302 E23.3348
G1 X82.058 Y110.601 E23.58223
G1 X82.343 Y110.018 E23.66856
G1 X82.591 Y109.584 E23.73507
G1 X83.483 Y108.206 E23.95345
G1 X84.918 Y105.892 E24.3157
G1 X86.246 Y103.603 E24.66777
G1 X87.546 Y101.214 E25.02961
G1 X88.74 Y98.863 E25.38042
G1 X89.895 Y96.42 E25.73993
G1 X90.986 Y93.93 E26.1016
G1 X91.973 Y91.496 E26.45104
G1 X92.941 Y88.899 E26.81976
G1 X93.801 Y86.378 E27.17414
G1 X94.398 Y84.488 E27.43783
G1 X94.635 Y83.896 E27.52267
G1 X95.029 Y83.231 E27.6255
G1 X95.515 Y82.639 E27.7274
G0 F6000 X96.096 Y83.192
G1 F900 X96.575 Y82.765 E27.81277
G1 X97.114 Y82.414 E27.89835
G1 X97.704 Y82.151 E27.98429
G1 X98.33 Y81.978 E28.07069
G1 X99 Y81.906 E28.16034
G1 X99.428 Y81.894 E28.21731
G1 X104.474 Y81.894 E28.88863
G1 X105.177 Y81.904 E28.98216
G1 X105.522 Y81.926 E29.02816
G1 X105.997 Y81.976 E29.0917
G1 X106.658 Y82.103 E29.18125
G1 X109.375 Y82.888 E29.5575
G1 X112.009 Y83.573 E29.91959
G1 X115.321 Y84.324 E30.37141
G1 X116.483 Y84.604 E30.53042
G1 X117.221 Y84.803 E30.63211
G1 X117.866 Y85.042 E30.72363
G1 X120.315 Y86.197 E31.08386
G1 X121.932 Y86.91 E31.31897
G1 X122.515 Y87.194 E31.40525
G1 X123.015 Y87.487 E31.48235
G1 X123.522 Y87.9 E31.56935
G1 X123.925 Y88.352 E31.64991
G1 X124.23 Y88.758 E31.71747
G1 X124.666 Y89.502 E31.8322
G1 X125.907 Y92.266 E32.23528
G1 X127.077 Y94.683 E32.59254
G1 X128.341 Y97.116 E32.9573
G1 X129.634 Y99.441 E33.31124
G1 X131.03 Y101.792 E33.675
G1 X132.484 Y104.09 E34.03678
G1 X133.999 Y106.34 E34.39766
G1 X135.576 Y108.543 E34.7581
G1 X136.637 Y109.967 E34.99436
G1 X137.062 Y110.7 E35.10708
G1 X137.793 Y112.34 E35.34596
G1 X139.142 Y115.225 E35.76967
G1 X139.353 Y115.811 E35.85253
G1 X139.668 Y117.012 E36.01772
G1 X139.906 Y118.03 E36.1568
G1 X140.35 Y120.053 E36.43235
G1 X141.006 Y122.681 E36.79271
G1 X142.049 Y126.346 E37.29966
G1 X142.166 Y126.944 E37.38073
G1 X142.224 Y127.444 E37.4477
G1 X142.249 Y127.835 E37.49982
G1 X142.259 Y128.549 E37.59482
G1 X142.259 Y133.218 E38.21599
G1 X142.246 Y134.006 E38.32084
G1 X142.194 Y134.583 E38.39791
G1 X142.037 Y135.212 E38.48416
G1 X141.787 Y135.806 E38.5699
G1 X141.448 Y136.358 E38.65609
G1 X141.034 Y136.846 E38.74123
G1 X140.548 Y137.266 E38.82668
G1 X140.001 Y137.608 E38.91251
G1 X139.407 Y137.864 E38.99856
G1 X138.786 Y138.024 E39.08388
G1 X138.167 Y138.086 E39.16664
G1 X137.825 Y138.095 E39.21216
G1 X118.7 Y138.096 E41.75656
G1 X117.759 Y138.075 E41.88178
G1 X116.551 Y137.986 E42.04293
G1 X113.812 Y137.822 E42.40798
G1 X111.117 Y137.736 E42.76671
G1 X108.416 Y137.727 E43.12605
G1 X105.691 Y137.795 E43.4887
G1 X102.049 Y137.997 E43.97398
G1 X101.707 Y138.006 E44.01949
G1 X82.588 Y138.007 E46.56309
G1 X81.827 Y137.994 E46.66435
G1 X81.251 Y137.941 E46.74131
G1 X80.62 Y137.783 E46.82785
G1 X80.035 Y137.537 E46.91228
G1 X79.478 Y137.195 E46.99924
G1 X78.992 Y136.783 E47.084
G1 X78.568 Y136.29 E47.17051
G1 X78.227 Y135.746 E47.25593
G1 X77.973 Y135.158 E47.34114
G1 X77.812 Y134.531 E47.42727
G1 X77.751 Y133.911 E47.51015
G1 X77.742 Y133.557 E47.55726
G1 X77.741 Y128.45 E48.2367
G1 X77.751 Y127.753 E48.32944
G1 X77.778 Y127.339 E48.38463
G1 X77.841 Y126.814 E48.45498
G1 X77.97 Y126.185 E48.5404
G1 X78.772 Y123.418 E48.92368
G1 X79.461 Y120.753 E49.28989
G1 X80.185 Y117.546 E49.72729
G1 X80.432 Y116.521 E49.86756
G1 X80.631 Y115.772 E49.97066
G1 X80.89 Y115.061 E50.07133
G1 X82.03 Y112.643 E50.42699
G1 X82.778 Y110.95 E50.67323
G1 X83.038 Y110.414 E50.75249
G1 X83.263 Y110.019 E50.81296
G1 X84.155 Y108.641 E51.03135
G1 X85.598 Y106.314 E51.39563
G1 X86.938 Y104.005 E51.7508
G1 X88.249 Y101.596 E52.11568
G1 X89.461 Y99.21 E52.47172
G1 X90.628 Y96.741 E52.83504
G1 X91.719 Y94.251 E53.19672
G1 X92.723 Y91.775 E53.55218
G1 X93.691 Y89.178 E53.92091
G1 X94.558 Y86.636 E54.27822
G1 X95.141 Y84.786 E54.53628
G1 X95.357 Y84.247 E54.61353
G1 X95.685 Y83.693 E54.69919
G1 X96.096 Y83.192 E54.7854
G0 F6000 X96.674 Y83.749
G1 F900 X97.063 Y83.402 E54.85475
G1 X97.5 Y83.118 E54.92409
G1 X97.976 Y82.905 E54.99347
G1 X98.478 Y82.767 E55.06273
G1 X99.022 Y82.706 E55.13556
G1 X99.45 Y82.694 E55.19252
G1 X104.463 Y82.694 E55.85945
G1 X105.128 Y82.703 E55.94793
G1 X105.438 Y82.722 E55.98925
G1 X105.913 Y82.772 E56.0528
G1 X106.504 Y82.888 E56.13292
G1 X109.161 Y83.659 E56.50099
G1 X111.825 Y84.351 E56.86718
G1 X115.134 Y85.102 E57.3186
G1 X116.278 Y85.377 E57.47514
G1 X116.946 Y85.554 E57.56708
G1 X117.525 Y85.766 E57.64911
G1 X119.974 Y86.921 E58.00934
G1 X121.584 Y87.63 E58.24339
G1 X122.11 Y87.884 E58.3211
G1 X122.56 Y88.148 E58.39051
G1 X122.964 Y88.477 E58.45982
G1 X123.328 Y88.885 E58.53257
G1 X123.542 Y89.167 E58.57966
G1 X123.936 Y89.83 E58.68227
G1 X125.179 Y92.599 E59.08607
G1 X126.367 Y95.052 E59.44868
G1 X127.633 Y97.488 E59.81392
G1 X128.946 Y99.849 E60.17333
G1 X130.354 Y102.22 E60.5402
G1 X131.82 Y104.537 E60.90498
G1 X133.335 Y106.787 E61.26585
G1 X134.936 Y109.023 E61.63172
G1 X135.947 Y110.373 E61.85611
G1 X136.331 Y111.026 E61.95689
G1 X137.063 Y112.666 E62.19582
G1 X138.389 Y115.496 E62.61161
G1 X138.6 Y116.082 E62.69447
G1 X138.889 Y117.195 E62.84745
G1 X139.125 Y118.201 E62.98493
G1 X139.574 Y120.247 E63.26361
G1 X140.231 Y122.879 E63.62451
G1 X141.265 Y126.503 E64.12589
G1 X141.372 Y127.038 E64.19848
G1 X141.426 Y127.496 E64.25983
G1 X141.449 Y127.846 E64.3065
G1 X141.459 Y128.56 E64.4015
G1 X141.459 Y133.207 E65.01974
G1 X141.449 Y133.934 E65.11647
G1 X141.402 Y134.453 E65.1858
G1 X141.276 Y134.959 E65.25517
G1 X141.074 Y135.439 E65.32446
G1 X140.801 Y135.883 E65.3938
G1 X140.464 Y136.28 E65.46308
G1 X140.07 Y136.621 E65.5324
G1 X139.628 Y136.898 E65.6018
G1 X139.149 Y137.104 E65.67117
G1 X138.645 Y137.234 E65.74042
G1 X138.145 Y137.286 E65.8073
G1 X137.825 Y137.295 E65.84989
G1 X118.717 Y137.296 E68.39202
G1 X117.818 Y137.277 E68.51165
G1 X116.599 Y137.187 E68.67427
G1 X113.85 Y137.022 E69.04066
G1 X111.142 Y136.936 E69.40111
G1 X108.399 Y136.927 E69.76605
G1 X105.66 Y136.995 E70.13056
G1 X102.027 Y137.197 E70.61464
G1 X101.707 Y137.206 E70.65723
G1 X82.599 Y137.207 E73.19937
G1 X81.901 Y137.197 E73.29224
G1 X81.382 Y137.149 E73.36158
G1 X80.877 Y137.023 E73.43083
G1 X80.396 Y136.821 E73.50023
G1 X79.952 Y136.548 E73.56958
G1 X79.555 Y136.211 E73.63886
G1 X79.215 Y135.816 E73.7082
G1 X78.938 Y135.374 E73.77759
G1 X78.732 Y134.896 E73.84684
G1 X78.602 Y134.391 E73.91622
G1 X78.551 Y133.889 E73.98335
G1 X78.542 Y133.557 E74.02753
G1 X78.541 Y128.461 E74.70551
G1 X78.551 Y127.764 E74.79825
G1 X78.573 Y127.429 E74.84291
G1 X78.625 Y126.971 E74.90423
G1 X78.738 Y126.408 E74.98063
G1 X79.547 Y123.618 E75.3671
G1 X80.236 Y120.953 E75.73331
G1 X80.963 Y117.733 E76.17249
G1 X81.205 Y116.726 E76.31027
G1 X81.404 Y115.977 E76.41338
G1 X81.614 Y115.402 E76.49482
G1 X82.754 Y112.984 E76.85047
G1 X83.498 Y111.298 E77.09564
G1 X83.735 Y110.808 E77.16806
G1 X83.935 Y110.454 E77.22215
G1 X84.827 Y109.076 E77.44054
G1 X86.278 Y106.736 E77.80685
G1 X87.63 Y104.407 E78.16512
G1 X88.952 Y101.978 E78.53304
G1 X90.182 Y99.556 E78.89444
G1 X91.361 Y97.062 E79.26145
G1 X92.452 Y94.572 E79.62312
G1 X93.473 Y92.054 E79.98461
G1 X94.441 Y89.457 E80.35334
G1 X95.315 Y86.894 E80.7136
G1 X95.884 Y85.084 E80.96602
G1 X96.078 Y84.6 E81.03539
G1 X96.343 Y84.152 E81.10464
G1 X96.674 Y83.749 E81.17402
G1 F1500 E74.67402
G1 F300 Z1.2
;MESH:2025-05-13_AufstellerKlipp-Klipp_V1.stl(3)
G0 F6000 X104.394 Y103.293 Z1.2
;TYPE:WALL-INNER
G1 F300 Z0.4
G1 F1500 E81.17402
G1 F900 X104.532 Y102.717 E81.25282
G1 X104.658 Y102.374 E81.30144
G1 X104.943 Y101.814 E81.38503
G1 X105.251 Y101.359 E81.45813
G1 X105.42 Y101.159 E81.49297
G1 X105.724 Y100.865 E81.54923
G1 X105.474 Y100.491 E81.60908
G1 X105.282 Y100.172 E81.65862
G1 X104.663 Y98.513 E81.89419
G1 X104.532 Y98.028 E81.96103
G1 X104.339 Y96.438 E82.17412
G1 X104.321 Y96.108 E82.21809
G1 X104.34 Y95.777 E82.26219
G1 X104.517 Y94.287 E82.46182
G1 X104.671 Y93.648 E82.54927
G1 X105.217 Y92.165 E82.75951
G1 X105.38 Y91.842 E82.80765
G1 X105.725 Y91.325 E82.89034
G1 X105.325 Y90.938 E82.96438
G1 X104.946 Y90.381 E83.05401
G1 X104.658 Y89.814 E83.13862
G1 X104.531 Y89.466 E83.18791
G1 X104.394 Y88.895 E83.26603
G1 X101.921 Y88.895 E83.59504
G1 X101.92 Y103.294 E85.51069
G1 X104.394 Y103.293 E85.83983
G0 F6000 X105.104 Y104.092
G1 F900 X105.174 Y103.446 E85.92628
G1 X105.283 Y102.993 E85.98826
G1 X105.408 Y102.654 E86.03633
G1 X105.611 Y102.254 E86.09601
G1 X105.937 Y101.77 E86.17365
G1 X106.363 Y101.362 E86.25212
G1 X106.802 Y101.039 E86.32463
G1 X106.07 Y99.944 E86.49987
G1 X105.958 Y99.708 E86.53462
G1 X105.414 Y98.236 E86.7434
G1 X105.32 Y97.89 E86.7911
G1 X105.116 Y96.196 E87.0181
G1 X105.134 Y95.871 E87.0614
G1 X105.311 Y94.382 E87.2609
G1 X105.421 Y93.925 E87.32343
G1 X105.995 Y92.375 E87.54333
G1 X106.803 Y91.148 E87.73879
G1 X106.372 Y90.834 E87.80973
G1 X105.94 Y90.422 E87.88915
G1 X105.614 Y89.94 E87.96657
G1 X105.407 Y89.535 E88.02708
G1 X105.282 Y89.191 E88.07577
G1 X105.174 Y88.742 E88.13721
G1 X105.106 Y88.095 E88.22376
G1 X101.121 Y88.095 E88.75393
G1 X101.12 Y104.094 E90.88245
G1 X105.104 Y104.092 E91.41248
G0 F6000 X105.297 Y104.865
G1 F900 X105.611 Y104.715 E91.45878
G1 X105.83 Y104.441 E91.50544
G1 X105.889 Y104.275 E91.52888
G1 X105.969 Y103.541 E91.62711
G1 X106.034 Y103.269 E91.66432
G1 X106.157 Y102.934 E91.71179
G1 X106.279 Y102.694 E91.74761
G1 X106.551 Y102.288 E91.81263
G1 X106.91 Y101.946 E91.87859
G1 X107.138 Y101.778 E91.91627
G1 X107.592 Y101.527 E91.98529
G1 X108.157 Y101.363 E92.06356
G1 X107.691 Y100.933 E92.14792
G1 X106.722 Y99.469 E92.38149
G1 X106.117 Y97.831 E92.6138
G1 X105.912 Y96.109 E92.84451
G1 X106.106 Y94.476 E93.06329
G1 X106.172 Y94.202 E93.10079
G1 X106.711 Y92.738 E93.30834
G1 X107.7 Y91.245 E93.5466
G1 X108.158 Y90.823 E93.62945
G1 X107.608 Y90.665 E93.70558
G1 X107.142 Y90.412 E93.77613
G1 X106.915 Y90.247 E93.81346
G1 X106.556 Y89.907 E93.87925
G1 X106.281 Y89.498 E93.94482
G1 X106.154 Y89.248 E93.98212
G1 X106.033 Y88.916 E94.02913
G1 X105.969 Y88.647 E94.06592
G1 X105.891 Y87.917 E94.16359
G1 X105.741 Y87.603 E94.20989
G1 X105.465 Y87.382 E94.25693
G1 X105.3 Y87.323 E94.28024
G1 X105.051 Y87.294 E94.31359
G1 X100.321 Y87.295 E94.94288
G1 X100.32 Y104.894 E97.28426
G1 X105.05 Y104.893 E97.91354
G1 X105.297 Y104.865 E97.94661
G1 F1500 E91.44661
G1 F300 Z1.2
G0 F6000 X99.52 Y105.694 Z1.2
;TYPE:WALL-OUTER
G1 F300 Z0.4
G1 F1500 E97.94661
G1 F900 X105.096 Y105.693 E98.68844
G1 X105.475 Y105.65 E98.73919
G1 X105.815 Y105.532 E98.78707
G1 X106.114 Y105.344 E98.83406
G1 X106.367 Y105.09 E98.88175
G1 X106.556 Y104.791 E98.92881
G1 X106.675 Y104.455 E98.97624
G1 X106.72 Y104.071 E99.02767
G1 X106.722 Y103.98 E99.03978
G1 X106.769 Y103.59 E99.09204
G1 X106.924 Y103.168 E99.15185
G1 X107.179 Y102.792 E99.2123
G1 X107.493 Y102.497 E99.26962
G1 X107.876 Y102.281 E99.32811
G1 F902.3 X108.303 Y102.153 E99.38727
G1 F906.8 X108.745 Y102.134 E99.44569
G1 F910.2 X109.194 Y102.222 E99.50588
G1 F948.6 X110.518 Y102.858 E99.69128
G1 F962.6 X111.088 Y103.096 E99.76811
G1 X112.161 Y103.336 E99.90488
G1 F963.9 X112.696 Y103.428 E99.97232
G1 F962.6 X113.871 Y103.422 E100.11848
G1 F963.9 X114.345 Y103.395 E100.17746
G1 F962.6 X115.551 Y103.11 E100.33161
G1 F965.1 X115.94 Y102.998 E100.38183
G1 F962.6 X117.118 Y102.418 E100.54517
G1 F966.4 X117.394 Y102.266 E100.5842
G1 F961.3 X117.921 Y101.748 E100.67625
G1 F966.4 X118.606 Y101.343 E100.77484
G1 F962.6 X119.368 Y101.102 E100.87425
G1 F963.9 X120.206 Y101.042 E100.97862
G1 F966.4 X120.437 Y100.914 E101.01134
G1 X120.516 Y100.734 E101.0357
G1 X120.502 Y100.56 E101.05732
G1 X120.411 Y100.412 E101.07885
G1 F965.1 X120.214 Y100.297 E101.10715
G1 F962.6 X119.261 Y100.359 E101.22594
G1 F960 X118.345 Y100.634 E101.34523
G1 F957.4 X117.584 Y101.072 E101.45504
G1 F965.1 X117.383 Y101.242 E101.4877
G1 F973 X116.87 Y101.718 E101.57382
G1 F960 X115.65 Y102.295 E101.74214
G1 F965.1 X115.374 Y102.4 E101.77878
G1 F962.6 X114.222 Y102.641 E101.92518
G1 F963.9 X113.856 Y102.691 E101.97107
G1 F962.6 X112.747 Y102.663 E102.10907
G1 F963.9 X112.307 Y102.623 E102.16395
G1 F962.6 X111.311 Y102.36 E102.29209
G1 X110.819 Y102.196 E102.3566
G1 F949.9 X109.46 Y101.467 E102.551
