;FLAVOR:Marlin
;TIME:1037
;Filament used: 1.6054m
;Layer height: 0.32
;MINX:95
;MINY:94.109
;MINZ:0.4
;MAXX:125
;MAXY:125.884
;MAXZ:20.72
;TARGET_MACHINE.NAME:Creality Ender-3 Pro
;Generated with Cura_SteamEngine 5.5.0
M82 ;absolute extrusion mode
; Ender 3 Custom Start G-code
G92 E0 ; Reset Extruder
G28 ; Home all axes
G1 Z5.0 F3000 ; Move Z Axis up a bit during heating to not damage bed
M104 S120 ; Start heating up the nozzle most of the way
M190 S90 ; Start heating the bed, wait until target temperature reached
M109 S235.0 ; Finish heating the nozzle
G1 Z2.0 F3000 ; Move Z Axis up little to prevent scratching of Heat Bed
G1 X0.1 Y20 Z0.3 F5000.0 ; Move to start position
G1 X0.1 Y200.0 Z0.3 F1500.0 E15 ; Draw the first line
G1 X0.4 Y200.0 Z0.3 F5000.0 ; Move to side a little
G1 X0.4 Y20 Z0.3 F1500.0 E30 ; Draw the second line
G92 E0 ; Reset Extruder
G1 Z2.0 F3000 ; Move Z Axis up little to prevent scratching of Heat Bed
G1 X5 Y20 Z0.3 F5000.0 ; Move over to prevent blob squish
G92 E0
G92 E0
G1 F1500 E-6.5
;LAYER_COUNT:62
;LAYER:0
M107
G1 F300 Z1.2
G0 F6000 X96.466 Y95.584 Z1.2
;TYPE:SKIRT
G1 F300 Z0.4
G1 F1500 E0
G1 F900 X97.038 Y95.09 E0.10055
G1 X97.691 Y94.683 E0.20292
G1 X98.4 Y94.379 E0.30555
G1 X99.135 Y94.19 E0.40652
G1 X99.871 Y94.119 E0.50489
G1 X100.234 Y94.11 E0.5532
G1 X119.367 Y94.109 E3.09866
G1 X120.187 Y94.125 E3.20778
G1 X120.822 Y94.183 E3.29261
G1 X121.573 Y94.371 E3.3956
G1 X122.278 Y94.668 E3.49738
G1 X122.929 Y95.068 E3.59903
G1 X123.519 Y95.568 E3.70192
G1 X124.018 Y96.148 E3.80371
G1 X124.422 Y96.793 E3.90497
G1 X124.728 Y97.502 E4.0077
G1 X124.919 Y98.246 E4.1099
G1 X124.99 Y98.98 E4.208
G1 X124.999 Y99.343 E4.25631
G1 X125 Y104.482 E4.94001
G1 X124.99 Y105.119 E5.02477
G1 X124.965 Y105.52 E5.07822
G1 X124.896 Y106.16 E5.16386
G1 X124.751 Y106.902 E5.26444
G1 X123.948 Y109.679 E5.64903
G1 X123.274 Y112.28 E6.0065
G1 X122.536 Y115.551 E6.45261
G1 X122.283 Y116.599 E6.59604
G1 X122.063 Y117.417 E6.70874
G1 X121.776 Y118.195 E6.81906
G1 X120.619 Y120.65 E7.18013
G1 X119.844 Y122.397 E7.4344
G1 X119.585 Y122.92 E7.51204
G1 X119.258 Y123.473 E7.59751
G1 X118.768 Y124.072 E7.70047
G1 X118.19 Y124.583 E7.80311
G1 X117.915 Y124.793 E7.84914
G1 X117.273 Y125.214 E7.95128
G1 X116.557 Y125.535 E8.05568
G1 X115.781 Y125.735 E8.16229
G1 X115.261 Y125.821 E8.23241
G1 X114.355 Y125.879 E8.35319
G1 X111.743 Y125.796 E8.70087
G1 X109.098 Y125.784 E9.05276
G1 X105.471 Y125.884 E9.53549
G1 X104.699 Y125.85 E9.63829
G1 X103.771 Y125.65 E9.76459
G1 X102.907 Y125.309 E9.88816
G1 X102.144 Y124.833 E10.00781
G1 X101.709 Y124.498 E10.08085
G1 X101.235 Y124.073 E10.16555
G1 X100.727 Y123.455 E10.27198
G1 X100.316 Y122.722 E10.38379
G1 X99.536 Y120.993 E10.63614
G1 X98.19 Y118.114 E11.05895
G1 X97.95 Y117.458 E11.15189
G1 X97.611 Y116.171 E11.32895
G1 X97.373 Y115.147 E11.46881
G1 X96.936 Y113.155 E11.74013
G1 X96.274 Y110.507 E12.10327
G1 X95.224 Y106.811 E12.61444
G1 X95.097 Y106.151 E12.70386
G1 X95.043 Y105.69 E12.76561
G1 X95.01 Y105.178 E12.83387
G1 X95 Y104.467 E12.92847
G1 X95 Y99.706 E13.56188
G1 X95.016 Y98.92 E13.66647
G1 X95.075 Y98.281 E13.75184
G1 X95.262 Y97.538 E13.85377
G1 X95.56 Y96.83 E13.95597
G1 X95.964 Y96.172 E14.05869
G1 X96.466 Y95.584 E14.16155
G0 F6000 X97.034 Y96.151
G1 F900 X97.517 Y95.734 E14.24645
G1 X98.059 Y95.396 E14.33143
G1 X98.66 Y95.139 E14.41839
G1 X99.277 Y94.98 E14.50316
G1 X99.892 Y94.919 E14.58538
G1 X100.234 Y94.91 E14.63089
G1 X119.353 Y94.909 E17.1745
G1 X120.114 Y94.922 E17.27575
G1 X120.69 Y94.975 E17.35271
G1 X121.321 Y95.133 E17.43925
G1 X121.906 Y95.379 E17.52368
G1 X122.463 Y95.721 E17.61064
G1 X122.949 Y96.133 E17.6954
G1 X123.373 Y96.626 E17.78191
G1 X123.714 Y97.17 E17.86733
G1 X123.968 Y97.758 E17.95254
G1 X124.129 Y98.386 E18.03879
G1 X124.19 Y99.001 E18.12102
G1 X124.199 Y99.343 E18.16653
G1 X124.2 Y104.469 E18.8485
G1 X124.19 Y105.106 E18.93325
G1 X124.169 Y105.438 E18.97751
G1 X124.11 Y106.01 E19.05401
G1 X123.982 Y106.68 E19.14476
G1 X123.179 Y109.457 E19.52935
G1 X122.5 Y112.079 E19.88969
G1 X121.758 Y115.364 E20.33774
G1 X121.51 Y116.394 E20.47869
G1 X121.311 Y117.143 E20.58179
G1 X121.052 Y117.854 E20.68247
G1 X119.895 Y120.309 E21.04353
G1 X119.113 Y122.073 E21.30025
G1 X118.896 Y122.513 E21.36551
G1 X118.6 Y123.014 E21.44293
G1 X118.191 Y123.514 E21.52887
G1 X117.704 Y123.947 E21.61557
G1 X117.429 Y124.157 E21.6616
G1 X116.888 Y124.51 E21.74754
G1 X116.294 Y124.776 E21.83413
G1 X115.581 Y124.96 E21.9321
G1 X115.135 Y125.031 E21.99218
G1 X114.38 Y125.079 E22.09283
G1 X111.768 Y124.996 E22.44051
G1 X109.08 Y124.984 E22.79812
G1 X105.449 Y125.084 E23.28138
G1 X104.803 Y125.054 E23.36741
G1 X104.001 Y124.881 E23.47657
G1 X103.273 Y124.594 E23.58068
G1 X102.568 Y124.154 E23.69124
G1 X102.243 Y123.902 E23.74595
G1 X101.81 Y123.514 E23.8233
G1 X101.394 Y123.007 E23.91055
G1 X101.014 Y122.33 E24.01384
G1 X100.266 Y120.665 E24.25668
G1 X98.915 Y117.775 E24.6811
G1 X98.703 Y117.187 E24.76426
G1 X98.39 Y115.99 E24.92886
G1 X98.154 Y114.976 E25.06737
G1 X97.712 Y112.961 E25.34182
G1 X97.05 Y110.313 E25.70496
G1 X96.009 Y106.658 E26.21056
G1 X95.892 Y106.058 E26.29189
G1 X95.838 Y105.597 E26.35364
G1 X95.81 Y105.167 E26.41096
G1 X95.8 Y104.456 E26.50557
G1 X95.8 Y99.72 E27.13565
G1 X95.813 Y98.993 E27.23238
G1 X95.866 Y98.415 E27.3096
G1 X96.023 Y97.791 E27.39521
G1 X96.274 Y97.195 E27.48124
G1 X96.611 Y96.647 E27.56683
G1 X97.034 Y96.151 E27.65356
G0 F6000 X97.598 Y96.722
G1 F900 X97.993 Y96.381 E27.72298
G1 X98.435 Y96.105 E27.79231
G1 X98.914 Y95.9 E27.86163
G1 X99.418 Y95.77 E27.93087
G1 X99.914 Y95.719 E27.99721
G1 X100.234 Y95.71 E28.0398
G1 X119.342 Y95.709 E30.58194
G1 X120.04 Y95.719 E30.67481
G1 X120.559 Y95.767 E30.74415
G1 X121.064 Y95.893 E30.8134
G1 X121.545 Y96.095 E30.8828
G1 X121.989 Y96.368 E30.95215
G1 X122.386 Y96.705 E31.02143
G1 X122.726 Y97.1 E31.09077
G1 X123.003 Y97.542 E31.16016
G1 X123.209 Y98.02 E31.22941
G1 X123.339 Y98.525 E31.29879
G1 X123.39 Y99.023 E31.36539
G1 X123.399 Y99.343 E31.40798
G1 X123.4 Y104.457 E32.08835
G1 X123.391 Y105.058 E32.16831
G1 X123.373 Y105.356 E32.20803
G1 X123.314 Y105.928 E32.28453
G1 X123.197 Y106.526 E32.3656
G1 X122.411 Y109.234 E32.74074
G1 X121.726 Y111.878 E33.10412
G1 X120.98 Y115.177 E33.5541
G1 X120.737 Y116.189 E33.69256
G1 X120.538 Y116.938 E33.79567
G1 X120.328 Y117.513 E33.87711
G1 X119.171 Y119.968 E34.23818
G1 X118.382 Y121.749 E34.49733
G1 X118.207 Y122.106 E34.55023
G1 X117.942 Y122.555 E34.61959
G1 X117.612 Y122.958 E34.68889
G1 X117.218 Y123.311 E34.75927
G1 X116.943 Y123.521 E34.8053
G1 X116.505 Y123.805 E34.87475
G1 X116.03 Y124.018 E34.94401
G1 X115.447 Y124.171 E35.0242
G1 X115.081 Y124.233 E35.07358
G1 X114.405 Y124.279 E35.16373
G1 X111.793 Y124.196 E35.5114
G1 X109.062 Y124.184 E35.87474
G1 X105.427 Y124.284 E36.35853
G1 X104.907 Y124.258 E36.42779
G1 X104.231 Y124.112 E36.5198
G1 X103.637 Y123.878 E36.60474
G1 X103.055 Y123.519 E36.69571
G1 X102.777 Y123.306 E36.74231
G1 X102.389 Y122.958 E36.81165
G1 X102.058 Y122.555 E36.88103
G1 X101.744 Y122.002 E36.96563
G1 X100.995 Y120.337 E37.20853
G1 X99.668 Y117.504 E37.62473
G1 X99.456 Y116.916 E37.70789
G1 X99.169 Y115.808 E37.86016
G1 X98.935 Y114.805 E37.99718
G1 X98.488 Y112.767 E38.27477
G1 X97.826 Y110.119 E38.6379
G1 X96.794 Y106.502 E39.13831
G1 X96.687 Y105.965 E39.21116
G1 X96.633 Y105.504 E39.27291
G1 X96.61 Y105.156 E39.31931
G1 X96.6 Y104.445 E39.41391
G1 X96.6 Y99.732 E40.04093
G1 X96.61 Y99.067 E40.12941
G1 X96.658 Y98.548 E40.19875
G1 X96.785 Y98.042 E40.26816
G1 X96.987 Y97.562 E40.33744
G1 X97.26 Y97.118 E40.40679
G1 X97.598 Y96.722 E40.47605
G1 F1500 E33.97605
G1 F300 Z1.2
;MESH:2025-05-13_AufstellerKlipp-Klipp_V1.stl
G0 F6000 X114.769 Y105.713 Z1.2
;TYPE:WALL-INNER
G1 F300 Z0.4
G1 F1500 E40.47605
G1 F900 X115.161 Y105.31 E40.55085
G1 X115.713 Y104.935 E40.63963
G1 X116.28 Y104.647 E40.72424
G1 X116.628 Y104.52 E40.77352
G1 X117.2 Y104.384 E40.85174
G1 X117.2 Y101.909 E41.18102
G1 X102.8 Y101.909 E43.0968
G1 X102.801 Y104.383 E43.42594
G1 X103.377 Y104.521 E43.50474
G1 X103.72 Y104.647 E43.55336
G1 X104.28 Y104.932 E43.63695
G1 X104.735 Y105.24 E43.71005
G1 X104.935 Y105.409 E43.74489
G1 X105.229 Y105.713 E43.80115
G1 X105.603 Y105.463 E43.861
G1 X105.922 Y105.271 E43.91054
G1 X107.581 Y104.652 E44.14611
G1 X108.066 Y104.521 E44.21295
G1 X109.656 Y104.328 E44.42604
G1 X109.986 Y104.31 E44.47001
G1 X110.317 Y104.329 E44.51412
G1 X111.807 Y104.506 E44.71374
G1 X112.445 Y104.659 E44.80103
G1 X113.93 Y105.206 E45.01157
G1 X114.244 Y105.364 E45.05833
G1 X114.769 Y105.713 E45.1422
G0 F6000 X114.945 Y106.793
G1 F900 X115.259 Y106.361 E45.21326
G1 X115.673 Y105.927 E45.29305
G1 X116.154 Y105.603 E45.37021
G1 X116.559 Y105.397 E45.43066
G1 X116.903 Y105.271 E45.4794
G1 X117.352 Y105.164 E45.54081
G1 X118 Y105.094 E45.62752
G1 X118 Y101.109 E46.15769
G1 X102 Y101.109 E48.28633
G1 X102.002 Y105.093 E48.81637
G1 X102.648 Y105.163 E48.90282
G1 X103.101 Y105.272 E48.9648
G1 X103.44 Y105.397 E49.01287
G1 X103.84 Y105.6 E49.07255
G1 X104.324 Y105.926 E49.15019
G1 X104.732 Y106.352 E49.22866
G1 X105.055 Y106.791 E49.30117
G1 X106.15 Y106.059 E49.4764
G1 X106.386 Y105.947 E49.51116
G1 X107.858 Y105.403 E49.71994
G1 X108.204 Y105.309 E49.76764
G1 X109.898 Y105.105 E49.99464
G1 X110.223 Y105.123 E50.03794
G1 X111.712 Y105.3 E50.23743
G1 X112.168 Y105.41 E50.29984
G1 X113.606 Y105.942 E50.50383
G1 X113.836 Y106.052 E50.53775
G1 X114.945 Y106.793 E50.71519
G1 F1500 E44.21519
G1 F300 Z1.2
G0 F6000 X104.731 Y108.146 Z1.2
G1 F300 Z0.4
G1 F1500 E50.71519
G1 F900 X105.161 Y107.68 E50.79955
G1 X106.625 Y106.711 E51.03312
G1 X108.263 Y106.106 E51.26543
G1 X109.985 Y105.901 E51.49614
G1 X111.618 Y106.095 E51.71493
G1 X111.891 Y106.16 E51.75226
G1 X113.386 Y106.715 E51.96442
G1 X114.846 Y107.687 E52.19777
G1 X115.27 Y108.146 E52.2809
G1 X115.431 Y107.591 E52.35778
G1 X115.683 Y107.131 E52.42756
G1 X115.847 Y106.905 E52.46471
G1 X116.184 Y106.547 E52.53012
G1 X116.596 Y106.27 E52.59617
G1 X116.839 Y106.146 E52.63247
G1 X117.178 Y106.022 E52.68049
G1 X117.447 Y105.958 E52.71728
G1 X118.177 Y105.88 E52.81495
G1 X118.491 Y105.73 E52.86125
G1 X118.755 Y105.399 E52.91758
G1 X118.8 Y105.04 E52.96571
G1 X118.8 Y100.309 E53.59513
G1 X101.2 Y100.309 E55.93664
G1 X101.201 Y105.039 E56.56592
G1 X101.229 Y105.286 E56.59899
G1 X101.379 Y105.6 E56.64529
G1 X101.653 Y105.819 E56.69195
G1 X101.819 Y105.878 E56.71539
G1 X102.553 Y105.958 E56.81362
G1 X102.825 Y106.023 E56.85083
G1 X103.16 Y106.146 E56.89831
G1 X103.4 Y106.268 E56.93413
G1 X103.806 Y106.54 E56.99914
G1 X104.148 Y106.899 E57.06511
G1 X104.316 Y107.127 E57.10278
G1 X104.567 Y107.581 E57.1718
G1 X104.731 Y108.146 E57.25007
G1 F1500 E50.75007
G1 F300 Z1.2
G0 F6000 X114.551 Y120.508 Z1.2
;TYPE:WALL-OUTER
G1 F300 Z0.4
G1 F1500 E57.25007
G1 F966.4 X114.723 Y120.48 E57.27166
G1 X114.864 Y120.372 E57.29367
G1 X114.948 Y120.195 E57.31794
G1 F963.9 X115.008 Y119.354 E57.42268
G1 F961.3 X115.248 Y118.597 E57.5216
G1 F963.9 X115.659 Y117.913 E57.62073
G1 F958.7 X116.172 Y117.383 E57.71285
G1 F966.4 X116.336 Y117.081 E57.75543
G1 F963.9 X116.904 Y115.929 E57.91499
G1 F966.4 X117.016 Y115.54 E57.96514
G1 F965.1 X117.301 Y114.334 E58.11888
G1 F966.4 X117.328 Y113.859 E58.17782
G1 F965.1 X117.334 Y112.685 E58.32347
G1 F966.4 X117.242 Y112.149 E58.39085
G1 F963.9 X117.002 Y111.077 E58.52731
G1 X116.765 Y110.507 E58.604
G1 F946.1 X116.126 Y109.175 E58.79097
G1 F904.5 X116.04 Y108.746 E58.84888
G1 F903.4 X116.058 Y108.3 E58.90805
G1 F901.1 X116.188 Y107.869 E58.96786
G1 F900 X116.402 Y107.484 E59.02646
G1 X116.692 Y107.171 E59.08323
G1 X117.076 Y106.912 E59.14485
G1 X117.497 Y106.757 E59.20454
G1 X117.886 Y106.711 E59.25665
G1 X117.976 Y106.709 E59.26863
G1 X118.355 Y106.665 E59.31939
G1 X118.695 Y106.547 E59.36727
G1 X118.994 Y106.359 E59.41426
G1 X119.247 Y106.105 E59.46196
G1 X119.436 Y105.806 E59.50902
G1 X119.555 Y105.47 E59.55644
G1 X119.6 Y105.086 E59.60788
G1 X119.6 Y99.509 E60.34984
G1 X100.4 Y99.509 E62.90422
G1 X100.401 Y105.085 E63.64606
G1 X100.444 Y105.464 E63.6968
G1 X100.562 Y105.804 E63.74468
G1 X100.75 Y106.103 E63.79167
G1 X101.004 Y106.356 E63.83937
G1 X101.303 Y106.545 E63.88643
G1 X101.639 Y106.664 E63.93385
G1 X102.023 Y106.709 E63.98529
G1 X102.114 Y106.711 E63.99739
G1 X102.504 Y106.758 E64.04966
G1 X102.926 Y106.913 E64.10947
G1 X103.302 Y107.168 E64.16991
G1 X103.597 Y107.482 E64.22723
G1 X103.813 Y107.865 E64.28573
G1 F902.3 X103.941 Y108.292 E64.34488
G1 F906.8 X103.96 Y108.734 E64.4033
G1 F910.2 X103.872 Y109.183 E64.46349
G1 F948.6 X103.236 Y110.507 E64.64889
G1 F962.6 X102.998 Y111.077 E64.72572
G1 X102.758 Y112.15 E64.8625
G1 F965.1 X102.666 Y112.685 E64.92984
G1 F963.9 X102.672 Y113.86 E65.07581
G1 F965.1 X102.699 Y114.334 E65.13471
G1 F963.9 X102.984 Y115.54 E65.28865
G1 F965.1 X103.096 Y115.929 E65.33887
G1 F963.9 X103.676 Y117.107 E65.50199
G1 F965.1 X103.828 Y117.383 E65.54108
G1 F962.6 X104.345 Y117.909 E65.63282
G1 F970.4 X104.748 Y118.586 E65.73004
G1 F965.1 X104.992 Y119.357 E65.83037
G1 F963.9 X105.052 Y120.195 E65.93474
G1 F966.4 X105.18 Y120.426 E65.96746
G1 X105.36 Y120.505 E65.99181
G1 X105.534 Y120.491 E66.01344
G1 X105.682 Y120.4 E66.03496
G1 F965.1 X105.797 Y120.203 E66.06326
G1 F962.6 X105.735 Y119.25 E66.18206
G1 F960 X105.46 Y118.334 E66.30135
G1 F957.4 X105.022 Y117.573 E66.41115
G1 F967.7 X104.852 Y117.372 E66.44372
G1 F976.9 X104.376 Y116.859 E66.5295
G1 F961.3 X103.799 Y115.639 E66.6976
G1 F965.1 X103.694 Y115.363 E66.73423
G1 F963.9 X103.453 Y114.211 E66.88044
G1 F965.1 X103.403 Y113.845 E66.92627
G1 F963.9 X103.431 Y112.736 E67.06408
G1 F965.1 X103.471 Y112.296 E67.11889
G1 F962.6 X103.734 Y111.3 E67.24703
G1 X103.898 Y110.808 E67.31154
G1 F949.9 X104.627 Y109.449 E67.50594
G1 F907.9 X105.208 Y108.807 E67.62013
G1 F900 X105.688 Y108.294 E67.7136
G1 X106.967 Y107.44 E67.9182
G1 X108.48 Y106.885 E68.13261
G1 X109.986 Y106.706 E68.33438
G1 X111.571 Y106.895 E68.54674
G1 X113.019 Y107.433 E68.75225
G1 X114.321 Y108.302 E68.96051
G1 F902.3 X115.378 Y109.443 E69.16692
G1 F944.9 X116.102 Y110.808 E69.36272
G1 F963.9 X116.266 Y111.3 E69.42714
G1 X116.529 Y112.296 E69.55511
G1 F966.4 X116.569 Y112.735 E69.60973
G1 F965.1 X116.598 Y113.845 E69.74748
G1 F966.4 X116.548 Y114.21 E69.79312
G1 F965.1 X116.306 Y115.362 E69.93916
G1 F966.4 X116.201 Y115.638 E69.97575
G1 F962.6 X115.623 Y116.861 E70.14401
G1 F975.6 X115.151 Y117.37 E70.22921
G1 F965.1 X114.978 Y117.573 E70.2623
G1 F958.7 X114.53 Y118.369 E70.37637
G1 F961.3 X114.265 Y119.25 E70.49097
G1 F962.6 X114.201 Y120.206 E70.61015
G1 F965.1 X114.363 Y120.445 E70.64597
G1 F966.4 X114.551 Y120.508 E70.67054
G1 F1500 E64.17054
G1 F300 Z1.2
G0 F6000 X114.655 Y104.781 Z1.2
;TYPE:SKIN
G1 F300 Z0.4
G1 F1500 E70.67054
G1 F900 X114.387 Y104.619 E70.7122
G1 X114.051 Y104.484 E70.76038
G1 X112.702 Y103.985 E70.95173
G1 F803.6 X111.953 Y103.704 E71.07093
G1 F764.3 X110.378 Y103.564 E71.31864
G1 F812.6 X110.01 Y103.55 E71.3729
G1 F811.7 X109.556 Y103.567 E71.43992
G1 F762.7 X107.933 Y103.713 E71.69574
G1 F788.6 X107.36 Y103.953 E71.79006
G1 F878 X107.33 Y103.974 E71.79505
G1 F895.5 X105.79 Y104.545 E72.01466
G1 F900 X105.326 Y104.774 E72.0835
G1 X104.637 Y104.307 E72.19423
G1 X104.01 Y103.988 E72.28783
G1 X103.521 Y103.805 E72.35729
G1 X103.52 Y102.629 E72.51374
G1 F895.5 X107.091 Y102.633 E72.99121
G1 F798.2 X107.848 Y102.726 E73.10561
G1 F745.3 X108.894 Y102.698 E73.27371
G1 F792.1 X109.94 Y102.669 E73.43189
G1 F813.6 X110.37 Y102.674 E73.49518
G1 F766 X112.068 Y102.726 E73.76074
G1 F799.1 X112.815 Y102.635 E73.8735
M104 S225
G1 F894.4 X116.48 Y102.629 E74.36414
G1 F900 X116.48 Y103.809 E74.52113
G1 X116.036 Y103.967 E74.58383
G1 X115.355 Y104.311 E74.68533
G1 X114.655 Y104.781 E74.7975
G1 F1500 E68.2975
G1 F300 Z1.2
G0 F6000 X116 Y103.555 Z1.2
G1 F300 Z0.4
G1 F1500 E74.7975
G1 F900 X115.474 Y103.028 E74.89656
G0 F6000 X115.235 Y103.921
G1 F900 X114.342 Y103.028 E75.06458
G0 F6000 X113.211 Y103.028
G1 F900 X114.358 Y104.176 E75.28048
G1 F1500 E68.78048
G1 F300 Z1.2
G0 F6000 X112.479 Y103.428 Z1.2
