;FLAVOR:Marlin
;TIME:1378
;Filament used: 2.54735m
;Layer height: 0.32
;MINX:85.901
;MINY:85.9
;MINZ:0.32
;MAXX:134.1
;MAXY:134.099
;MAXZ:25.16
;TARGET_MACHINE.NAME:Creality Ender-3 Pro
;Generated with Cura_SteamEngine 5.5.0
M82 ;absolute extrusion mode
; Ender 3 Custom Start G-code
G92 E0 ; Reset Extruder
G28 ; Home all axes
G1 Z5.0 F3000 ; Move Z Axis up a bit during heating to not damage bed
M104 S120 ; Start heating up the nozzle most of the way
M190 S80 ; Start heating the bed, wait until target temperature reached
M109 S220 ; Finish heating the nozzle
G1 Z2.0 F3000 ; Move Z Axis up little to prevent scratching of Heat Bed
G1 X0.1 Y20 Z0.3 F5000.0 ; Move to start position
G1 X0.1 Y200.0 Z0.3 F1500.0 E15 ; Draw the first line
G1 X0.4 Y200.0 Z0.3 F5000.0 ; Move to side a little
G1 X0.4 Y20 Z0.3 F1500.0 E30 ; Draw the second line
G92 E0 ; Reset Extruder
G1 Z2.0 F3000 ; Move Z Axis up little to prevent scratching of Heat Bed
G1 X5 Y20 Z0.3 F5000.0 ; Move over to prevent blob squish
G92 E0
G92 E0
G1 F1500 E-6.5
;LAYER_COUNT:78
;LAYER:0
M107
G1 F300 Z0.52
G0 F6000 X89.521 Y89.332 Z0.52
;TYPE:SKIRT
G1 F300 Z0.32
G1 F1500 E0
G1 F900 X90.416 Y88.539 E0.12727
G1 X91.207 Y87.958 E0.23173
G1 X92.102 Y87.411 E0.34337
G1 X93.111 Y86.912 E0.46317
G1 X94.092 Y86.534 E0.57506
G1 X95.036 Y86.26 E0.67968
G1 X96.165 Y86.04 E0.80211
G1 X97.527 Y85.917 E0.94766
G1 X98.232 Y85.901 E1.02271
G1 X121.412 Y85.9 E3.48981
G1 X122.333 Y85.913 E3.58785
G1 X123.243 Y85.966 E3.68487
G1 X124.423 Y86.141 E3.81183
G1 X125.379 Y86.371 E3.91648
G1 X126.44 Y86.728 E4.03563
G1 X127.276 Y87.09 E4.13259
G1 X128.264 Y87.622 E4.25202
G1 X129.142 Y88.202 E4.36402
G1 X130.019 Y88.905 E4.48365
G1 X130.777 Y89.632 E4.59543
G1 X131.381 Y90.316 E4.69255
G1 X132.009 Y91.159 E4.80443
G1 X132.596 Y92.114 E4.92374
G1 X133.035 Y92.993 E5.02831
G1 X133.471 Y94.108 E5.15574
G1 X133.744 Y95.052 E5.26033
G1 X133.962 Y96.178 E5.38239
G1 X134.083 Y97.527 E5.52655
G1 X134.1 Y98.267 E5.60533
G1 X134.098 Y121.515 E8.07967
G1 X134.087 Y122.31 E8.16429
G1 X134.029 Y123.291 E8.26888
G1 X133.865 Y124.397 E8.38789
G1 X133.656 Y125.285 E8.48498
G1 X133.281 Y126.419 E8.6121
G1 X132.92 Y127.256 E8.70912
G1 X132.389 Y128.244 E8.8285
G1 X131.768 Y129.182 E8.94823
G1 X131.156 Y129.95 E9.05275
G1 X130.484 Y130.663 E9.15703
G1 X129.645 Y131.41 E9.27659
G1 X128.743 Y132.074 E9.3958
G1 X127.965 Y132.551 E9.49293
G1 X126.897 Y133.082 E9.61987
G1 X125.914 Y133.463 E9.73208
G1 X125.039 Y133.72 E9.82914
G1 X123.843 Y133.958 E9.95893
G1 X122.504 Y134.081 E10.10204
G1 X121.765 Y134.099 E10.18072
G1 X98.453 Y134.098 E12.66187
G1 X97.682 Y134.087 E12.74394
G1 X96.635 Y134.021 E12.8556
G1 X95.664 Y133.877 E12.96007
G1 X94.574 Y133.616 E13.07936
G1 X93.708 Y133.33 E13.17643
G1 X92.611 Y132.855 E13.30366
G1 X91.688 Y132.351 E13.41559
G1 X90.927 Y131.849 E13.51262
G1 X89.995 Y131.108 E13.63935
G1 X89.333 Y130.481 E13.73639
G1 X88.54 Y129.586 E13.86366
G1 X87.959 Y128.795 E13.96812
G1 X87.446 Y127.961 E14.07233
G1 X86.913 Y126.89 E14.19966
G1 X86.535 Y125.909 E14.31155
G1 X86.261 Y124.966 E14.41607
G1 X86.04 Y123.833 E14.53893
G1 X85.914 Y122.404 E14.69161
G1 X85.901 Y121.757 E14.76048
G1 X85.902 Y98.442 E17.24196
G1 X85.913 Y97.68 E17.32307
G1 X85.979 Y96.634 E17.43462
G1 X86.11 Y95.731 E17.53173
G1 X86.386 Y94.568 E17.65895
G1 X86.698 Y93.636 E17.76355
G1 X87.146 Y92.609 E17.88281
G1 X87.65 Y91.687 E17.99464
G1 X88.152 Y90.926 E18.09167
G1 X88.846 Y90.047 E18.21087
G1 X89.521 Y89.332 E18.31553
G0 F6000 X90.103 Y89.881
G1 F900 X90.89 Y89.184 E18.42741
G1 X91.681 Y88.603 E18.53187
G1 X92.459 Y88.127 E18.62895
G1 X93.401 Y87.658 E18.74094
G1 X94.317 Y87.302 E18.84554
G1 X95.192 Y87.045 E18.9426
G1 X96.238 Y86.837 E19.05611
G1 X97.546 Y86.717 E19.19591
G1 X98.232 Y86.701 E19.26894
G1 X121.401 Y86.7 E21.73487
G1 X122.286 Y86.712 E21.82908
G1 X123.196 Y86.765 E21.92609
G1 X124.236 Y86.919 E22.03799
G1 X125.192 Y87.149 E22.14264
G1 X126.122 Y87.462 E22.24708
G1 X126.958 Y87.824 E22.34404
G1 X127.823 Y88.29 E22.44862
G1 X128.701 Y88.87 E22.56061
G1 X129.467 Y89.484 E22.6651
G1 X130.177 Y90.162 E22.76959
G1 X130.781 Y90.846 E22.86671
G1 X131.366 Y91.635 E22.97125
G1 X131.88 Y92.471 E23.07569
G1 X132.319 Y93.35 E23.18027
G1 X132.702 Y94.33 E23.29225
G1 X132.975 Y95.274 E23.39684
G1 X133.165 Y96.251 E23.50278
G1 X133.283 Y97.546 E23.64118
G1 X133.3 Y98.267 E23.71794
G1 X133.298 Y121.504 E26.19111
G1 X133.288 Y122.263 E26.2719
G1 X133.23 Y123.244 E26.37649
G1 X133.086 Y124.214 E26.48086
G1 X132.877 Y125.102 E26.57795
G1 X132.546 Y126.102 E26.69007
G1 X132.185 Y126.939 E26.78708
G1 X131.721 Y127.804 E26.89155
G1 X131.142 Y128.683 E27.00358
G1 X130.53 Y129.451 E27.1081
G1 X129.903 Y130.113 E27.20515
G1 X129.115 Y130.811 E27.31718
G1 X128.325 Y131.392 E27.42156
G1 X127.547 Y131.869 E27.51869
G1 X126.606 Y132.337 E27.63054
G1 X125.689 Y132.695 E27.73531
G1 X124.814 Y132.952 E27.83238
G1 X123.769 Y133.161 E27.9458
G1 X122.484 Y133.281 E28.08316
G1 X121.765 Y133.299 E28.15971
G1 X98.464 Y133.298 E30.63969
G1 X97.73 Y133.288 E30.71782
G1 X96.75 Y133.229 E30.82231
G1 X95.848 Y133.098 E30.91932
G1 X94.825 Y132.856 E31.03121
G1 X93.959 Y132.57 E31.12828
G1 X92.993 Y132.152 E31.2403
G1 X92.129 Y131.683 E31.34493
G1 X91.368 Y131.181 E31.44196
G1 X90.545 Y130.527 E31.55385
G1 X89.883 Y129.9 E31.65089
G1 X89.185 Y129.112 E31.76293
G1 X88.604 Y128.321 E31.86739
G1 X88.128 Y127.543 E31.96446
G1 X87.659 Y126.6 E32.07656
G1 X87.303 Y125.684 E32.18115
G1 X87.046 Y124.809 E32.27822
G1 X86.837 Y123.762 E32.39185
G1 X86.714 Y122.388 E32.53867
G1 X86.701 Y121.757 E32.60584
G1 X86.702 Y98.453 E35.08615
G1 X86.712 Y97.728 E35.16332
G1 X86.771 Y96.749 E35.2677
G1 X86.902 Y95.846 E35.36482
G1 X87.145 Y94.822 E35.47683
G1 X87.457 Y93.89 E35.58144
G1 X87.849 Y92.991 E35.68582
G1 X88.318 Y92.128 E35.79036
G1 X88.82 Y91.367 E35.88739
G1 X89.428 Y90.596 E35.99189
G1 X90.103 Y89.881 E36.09655
G0 F6000 X90.683 Y90.432
G1 F900 X91.366 Y89.827 E36.19366
G1 X92.099 Y89.285 E36.29068
G1 X92.877 Y88.809 E36.38776
G1 X93.693 Y88.403 E36.48476
G1 X94.542 Y88.07 E36.58183
G1 X95.417 Y87.813 E36.67889
G1 X96.311 Y87.634 E36.77593
G1 X97.619 Y87.514 E36.91573
G1 X98.232 Y87.501 E36.98098
G1 X121.391 Y87.5 E39.44585
G1 X122.239 Y87.511 E39.53611
G1 X123.149 Y87.564 E39.63313
G1 X124.051 Y87.697 E39.73017
G1 X124.939 Y87.908 E39.82732
G1 X125.804 Y88.196 E39.92435
G1 X126.64 Y88.558 E40.02131
G1 X127.442 Y88.993 E40.11842
G1 X128.203 Y89.496 E40.2155
G1 X128.916 Y90.064 E40.31253
G1 X129.577 Y90.692 E40.40957
G1 X130.181 Y91.376 E40.50669
G1 X130.722 Y92.11 E40.60374
G1 X131.197 Y92.888 E40.70075
G1 X131.602 Y93.705 E40.79781
G1 X131.934 Y94.555 E40.89493
G1 X132.19 Y95.43 E40.99196
G1 X132.368 Y96.324 E41.08898
G1 X132.486 Y97.619 E41.22738
G1 X132.5 Y98.267 E41.29637
G1 X132.498 Y121.494 E43.76847
G1 X132.489 Y122.218 E43.84554
G1 X132.438 Y123.129 E43.94265
G1 X132.307 Y124.031 E44.03966
G1 X132.098 Y124.919 E44.13675
G1 X131.811 Y125.785 E44.23385
G1 X131.45 Y126.622 E44.33087
G1 X131.017 Y127.424 E44.42787
G1 X130.515 Y128.186 E44.52499
G1 X129.949 Y128.901 E44.62205
G1 X129.322 Y129.563 E44.71909
G1 X128.639 Y130.168 E44.81621
G1 X127.907 Y130.71 E44.91315
G1 X127.129 Y131.187 E45.01027
G1 X126.313 Y131.593 E45.10728
G1 X125.464 Y131.927 E45.20438
G1 X124.589 Y132.184 E45.30144
G1 X123.695 Y132.364 E45.3985
G1 X122.41 Y132.484 E45.53586
G1 X121.765 Y132.499 E45.60453
G1 X98.474 Y132.498 E48.08345
G1 X97.776 Y132.489 E48.15775
G1 X96.865 Y132.437 E48.25486
G1 X95.963 Y132.306 E48.35187
G1 X95.076 Y132.096 E48.44889
G1 X94.21 Y131.81 E48.54596
G1 X93.373 Y131.448 E48.64301
G1 X92.57 Y131.015 E48.74011
G1 X91.809 Y130.513 E48.83714
G1 X91.095 Y129.946 E48.93418
G1 X90.433 Y129.319 E49.03123
G1 X89.828 Y128.636 E49.12834
G1 X89.286 Y127.903 E49.22536
G1 X88.81 Y127.125 E49.32244
G1 X88.404 Y126.308 E49.41954
G1 X88.071 Y125.459 E49.5166
G1 X87.814 Y124.584 E49.61366
G1 X87.634 Y123.69 E49.71072
G1 X87.514 Y122.371 E49.85169
G1 X87.501 Y121.757 E49.91705
G1 X87.502 Y98.463 E52.39629
G1 X87.511 Y97.774 E52.46963
G1 X87.563 Y96.864 E52.56664
G1 X87.694 Y95.961 E52.66375
G1 X87.904 Y95.074 E52.76077
G1 X88.191 Y94.208 E52.85787
G1 X88.553 Y93.371 E52.95493
G1 X88.986 Y92.569 E53.05193
G1 X89.488 Y91.808 E53.14896
G1 X90.055 Y91.093 E53.24609
G1 X90.683 Y90.432 E53.34313
G1 F1500 E46.84313
G1 F300 Z0.52
;MESH:Kappe St??tze-Body.stl
G0 F6000 X119.284 Y119.284 Z0.52
;TYPE:WALL-INNER
G1 F300 Z0.32
G1 F1500 E53.34313
G1 F900 X119.284 Y100.716 E55.31936
G1 X100.716 Y100.716 E57.2956
G1 X100.716 Y119.284 E59.27184
G1 X119.284 Y119.284 E61.24808
G0 F6000 X120.084 Y120.084
G1 F900 X120.084 Y99.916 E63.39461
G1 X99.916 Y99.916 E65.54113
G1 X99.916 Y120.084 E67.68766
G1 X120.084 Y120.084 E69.83419
G0 F6000 X120.884 Y120.884
;TYPE:WALL-OUTER
G1 F900 X120.884 Y99.116 E72.15101
G1 X99.116 Y99.116 E74.46784
G1 X99.116 Y120.884 E76.78466
G1 X120.884 Y120.884 E79.10148
G1 F1500 E72.60148
G1 F300 Z0.52
G0 F6000 X118.564 Y118.564 Z0.52
;TYPE:SKIN
G1 F300 Z0.32
G1 F1500 E79.10148
G1 F900 X101.436 Y118.564 E80.92445
G1 X101.436 Y101.436 E82.74743
G1 X118.564 Y101.436 E84.5704
G1 X118.564 Y118.564 E86.39338
G1 F1500 E79.89338
G1 F300 Z0.52
G0 F6000 X118.163 Y102.324 Z0.52
G1 F300 Z0.32
G1 F1500 E86.39338
G1 F900 X117.675 Y101.836 E86.46683
G0 F6000 X116.543 Y101.836
G1 F900 X118.163 Y103.456 E86.71067
G0 F6000 X118.163 Y104.587
G1 F900 X115.412 Y101.836 E87.12474
G0 F6000 X114.281 Y101.836
G1 F900 X118.163 Y105.718 E87.70906
G0 F6000 X118.163 Y106.85
G1 F900 X113.149 Y101.836 E88.46375
G0 F6000 X112.018 Y101.836
G1 F900 X118.163 Y107.981 E89.38869
G0 F6000 X118.163 Y109.112
G1 F900 X110.887 Y101.836 E90.48386
G0 F6000 X109.755 Y101.836
G1 F900 X118.163 Y110.244 E91.74942
G0 F6000 X118.163 Y111.375
G1 F900 X108.624 Y101.836 E93.18521
G0 F6000 X107.492 Y101.836
G1 F900 X118.163 Y112.507 E94.79139
G0 F6000 X118.163 Y113.638
G1 F900 X106.361 Y101.836 E96.5678
G0 F6000 X105.23 Y101.836
G1 F900 X118.163 Y114.769 E98.51446
G0 F6000 X118.163 Y115.901
G1 F900 X104.098 Y101.836 E100.63149
G0 F6000 X102.967 Y101.836
G1 F900 X118.163 Y117.032 E102.91877
G0 F6000 X118.163 Y118.163
G1 F900 X101.835 Y101.835 E105.37643
G0 F6000 X101.835 Y102.966
G1 F900 X117.031 Y118.163 E107.66378
G0 F6000 X115.9 Y118.163
G1 F900 X101.835 Y104.098 E109.78082
G0 F6000 X101.835 Y105.229
G1 F900 X114.769 Y118.163 E111.72762
G0 F6000 X113.637 Y118.163
G1 F900 X101.835 Y106.36 E113.50411
G0 F6000 X101.835 Y107.492
G1 F900 X112.506 Y118.163 E115.11029
G0 F6000 X111.374 Y118.163
G1 F900 X101.835 Y108.623 E116.54616
G0 F6000 X101.835 Y109.754
G1 F900 X110.243 Y118.163 E117.81179
G0 F6000 X109.112 Y118.163
G1 F900 X101.835 Y110.886 E118.90711
G0 F6000 X101.835 Y112.017
G1 F900 X107.98 Y118.163 E119.83212
G0 F6000 X106.849 Y118.163
M104 S215
G1 F900 X101.835 Y113.149 E120.58682
G0 F6000 X101.835 Y114.28
G1 F900 X105.718 Y118.163 E121.17128
G0 F6000 X104.586 Y118.163
G1 F900 X101.835 Y115.411 E121.58543
G0 F6000 X101.835 Y116.543
G1 F900 X103.455 Y118.163 E121.82927
G0 F6000 X102.324 Y118.163
G1 F900 X101.835 Y117.674 E121.90288
G1 F1500 E115.40288
G1 F300 Z0.52
;MESH:NONMESH
G0 F6000 X90.683 Y90.432 Z0.52
;TIME_ELAPSED:86.796639
;LAYER:1
M140 S70
M106 S127.5
G0 F7500 X90.683 Y90.432 Z0.84
;TYPE:SKIRT
G1 F300 Z0.64
G1 F1500 E121.90288
G1 F900 X91.366 Y89.827 E121.99999
G1 X92.099 Y89.285 E122.09701
G1 X92.877 Y88.809 E122.19409
G1 X93.693 Y88.403 E122.29109
G1 X94.542 Y88.07 E122.38815
G1 X95.417 Y87.813 E122.48522
G1 X96.311 Y87.634 E122.58226
G1 X97.619 Y87.514 E122.72205
G1 X98.232 Y87.501 E122.78731
G1 X121.391 Y87.5 E125.25218
G1 X122.239 Y87.511 E125.34244
G1 X123.149 Y87.564 E125.43946
G1 X124.051 Y87.697 E125.5365
G1 X124.939 Y87.908 E125.63364
G1 X125.804 Y88.196 E125.73068
G1 X126.64 Y88.558 E125.82764
G1 X127.442 Y88.993 E125.92474
G1 X128.203 Y89.496 E126.02183
G1 X128.916 Y90.064 E126.11886
G1 X129.577 Y90.692 E126.2159
G1 X130.181 Y91.376 E126.31302
G1 X130.722 Y92.11 E126.41007
G1 X131.197 Y92.888 E126.50708
G1 X131.602 Y93.705 E126.60414
G1 X131.934 Y94.555 E126.70126
G1 X132.19 Y95.43 E126.79829
G1 X132.368 Y96.324 E126.89531
G1 X132.486 Y97.619 E127.03371
G1 X132.5 Y98.267 E127.1027
G1 X132.498 Y121.494 E129.5748
G1 X132.489 Y122.218 E129.65186
G1 X132.438 Y123.129 E129.74898
G1 X132.307 Y124.031 E129.84599
G1 X132.098 Y124.919 E129.94308
G1 X131.811 Y125.785 E130.04018
G1 X131.45 Y126.622 E130.1372
G1 X131.017 Y127.424 E130.2342
G1 X130.515 Y128.186 E130.33132
G1 X129.949 Y128.901 E130.42838
G1 X129.322 Y129.563 E130.52542
G1 X128.639 Y130.168 E130.62253
G1 X127.907 Y130.71 E130.71947
G1 X127.129 Y131.187 E130.8166
G1 X126.313 Y131.593 E130.91361
G1 X125.464 Y131.927 E131.01071
G1 X124.589 Y132.184 E131.10777
G1 X123.695 Y132.364 E131.20483
G1 X122.41 Y132.484 E131.34219
G1 X121.765 Y132.499 E131.41086
G1 X98.474 Y132.498 E133.88978
G1 X97.776 Y132.489 E133.96407
G1 X96.865 Y132.437 E134.06119
G1 X95.963 Y132.306 E134.1582
G1 X95.076 Y132.096 E134.25522
G1 X94.21 Y131.81 E134.35228
G1 X93.373 Y131.448 E134.44934
G1 X92.57 Y131.015 E134.54644
G1 X91.809 Y130.513 E134.64347
G1 X91.095 Y129.946 E134.74051
G1 X90.433 Y129.319 E134.83756
G1 X89.828 Y128.636 E134.93467
G1 X89.286 Y127.903 E135.03169
G1 X88.81 Y127.125 E135.12877
G1 X88.404 Y126.308 E135.22587
G1 X88.071 Y125.459 E135.32293
G1 X87.814 Y124.584 E135.41999
G1 X87.634 Y123.69 E135.51705
G1 X87.514 Y122.371 E135.65802
G1 X87.501 Y121.757 E135.72338
G1 X87.502 Y98.463 E138.20262
G1 X87.511 Y97.774 E138.27596
G1 X87.563 Y96.864 E138.37297
G1 X87.694 Y95.961 E138.47008
G1 X87.904 Y95.074 E138.5671
G1 X88.191 Y94.208 E138.6642
G1 X88.553 Y93.371 E138.76126
G1 X88.986 Y92.569 E138.85826
G1 X89.488 Y91.808 E138.95529
G1 X90.055 Y91.093 E139.05241
G1 X90.683 Y90.432 E139.14946
G1 F1500 E132.64946
G1 F300 Z0.84
;MESH:Kappe St??tze-Body.stl
G0 F7500 X119.799 Y119.799 Z0.84
;TYPE:WALL-INNER
G1 F300 Z0.64
G1 F1500 E139.14946
G1 F1200 X119.799 Y100.201 E141.23532
G1 X100.201 Y100.201 E143.32118
G1 X100.201 Y119.799 E145.40704
G1 X119.799 Y119.799 E147.49291
G0 F7500 X120.599 Y120.599
G1 F1200 X120.599 Y99.401 E149.74906
G1 X99.401 Y99.401 E152.00522
G1 X99.401 Y120.599 E154.26137
G1 X120.599 Y120.599 E156.51753
G0 F7500 X121.399 Y121.399
;TYPE:WALL-OUTER
G1 F1200 X121.399 Y98.601 E158.94397
G1 X98.601 Y98.601 E161.37042
G1 X98.601 Y121.399 E163.79686
G1 X121.399 Y121.399 E166.22331
G1 F1500 E159.72331
G1 F300 Z0.84
G0 F7500 X119.079 Y119.079 Z0.84
;TYPE:SKIN
G1 F300 Z0.64
G1 F1500 E166.22331
G1 F1200 X100.921 Y119.079 E168.15591
G1 X100.921 Y100.921 E170.08851
G1 X119.079 Y100.921 E172.02111
G1 X119.079 Y119.079 E173.95371
G0 F7500 X118.677 Y117.778
G1 F1200 X117.777 Y118.678 E174.08918
G0 F7500 X116.646 Y118.678
G1 F1200 X118.677 Y116.647 E174.39488
G0 F7500 X118.677 Y115.515
G1 F1200 X115.515 Y118.678 E174.87089
G0 F7500 X114.383 Y118.678
G1 F1200 X118.677 Y114.384 E175.51722
G0 F7500 X118.677 Y113.253
G1 F1200 X113.252 Y118.678 E176.33378
G0 F7500 X112.12 Y118.678
G1 F1200 X118.677 Y112.121 E177.32073
G0 F7500 X118.677 Y110.99
G1 F1200 X110.989 Y118.678 E178.47791
G0 F7500 X109.858 Y118.678
G1 F1200 X118.677 Y109.858 E179.80541
G0 F7500 X118.677 Y108.727
G1 F1200 X108.726 Y118.678 E181.30321
G0 F7500 X107.595 Y118.678
G1 F1200 X118.677 Y107.596 E182.97126
G0 F7500 X118.677 Y106.464
G1 F1200 X106.464 Y118.678 E184.80961
G0 F7500 X105.332 Y118.678
G1 F1200 X118.677 Y105.333 E186.81828
G0 F7500 X118.677 Y104.202
G1 F1200 X104.201 Y118.678 E188.99718
G0 F7500 X103.07 Y118.678
G1 F1200 X118.677 Y103.07 E191.34639
G0 F7500 X118.677 Y101.939
G1 F1200 X101.938 Y118.678 E193.86591
G0 F7500 X101.321 Y118.164
G1 F1200 X118.165 Y101.32 E196.40124
G0 F7500 X117.033 Y101.32
G1 F1200 X101.321 Y117.033 E198.76626
G0 F7500 X101.321 Y115.901
G1 F1200 X115.902 Y101.32 E200.96096
G0 F7500 X114.771 Y101.32
G1 F1200 X101.321 Y114.77 E202.98543
G0 F7500 X101.321 Y113.639
G1 F1200 X113.639 Y101.32 E204.83959
G0 F7500 X112.508 Y101.32
G1 F1200 X101.321 Y112.507 E206.52344
G0 F7500 X101.321 Y111.376
G1 F1200 X111.377 Y101.32 E208.03705
