;FLAVOR:Marlin
;TIME:2638
;Filament used: 3.65624m
;Layer height: 0.32
;MINX:88.313
;MINY:88.307
;MINZ:0.32
;MAXX:131.69
;MAXY:131.691
;MAXZ:46.56
;TARGET_MACHINE.NAME:Creality Ender-3 Pro
;Generated with Cura_SteamEngine 5.5.0
M82 ;absolute extrusion mode
; Ender 3 Custom Start G-code
G92 E0 ; Reset Extruder
G28 ; Home all axes
G1 Z5.0 F3000 ; Move Z Axis up a bit during heating to not damage bed
M104 S120 ; Start heating up the nozzle most of the way
M190 S70 ; Start heating the bed, wait until target temperature reached
M109 S225 ; Finish heating the nozzle
G1 Z2.0 F3000 ; Move Z Axis up little to prevent scratching of Heat Bed
G1 X0.1 Y20 Z0.3 F5000.0 ; Move to start position
G1 X0.1 Y200.0 Z0.3 F1500.0 E15 ; Draw the first line
G1 X0.4 Y200.0 Z0.3 F5000.0 ; Move to side a little
G1 X0.4 Y20 Z0.3 F1500.0 E30 ; Draw the second line
G92 E0 ; Reset Extruder
G1 Z2.0 F3000 ; Move Z Axis up little to prevent scratching of Heat Bed
G1 X5 Y20 Z0.3 F5000.0 ; Move over to prevent blob squish
G92 E0
G92 E0
G1 F1500 E-6.5
;LAYER_COUNT:144
;LAYER:0
M107
G1 F300 Z1.12
G0 F6000 X94.434 Y94.892 Z1.12
;TYPE:SKIRT
G1 F300 Z0.32
G1 F1500 E0
G1 F900 X95.226 Y94.115 E0.11809
G1 X95.865 Y93.544 E0.20929
G1 X96.891 Y92.715 E0.34968
G1 X97.713 Y92.122 E0.45756
G1 X98.587 Y91.551 E0.56868
G1 X99.465 Y91.037 E0.67696
G1 X100.53 Y90.483 E0.80473
G1 X101.391 Y90.088 E0.90555
G1 X102.476 Y89.653 E1.02997
G1 X103.361 Y89.349 E1.12956
G1 X104.437 Y89.032 E1.24895
G1 X105.487 Y88.781 E1.36385
G1 X106.738 Y88.553 E1.49919
G1 X107.488 Y88.452 E1.57974
G1 X108.735 Y88.344 E1.71295
G1 X109.989 Y88.307 E1.84648
G1 X111.131 Y88.336 E1.96806
G1 X112.074 Y88.407 E2.06871
G1 X113.175 Y88.54 E2.18675
G1 X114.051 Y88.689 E2.28132
G1 X115.312 Y88.966 E2.41873
G1 X116.12 Y89.187 E2.50789
G1 X117.249 Y89.554 E2.63424
G1 X118.16 Y89.9 E2.73796
G1 X119.397 Y90.449 E2.882
G1 X120.313 Y90.914 E2.99133
G1 X121.08 Y91.349 E3.08518
G1 X122.203 Y92.064 E3.22688
G1 X123.138 Y92.738 E3.34955
G1 X123.939 Y93.378 E3.45867
G1 X124.522 Y93.885 E3.5409
G1 X125.381 Y94.704 E3.66723
G1 X126.254 Y95.636 E3.80314
G1 X126.917 Y96.421 E3.9125
G1 X127.49 Y97.168 E4.0127
G1 X128.237 Y98.256 E4.15317
G1 X128.776 Y99.137 E4.26309
G1 X129.144 Y99.798 E4.34361
G1 X129.692 Y100.906 E4.47517
G1 X130.097 Y101.835 E4.58304
G1 X130.545 Y103.038 E4.71967
G1 X130.826 Y103.927 E4.8189
G1 X131.124 Y105.064 E4.944
G1 X131.319 Y105.992 E5.04493
G1 X131.502 Y107.116 E5.16613
G1 X131.618 Y108.195 E5.28163
G1 X131.682 Y109.311 E5.40061
G1 X131.69 Y110.273 E5.503
G1 X131.64 Y111.52 E5.63583
G1 X131.56 Y112.393 E5.72913
G1 X131.382 Y113.664 E5.86573
G1 X131.256 Y114.327 E5.93755
G1 X131.131 Y114.895 E5.99945
G1 X130.92 Y115.735 E6.09163
G1 X130.552 Y116.939 E6.22563
G1 X130.191 Y117.929 E6.33779
G1 X129.804 Y118.85 E6.44411
G1 X129.364 Y119.776 E6.55323
G1 X128.855 Y120.727 E6.66803
G1 X128.329 Y121.602 E6.77669
G1 X127.654 Y122.605 E6.90537
G1 X126.989 Y123.488 E7.02302
G1 X126.282 Y124.335 E7.14044
G1 X125.686 Y124.983 E7.23415
G1 X124.826 Y125.835 E7.36299
G1 X124.101 Y126.482 E7.46642
G1 X123.114 Y127.279 E7.60144
G1 X122.349 Y127.834 E7.70203
G1 X121.445 Y128.428 E7.81716
G1 X120.652 Y128.897 E7.91521
G1 X119.682 Y129.411 E8.03205
G1 X118.77 Y129.838 E8.13923
G1 X117.459 Y130.369 E8.28977
G1 X116.401 Y130.726 E8.40862
G1 X115.555 Y130.968 E8.50227
G1 X114.315 Y131.259 E8.63783
G1 X113.33 Y131.435 E8.74433
G1 X112.23 Y131.576 E8.86236
G1 X111.242 Y131.657 E8.96787
G1 X110.273 Y131.691 E9.07107
G1 X109.155 Y131.675 E9.19007
G1 X107.852 Y131.586 E9.32907
G1 X107.048 Y131.492 E9.41523
G1 X105.803 Y131.282 E9.54961
G1 X104.665 Y131.025 E9.67378
G1 X103.568 Y130.716 E9.79508
G1 X102.628 Y130.4 E9.90063
G1 X101.664 Y130.025 E10.01072
G1 X100.631 Y129.563 E10.13116
G1 X99.611 Y129.042 E10.25306
G1 X98.746 Y128.543 E10.35935
G1 X97.809 Y127.941 E10.47788
G1 X96.875 Y127.27 E10.60028
G1 X96.12 Y126.671 E10.70286
G1 X95.375 Y126.021 E10.80809
G1 X94.568 Y125.245 E10.92725
G1 X93.764 Y124.384 E11.05263
G1 X93.086 Y123.583 E11.16432
G1 X92.385 Y122.66 E11.28768
G1 X91.812 Y121.821 E11.39581
G1 X91.237 Y120.883 E11.51291
G1 X90.702 Y119.902 E11.63184
G1 X90.256 Y118.986 E11.74027
G1 X89.898 Y118.155 E11.83657
G1 X89.526 Y117.166 E11.94904
G1 X89.168 Y116.046 E12.07418
G1 X88.885 Y114.972 E12.19239
G1 X88.673 Y113.962 E12.30223
G1 X88.521 Y113.038 E12.4019
G1 X88.388 Y111.855 E12.5286
G1 X88.317 Y110.63 E12.6592
G1 X88.313 Y109.536 E12.77564
G1 X88.364 Y108.42 E12.89454
G1 X88.442 Y107.576 E12.98475
G1 X88.633 Y106.254 E13.12692
G1 X88.838 Y105.227 E13.23838
G1 X89.089 Y104.228 E13.34801
G1 X89.432 Y103.105 E13.47298
G1 X89.711 Y102.324 E13.56125
G1 X90.155 Y101.238 E13.68612
G1 X90.58 Y100.334 E13.79244
G1 X91.099 Y99.357 E13.91019
G1 X91.73 Y98.302 E14.04102
G1 X92.242 Y97.541 E14.13865
G1 X93.045 Y96.467 E14.28137
G1 X93.58 Y95.823 E14.37048
G1 X94.434 Y94.892 E14.50494
G0 F6000 X95.024 Y95.433
G1 F900 X95.759 Y94.712 E14.61452
G1 X96.398 Y94.141 E14.70573
G1 X97.359 Y93.364 E14.83726
G1 X98.181 Y92.771 E14.94514
G1 X99.024 Y92.221 E15.05227
G1 X99.834 Y91.747 E15.15216
G1 X100.899 Y91.193 E15.27993
G1 X101.689 Y90.831 E15.37241
G1 X102.774 Y90.396 E15.49683
G1 X103.587 Y90.116 E15.58835
G1 X104.624 Y89.81 E15.70342
G1 X105.631 Y89.568 E15.81365
G1 X106.845 Y89.346 E15.945
G1 X107.595 Y89.245 E16.02555
G1 X108.759 Y89.144 E16.1499
G1 X109.969 Y89.107 E16.27874
G1 X111.071 Y89.134 E16.39607
G1 X112.014 Y89.205 E16.49672
G1 X113.041 Y89.329 E16.60682
G1 X113.917 Y89.478 E16.70139
G1 X115.101 Y89.738 E16.83041
G1 X115.909 Y89.959 E16.91957
G1 X116.965 Y90.302 E17.03774
G1 X117.876 Y90.648 E17.14146
G1 X119.035 Y91.162 E17.2764
G1 X119.918 Y91.61 E17.38178
G1 X120.685 Y92.045 E17.47563
G1 X121.736 Y92.713 E17.60817
G1 X122.639 Y93.363 E17.72659
G1 X123.414 Y93.982 E17.83216
G1 X123.997 Y94.489 E17.91439
G1 X124.797 Y95.251 E18.03198
G1 X125.67 Y96.183 E18.16789
G1 X126.282 Y96.908 E18.26887
G1 X126.855 Y97.655 E18.36908
G1 X127.555 Y98.674 E18.50065
G1 X128.077 Y99.526 E18.607
G1 X128.445 Y100.187 E18.68752
G1 X128.975 Y101.26 E18.81489
G1 X129.347 Y102.114 E18.91404
G1 X129.795 Y103.317 E19.05067
G1 X130.052 Y104.13 E19.14142
G1 X130.35 Y105.267 E19.26652
G1 X130.529 Y106.121 E19.35939
G1 X130.712 Y107.245 E19.48059
G1 X130.819 Y108.241 E19.58721
G1 X130.883 Y109.357 E19.70618
G1 X130.89 Y110.279 E19.80431
G1 X130.843 Y111.447 E19.92873
G1 X130.763 Y112.32 E20.02203
G1 X130.596 Y113.515 E20.15046
G1 X130.475 Y114.155 E20.21978
G1 X130.355 Y114.7 E20.27917
G1 X130.144 Y115.54 E20.37135
G1 X129.8 Y116.666 E20.49667
G1 X129.453 Y117.62 E20.60471
G1 X129.081 Y118.507 E20.70708
G1 X128.641 Y119.433 E20.8162
G1 X128.169 Y120.315 E20.92267
G1 X127.665 Y121.155 E21.02693
G1 X126.99 Y122.158 E21.1556
G1 X126.374 Y122.976 E21.26459
G1 X125.693 Y123.793 E21.37779
G1 X125.097 Y124.441 E21.4715
G1 X124.293 Y125.238 E21.59199
G1 X123.568 Y125.885 E21.69541
G1 X122.644 Y126.631 E21.82181
G1 X121.879 Y127.186 E21.9224
G1 X121.038 Y127.739 E22.02952
G1 X120.245 Y128.208 E22.12758
G1 X119.308 Y128.704 E22.24042
G1 X118.469 Y129.097 E22.33903
G1 X117.203 Y129.611 E22.48445
G1 X116.18 Y129.957 E22.59939
G1 X115.372 Y130.189 E22.68886
G1 X114.174 Y130.471 E22.81985
G1 X113.189 Y130.647 E22.92635
G1 X112.165 Y130.779 E23.03624
G1 X111.214 Y130.857 E23.1378
G1 X110.245 Y130.891 E23.24099
G1 X109.167 Y130.875 E23.35574
G1 X107.945 Y130.791 E23.48611
G1 X107.141 Y130.697 E23.57226
G1 X105.937 Y130.493 E23.70223
G1 X104.882 Y130.255 E23.81734
G1 X103.822 Y129.957 E23.93453
G1 X102.918 Y129.654 E24.03601
G1 X101.954 Y129.279 E24.1461
G1 X100.958 Y128.833 E24.26225
G1 X100.011 Y128.349 E24.37544
G1 X99.146 Y127.85 E24.48173
G1 X98.276 Y127.291 E24.59179
G1 X97.342 Y126.62 E24.71419
G1 X96.646 Y126.068 E24.80874
G1 X95.93 Y125.444 E24.90982
G1 X95.123 Y124.668 E25.02898
G1 X94.375 Y123.867 E25.14562
G1 X93.697 Y123.066 E25.25732
G1 X93.046 Y122.209 E25.37186
G1 X92.473 Y121.37 E25.48
G1 X91.939 Y120.499 E25.58873
G1 X91.421 Y119.551 E25.70371
G1 X90.991 Y118.669 E25.80815
G1 X90.633 Y117.838 E25.90445
G1 X90.275 Y116.885 E26.0128
G1 X89.942 Y115.842 E26.12933
G1 X89.659 Y114.768 E26.24754
G1 X89.456 Y113.798 E26.35302
G1 X89.316 Y112.948 E26.4447
G1 X89.187 Y111.809 E26.56671
G1 X89.116 Y110.584 E26.6973
G1 X89.113 Y109.534 E26.80906
G1 X89.161 Y108.494 E26.91987
G1 X89.239 Y107.65 E27.01008
G1 X89.418 Y106.411 E27.14332
G1 X89.623 Y105.384 E27.25478
G1 X89.865 Y104.423 E27.36025
G1 X90.185 Y103.374 E27.47698
G1 X90.452 Y102.627 E27.56141
G1 X90.896 Y101.541 E27.68628
G1 X91.304 Y100.675 E27.78817
G1 X91.805 Y99.733 E27.90173
G1 X92.394 Y98.749 E28.02379
G1 X92.906 Y97.988 E28.12141
G1 X93.661 Y96.978 E28.25562
G1 X94.17 Y96.364 E28.3405
G1 X95.024 Y95.433 E28.47497
G0 F6000 X95.584 Y96.004
G1 F900 X96.292 Y95.309 E28.58056
G1 X96.931 Y94.738 E28.67177
G1 X97.827 Y94.013 E28.79444
G1 X98.649 Y93.42 E28.90232
G1 X99.429 Y92.911 E29.00145
G1 X100.203 Y92.457 E29.09695
G1 X101.268 Y91.903 E29.22472
G1 X102.021 Y91.559 E29.31283
G1 X103.035 Y91.152 E29.42912
G1 X103.814 Y90.883 E29.51684
G1 X104.812 Y90.588 E29.6276
G1 X105.776 Y90.355 E29.73315
G1 X106.952 Y90.139 E29.86041
G1 X107.702 Y90.038 E29.94096
G1 X108.784 Y89.944 E30.05655
G1 X109.95 Y89.907 E30.18071
G1 X111.011 Y89.932 E30.29367
G1 X111.954 Y90.003 E30.39432
G1 X112.907 Y90.118 E30.49649
G1 X113.783 Y90.267 E30.59106
G1 X114.89 Y90.51 E30.71169
G1 X115.698 Y90.731 E30.80084
G1 X116.681 Y91.05 E30.91084
G1 X117.592 Y91.396 E31.01455
G1 X118.674 Y91.876 E31.14054
G1 X119.523 Y92.306 E31.24183
G1 X120.29 Y92.741 E31.33568
G1 X121.269 Y93.363 E31.45912
G1 X122.14 Y93.989 E31.57329
G1 X122.889 Y94.586 E31.67523
G1 X123.472 Y95.093 E31.75746
G1 X124.213 Y95.798 E31.86632
G1 X125.086 Y96.73 E32.00223
G1 X125.647 Y97.395 E32.09483
G1 X126.22 Y98.142 E32.19503
G1 X126.873 Y99.092 E32.31773
G1 X127.378 Y99.915 E32.4205
G1 X127.746 Y100.576 E32.50102
G1 X128.242 Y101.58 E32.6202
G1 X128.597 Y102.393 E32.71462
G1 X129.045 Y103.596 E32.85125
G1 X129.278 Y104.333 E32.93352
G1 X129.576 Y105.47 E33.05862
G1 X129.739 Y106.25 E33.14343
G1 X129.922 Y107.374 E33.26464
G1 X130.02 Y108.287 E33.36237
G1 X130.084 Y109.403 E33.48134
G1 X130.09 Y110.284 E33.57511
G1 X130.046 Y111.374 E33.69122
G1 X129.966 Y112.247 E33.78452
G1 X129.81 Y113.366 E33.90477
G1 X129.693 Y113.984 E33.97171
G1 X129.579 Y114.505 E34.02848
G1 X129.368 Y115.345 E34.12066
G1 X129.048 Y116.393 E34.23728
G1 X128.715 Y117.311 E34.34122
G1 X128.358 Y118.164 E34.43963
G1 X127.918 Y119.09 E34.54875
G1 X127.483 Y119.903 E34.64689
G1 X126.979 Y120.743 E34.75115
G1 X126.351 Y121.677 E34.87094
G1 X125.759 Y122.464 E34.97575
G1 X125.104 Y123.251 E35.08473
G1 X124.508 Y123.899 E35.17843
G1 X123.73 Y124.67 E35.29501
G1 X123.065 Y125.263 E35.38984
G1 X122.174 Y125.983 E35.51177
G1 X121.409 Y126.538 E35.61236
G1 X120.631 Y127.05 E35.71148
G1 X119.838 Y127.519 E35.80954
G1 X118.934 Y127.997 E35.91838
G1 X118.168 Y128.356 E36.00842
G1 X116.946 Y128.853 E36.14882
G1 X115.958 Y129.188 E36.25986
G1 X115.188 Y129.41 E36.34515
G1 X114.033 Y129.683 E36.47147
G1 X113.048 Y129.859 E36.57796
G1 X112.1 Y129.982 E36.67971
G1 X111.186 Y130.057 E36.77731
G1 X110.217 Y130.091 E36.88051
G1 X109.179 Y130.075 E36.991
G1 X108.037 Y129.996 E37.11283
G1 X107.275 Y129.908 E37.19447
G1 X106.071 Y129.704 E37.32445
G1 X105.098 Y129.485 E37.4306
G1 X104.076 Y129.198 E37.54358
G1 X103.208 Y128.908 E37.64098
G1 X102.244 Y128.533 E37.75107
G1 X101.286 Y128.103 E37.86283
G1 X100.411 Y127.656 E37.96741
G1 X99.546 Y127.157 E38.07369
G1 X98.742 Y126.641 E38.17537
G1 X97.839 Y125.993 E38.29367
G1 X97.143 Y125.441 E38.38821
G1 X96.484 Y124.867 E38.48123
G1 X95.708 Y124.122 E38.59572
G1 X94.96 Y123.321 E38.71237
G1 X94.334 Y122.582 E38.81545
G1 X93.707 Y121.758 E38.92565
G1 X93.134 Y120.919 E39.03378
G1 X92.641 Y120.115 E39.13416
G1 X92.123 Y119.167 E39.24914
G1 X91.726 Y118.352 E39.34563
G1 X91.368 Y117.521 E39.44193
G1 X91.024 Y116.604 E39.54617
G1 X90.716 Y115.638 E39.65408
G1 X90.433 Y114.564 E39.77229
G1 X90.245 Y113.667 E39.86984
G1 X90.111 Y112.857 E39.95722
G1 X89.986 Y111.763 E40.07441
G1 X89.915 Y110.538 E40.20501
G1 X89.913 Y109.532 E40.31208
G1 X89.958 Y108.568 E40.4148
G1 X90.036 Y107.724 E40.50501
G1 X90.203 Y106.568 E40.62932
G1 X90.408 Y105.541 E40.74078
G1 X90.641 Y104.619 E40.842
G1 X90.939 Y103.642 E40.95071
G1 X91.193 Y102.929 E41.03127
G1 X91.62 Y101.882 E41.15162
G1 X92.028 Y101.016 E41.2535
G1 X92.511 Y100.109 E41.36287
G1 X93.058 Y99.195 E41.47624
G1 X93.547 Y98.467 E41.56958
G1 X94.277 Y97.489 E41.69947
G1 X94.786 Y96.875 E41.78436
G1 X95.584 Y96.004 E41.91009
G1 F1500 E35.41009
G1 F300 Z1.12
;MESH:MarkiseStangeFu??-Ko??rper.stl
G0 F6000 X107.617 Y103.408 Z1.12
;TYPE:WALL-INNER
G1 F300 Z0.32
G1 F1500 E41.91009
G1 F900 X108.481 Y103.165 E42.00561
G1 X109.072 Y103.061 E42.06948
G1 X109.649 Y103.003 E42.1312
G1 X110.232 Y103.002 E42.19325
G1 X110.805 Y103.045 E42.25441
G1 X111.421 Y103.137 E42.3207
G1 X112.262 Y103.373 E42.41366
G1 X112.829 Y103.596 E42.47851
G1 X113.538 Y103.957 E42.56319
G1 X114.124 Y104.34 E42.6377
G1 X114.585 Y104.708 E42.70048
G1 X115.266 Y105.362 E42.80097
G1 X115.805 Y106.085 E42.89695
G1 X116.122 Y106.605 E42.96177
G1 X116.393 Y107.132 E43.02484
G1 X116.672 Y107.878 E43.10961
G1 X116.902 Y108.778 E43.20848
G1 X116.994 Y109.685 E43.30551
G1 X116.995 Y110.29 E43.3699
G1 X116.93 Y110.992 E43.44494
G1 X116.83 Y111.561 E43.50642
G1 X116.634 Y112.255 E43.58318
G1 X116.247 Y113.188 E43.69068
G1 X115.818 Y113.896 E43.77879
G1 X115.551 Y114.266 E43.82735
G1 X115.095 Y114.801 E43.90217
G1 X114.601 Y115.276 E43.97511
G1 X114.049 Y115.71 E44.04985
G1 X113.473 Y116.077 E44.12254
G1 X112.725 Y116.457 E44.21183
G1 X111.735 Y116.789 E44.32297
G1 X110.922 Y116.939 E44.41096
G1 X110.064 Y117.012 E44.50261
G1 X109.303 Y116.971 E44.58372
G1 X108.584 Y116.862 E44.66112
G1 X107.649 Y116.604 E44.76435
G1 X107.115 Y116.378 E44.82607
G1 X106.501 Y116.062 E44.89957
G1 X105.959 Y115.72 E44.96778
G1 X105.365 Y115.245 E45.04872
G1 X104.911 Y114.807 E45.11587
G1 X104.453 Y114.27 E45.19099
G1 X104.053 Y113.691 E45.26589
G1 X103.614 Y112.901 E45.36208
G1 X103.327 Y112.114 E45.45124
G1 X103.153 Y111.456 E45.52367
G1 X103.077 Y111.034 E45.56931
G1 X103.011 Y110.414 E45.63567
G1 X102.997 Y109.796 E45.70146
G1 X103.071 Y109.004 E45.78613
G1 X103.247 Y108.102 E45.88394
G1 X103.609 Y107.113 E45.99603
G1 X104.091 Y106.228 E46.10329
G1 X104.454 Y105.726 E46.16922
G1 X104.896 Y105.208 E46.2417
G1 X105.403 Y104.721 E46.31652
G1 X105.912 Y104.316 E46.38575
G1 X106.438 Y103.973 E46.45258
G1 X107.12 Y103.618 E46.53442
G1 X107.617 Y103.408 E46.59184
G1 F1500 E40.09184
G1 F300 Z1.12
G0 F6000 X114.957 Y113.725 Z1.12
G1 F300 Z0.32
G1 F1500 E46.59184
G1 F900 X114.522 Y114.242 E46.66375
G1 X114.136 Y114.618 E46.72111
G1 X113.598 Y115.049 E46.79447
G1 X113.141 Y115.345 E46.85243
G1 X112.411 Y115.724 E46.93997
G1 X111.538 Y116.013 E47.03784
G1 X110.804 Y116.148 E47.11727
G1 X110.095 Y116.207 E47.193
G1 X109.382 Y116.175 E47.26896
G1 X108.743 Y116.078 E47.33775
G1 X107.91 Y115.844 E47.42984
G1 X107.471 Y115.661 E47.48046
G1 X106.903 Y115.371 E47.54834
G1 X106.491 Y115.117 E47.59985
G1 X105.896 Y114.646 E47.68062
G1 X105.483 Y114.247 E47.74174
G1 X105.061 Y113.749 E47.81121
G1 X104.726 Y113.259 E47.87439
G1 X104.344 Y112.568 E47.95842
G1 X104.085 Y111.858 E48.03886
G1 X103.932 Y111.274 E48.10311
G1 X103.868 Y110.915 E48.14192
G1 X103.809 Y110.354 E48.20196
G1 X103.795 Y109.796 E48.26137
G1 X103.868 Y109.078 E48.33818
G1 X104.023 Y108.305 E48.42209
G1 X104.338 Y107.455 E48.51857
G1 X104.746 Y106.698 E48.6101
G1 X105.079 Y106.226 E48.67158
G1 X105.425 Y105.814 E48.72884
G1 X105.893 Y105.355 E48.79861
G1 X106.379 Y104.966 E48.86487
G1 X106.857 Y104.655 E48.92556
G1 X107.45 Y104.347 E48.99668
G1 X107.899 Y104.153 E49.04874
G1 X108.64 Y103.949 E49.13054
G1 X109.221 Y103.848 E49.1933
G1 X109.689 Y103.802 E49.24335
G1 X110.19 Y103.801 E49.29668
G1 X110.726 Y103.841 E49.35388
G1 X111.262 Y103.922 E49.41158
G1 X111.99 Y104.126 E49.49205
G1 X112.576 Y104.36 E49.5592
