;FLAVOR:Marlin
;TIME:4096
;Filament used: 7.72466m
;Layer height: 0.32
;MINX:77.398
;MINY:82.247
;MINZ:0.32
;MAXX:142.635
;MAXY:137.701
;MAXZ:20.04
;TARGET_MACHINE.NAME:Creality Ender-3 Pro
;Generated with Cura_SteamEngine 5.5.0
M82 ;absolute extrusion mode
; Ender 3 Custom Start G-code
G92 E0 ; Reset Extruder
G28 ; Home all axes
G1 Z5.0 F3000 ; Move Z Axis up a bit during heating to not damage bed
M104 S120 ; Start heating up the nozzle most of the way
M190 S70 ; Start heating the bed, wait until target temperature reached
M109 S235.0 ; Finish heating the nozzle
G1 Z2.0 F3000 ; Move Z Axis up little to prevent scratching of Heat Bed
G1 X0.1 Y20 Z0.3 F5000.0 ; Move to start position
G1 X0.1 Y200.0 Z0.3 F1500.0 E15 ; Draw the first line
G1 X0.4 Y200.0 Z0.3 F5000.0 ; Move to side a little
G1 X0.4 Y20 Z0.3 F1500.0 E30 ; Draw the second line
G92 E0 ; Reset Extruder
G1 Z2.0 F3000 ; Move Z Axis up little to prevent scratching of Heat Bed
G1 X5 Y20 Z0.3 F5000.0 ; Move over to prevent blob squish
G92 E0
G92 E0
G1 F1500 E-6.5
;LAYER_COUNT:62
;LAYER:0
M107
G1 F300 Z0.52
G0 F6000 X82.639 Y84.552 Z0.52
;TYPE:SKIRT
G1 F300 Z0.32
G1 F1500 E0
G1 F900 X83.221 Y84.051 E0.08173
G1 X83.865 Y83.648 E0.16259
G1 X84.584 Y83.34 E0.24584
G1 X85.317 Y83.151 E0.32641
G1 X86.052 Y83.08 E0.405
G1 X86.415 Y83.071 E0.44365
G1 X93.952 Y83.07 E1.24583
G1 X96.742 Y83.031 E1.5428
G1 X99.389 Y82.918 E1.82479
G1 X102.082 Y82.726 E2.11214
G1 X104.729 Y82.464 E2.39524
G1 X106.403 Y82.27 E2.5746
G1 X107.089 Y82.247 E2.64765
G1 X107.641 Y82.293 E2.70661
G1 X108.591 Y82.432 E2.8088
G1 X118.407 Y84.032 E3.86732
G1 X119.215 Y84.18 E3.95475
G1 X119.805 Y84.338 E4.01976
G1 X120.263 Y84.515 E4.07202
G1 X120.95 Y84.828 E4.15237
G1 X122.35 Y85.492 E4.31728
G1 X124.777 Y86.563 E4.59963
G1 X127.332 Y87.605 E4.89331
G1 X129.78 Y88.524 E5.17161
G1 X131.784 Y89.219 E5.39736
G1 X138.692 Y91.533 E6.17275
G1 X139.352 Y91.768 E6.24732
G1 X139.999 Y92.052 E6.32252
G1 X140.64 Y92.463 E6.40356
G1 X141.22 Y92.974 E6.48584
G1 X141.713 Y93.567 E6.56791
G1 X142.106 Y94.22 E6.64903
G1 X142.395 Y94.93 E6.73062
G1 X142.571 Y95.675 E6.81209
G1 X142.635 Y96.459 E6.89581
G1 X142.557 Y97.3 E6.98571
G1 X142.475 Y97.686 E7.02771
G1 X142.178 Y98.783 E7.14867
G1 X141.51 Y101.387 E7.43479
G1 X140.919 Y103.997 E7.71961
G1 X140.388 Y106.685 E8.01123
G1 X139.946 Y109.321 E8.2957
G1 X139.589 Y111.881 E8.57081
G1 X139.284 Y114.65 E8.8673
G1 X139.067 Y117.297 E9.14997
G1 X138.923 Y120.003 E9.43839
G1 X138.85 Y123.741 E9.83631
G1 X138.85 Y131.216 E10.63189
G1 X138.834 Y132.063 E10.72205
G1 X138.777 Y132.699 E10.79001
G1 X138.59 Y133.448 E10.87218
G1 X138.289 Y134.163 E10.95475
G1 X137.89 Y134.813 E11.03592
G1 X137.397 Y135.393 E11.11694
G1 X136.816 Y135.896 E11.19873
G1 X136.16 Y136.306 E11.28107
G1 X135.458 Y136.608 E11.3624
G1 X134.719 Y136.799 E11.44364
G1 X133.979 Y136.871 E11.52277
G1 X133.616 Y136.88 E11.56142
G1 X126.079 Y136.881 E12.3636
G1 X123.289 Y136.92 E12.66058
G1 X120.644 Y137.033 E12.94235
G1 X117.949 Y137.225 E13.22991
G1 X115.302 Y137.487 E13.51301
G1 X113.628 Y137.681 E13.69237
G1 X112.841 Y137.701 E13.77616
G1 X112.39 Y137.658 E13.82438
G1 X111.44 Y137.519 E13.92657
G1 X101.623 Y135.919 E14.9852
G1 X100.816 Y135.771 E15.07253
G1 X100.226 Y135.613 E15.13753
G1 X99.769 Y135.437 E15.18966
G1 X99.104 Y135.132 E15.26752
G1 X97.772 Y134.498 E15.42453
G1 X95.302 Y133.407 E15.71192
G1 X92.799 Y132.385 E15.99967
G1 X90.251 Y131.426 E16.28943
G1 X88.24 Y130.729 E16.51596
G1 X81.352 Y128.422 E17.28909
G1 X80.681 Y128.183 E17.36491
G1 X80.03 Y127.898 E17.44054
G1 X79.394 Y127.491 E17.52091
G1 X78.809 Y126.976 E17.60386
G1 X78.329 Y126.397 E17.68391
G1 X77.925 Y125.727 E17.76718
G1 X77.638 Y125.024 E17.84799
G1 X77.46 Y124.284 E17.929
G1 X77.398 Y123.5 E18.0127
G1 X77.457 Y122.771 E18.09055
G1 X77.564 Y122.233 E18.14893
G1 X77.852 Y121.167 E18.26645
G1 X78.521 Y118.561 E18.55281
G1 X79.112 Y115.952 E18.83753
G1 X79.643 Y113.264 E19.12915
G1 X80.085 Y110.628 E19.41362
G1 X80.443 Y108.051 E19.69053
G1 X80.747 Y105.299 E19.98521
G1 X80.964 Y102.652 E20.26789
G1 X81.108 Y99.946 E20.5563
G1 X81.181 Y96.208 E20.95422
G1 X81.181 Y88.68 E21.75544
G1 X81.197 Y87.881 E21.8405
G1 X81.255 Y87.252 E21.90773
G1 X81.445 Y86.488 E21.99152
G1 X81.738 Y85.796 E22.0715
G1 X82.146 Y85.132 E22.15445
G1 X82.639 Y84.552 E22.23547
G0 F6000 X83.207 Y85.119
G1 F900 X83.699 Y84.696 E22.30452
G1 X84.24 Y84.357 E22.37247
G1 X84.838 Y84.101 E22.44171
G1 X85.459 Y83.941 E22.50996
G1 X86.073 Y83.88 E22.57563
G1 X86.415 Y83.871 E22.61204
G1 X93.963 Y83.87 E23.4154
G1 X96.753 Y83.831 E23.71237
G1 X99.445 Y83.716 E23.99915
G1 X102.145 Y83.524 E24.28724
G1 X104.822 Y83.259 E24.57355
G1 X106.43 Y83.07 E24.74588
G1 X107.116 Y83.047 E24.81893
G1 X107.525 Y83.085 E24.86265
G1 X108.462 Y83.222 E24.96344
G1 X118.264 Y84.819 E26.02044
G1 X119.015 Y84.955 E26.10167
G1 X119.519 Y85.085 E26.15707
G1 X119.931 Y85.243 E26.20403
G1 X120.607 Y85.551 E26.2831
G1 X122.012 Y86.218 E26.44863
G1 X124.467 Y87.301 E26.73422
G1 X127.034 Y88.348 E27.02928
G1 X129.518 Y89.28 E27.31166
G1 X131.53 Y89.978 E27.53832
G1 X138.425 Y92.287 E28.31223
G1 X139.03 Y92.501 E28.38053
G1 X139.62 Y92.76 E28.44911
G1 X140.16 Y93.106 E28.51737
G1 X140.643 Y93.532 E28.58591
G1 X141.059 Y94.032 E28.65514
G1 X141.388 Y94.58 E28.72317
G1 X141.63 Y95.173 E28.79133
G1 X141.779 Y95.805 E28.86044
G1 X141.832 Y96.453 E28.92964
G1 X141.774 Y97.134 E29.00238
G1 X141.692 Y97.52 E29.04438
G1 X141.406 Y98.573 E29.16052
G1 X140.735 Y101.188 E29.44786
G1 X140.134 Y103.842 E29.73748
G1 X139.603 Y106.53 E30.0291
G1 X139.157 Y109.189 E30.31606
G1 X138.794 Y111.793 E30.59589
G1 X138.489 Y114.562 E30.89238
G1 X138.268 Y117.254 E31.17986
G1 X138.124 Y119.96 E31.46827
G1 X138.05 Y123.725 E31.86907
G1 X138.05 Y131.203 E32.66497
G1 X138.037 Y131.991 E32.74885
G1 X137.985 Y132.568 E32.81051
G1 X137.828 Y133.197 E32.87951
G1 X137.578 Y133.791 E32.9481
G1 X137.239 Y134.343 E33.01705
G1 X136.825 Y134.831 E33.08516
G1 X136.339 Y135.251 E33.15353
G1 X135.792 Y135.593 E33.22219
G1 X135.198 Y135.849 E33.29103
G1 X134.577 Y136.009 E33.35928
G1 X133.958 Y136.071 E33.42549
G1 X133.616 Y136.08 E33.46191
G1 X126.068 Y136.081 E34.26526
G1 X123.278 Y136.12 E34.56223
G1 X120.587 Y136.235 E34.8489
G1 X117.886 Y136.427 E35.1371
G1 X115.209 Y136.692 E35.42342
G1 X113.601 Y136.881 E35.59574
G1 X112.915 Y136.904 E35.66879
G1 X112.506 Y136.866 E35.71251
G1 X111.569 Y136.729 E35.8133
G1 X101.766 Y135.132 E36.87041
G1 X101.016 Y134.996 E36.95153
G1 X100.512 Y134.866 E37.00693
G1 X100.102 Y134.709 E37.05366
G1 X99.448 Y134.41 E37.1302
G1 X98.095 Y133.766 E37.28968
G1 X95.612 Y132.669 E37.57859
G1 X93.081 Y131.636 E37.86955
G1 X90.533 Y130.677 E38.15931
G1 X88.494 Y129.97 E38.389
G1 X81.62 Y127.668 E39.16055
G1 X80.949 Y127.429 E39.23636
G1 X80.413 Y127.193 E39.29869
G1 X79.873 Y126.847 E39.36695
G1 X79.387 Y126.419 E39.43588
G1 X78.981 Y125.93 E39.50353
G1 X78.643 Y125.369 E39.57323
G1 X78.402 Y124.778 E39.64116
G1 X78.252 Y124.154 E39.70947
G1 X78.2 Y123.504 E39.77887
G1 X78.242 Y122.927 E39.84045
G1 X78.349 Y122.389 E39.89883
G1 X78.624 Y121.377 E40.01044
G1 X79.296 Y118.76 E40.29801
G1 X79.897 Y116.107 E40.58753
G1 X80.428 Y113.419 E40.87915
G1 X80.874 Y110.76 E41.16611
G1 X81.238 Y108.141 E41.44754
G1 X81.542 Y105.387 E41.74243
G1 X81.763 Y102.695 E42.02991
G1 X81.907 Y99.989 E42.31832
G1 X81.981 Y96.224 E42.71912
G1 X81.981 Y88.694 E43.52056
G1 X81.994 Y87.955 E43.59922
G1 X82.047 Y87.381 E43.66057
G1 X82.205 Y86.746 E43.73022
G1 X82.453 Y86.161 E43.79785
G1 X82.794 Y85.605 E43.86727
G1 X83.207 Y85.119 E43.93515
G0 F6000 X83.778 Y85.683
G1 F900 X84.173 Y85.343 E43.99062
G1 X84.615 Y85.066 E44.04613
G1 X85.094 Y84.861 E44.10159
G1 X85.599 Y84.731 E44.15709
G1 X86.095 Y84.68 E44.21016
G1 X86.415 Y84.671 E44.24423
G1 X93.974 Y84.67 E45.04875
G1 X96.764 Y84.631 E45.34573
G1 X99.501 Y84.514 E45.6373
G1 X102.208 Y84.322 E45.92614
G1 X104.915 Y84.054 E46.21566
G1 X106.523 Y83.865 E46.38798
G1 X107.044 Y83.844 E46.44347
G1 X107.409 Y83.877 E46.48248
G1 X108.333 Y84.012 E46.58187
G1 X118.124 Y85.607 E47.63769
G1 X118.815 Y85.73 E47.71239
G1 X119.319 Y85.86 E47.76778
G1 X119.635 Y85.986 E47.80399
G1 X120.264 Y86.274 E47.87762
G1 X121.674 Y86.944 E48.04377
G1 X124.157 Y88.039 E48.3326
G1 X126.736 Y89.09 E48.62901
G1 X129.256 Y90.036 E48.91549
G1 X131.276 Y90.737 E49.14306
G1 X138.158 Y93.041 E49.91549
G1 X138.763 Y93.255 E49.98379
G1 X139.239 Y93.466 E50.03921
G1 X139.678 Y93.747 E50.09468
G1 X140.069 Y94.092 E50.15018
G1 X140.402 Y94.493 E50.20566
G1 X140.67 Y94.939 E50.26104
G1 X140.867 Y95.422 E50.31656
G1 X140.987 Y95.929 E50.37201
G1 X141.029 Y96.449 E50.42753
G1 X140.991 Y96.968 E50.48292
G1 X140.909 Y97.354 E50.52492
G1 X140.634 Y98.363 E50.63623
G1 X139.96 Y100.989 E50.92478
G1 X139.349 Y103.687 E51.2192
G1 X138.818 Y106.375 E51.51082
G1 X138.368 Y109.057 E51.80027
G1 X137.999 Y111.705 E52.08482
G1 X137.694 Y114.474 E52.38132
G1 X137.469 Y117.211 E52.6736
G1 X137.325 Y119.917 E52.96202
G1 X137.25 Y123.709 E53.36569
G1 X137.25 Y131.192 E54.16212
G1 X137.24 Y131.919 E54.23951
G1 X137.193 Y132.438 E54.29497
G1 X137.067 Y132.944 E54.35047
G1 X136.865 Y133.424 E54.4059
G1 X136.592 Y133.868 E54.46137
G1 X136.255 Y134.265 E54.5168
G1 X135.861 Y134.606 E54.57225
G1 X135.419 Y134.883 E54.62777
G1 X134.94 Y135.089 E54.68327
G1 X134.436 Y135.219 E54.73867
G1 X133.936 Y135.271 E54.79217
G1 X133.616 Y135.28 E54.82624
G1 X126.057 Y135.281 E55.63076
G1 X123.267 Y135.32 E55.92774
G1 X120.53 Y135.437 E56.21931
G1 X117.823 Y135.629 E56.50815
G1 X115.116 Y135.897 E56.79767
G1 X113.508 Y136.086 E56.96999
G1 X112.987 Y136.107 E57.02549
G1 X112.622 Y136.074 E57.06449
G1 X111.698 Y135.939 E57.16388
G1 X101.906 Y134.344 E58.2198
G1 X101.216 Y134.221 E58.2944
G1 X100.712 Y134.091 E58.3498
G1 X100.399 Y133.966 E58.38567
G1 X99.792 Y133.688 E58.45673
G1 X98.418 Y133.034 E58.61868
G1 X95.922 Y131.931 E58.90912
G1 X93.363 Y130.887 E59.20328
G1 X90.815 Y129.928 E59.49304
G1 X88.748 Y129.211 E59.72589
G1 X81.886 Y126.914 E60.49607
G1 X81.271 Y126.697 E60.56548
G1 X80.794 Y126.487 E60.62095
G1 X80.355 Y126.206 E60.67642
G1 X79.964 Y125.861 E60.73192
G1 X79.631 Y125.461 E60.78732
G1 X79.362 Y125.014 E60.84284
G1 X79.165 Y124.531 E60.89836
G1 X79.044 Y124.025 E60.95373
G1 X79.002 Y123.505 E61.00926
G1 X79.04 Y122.985 E61.06475
G1 X79.121 Y122.599 E61.10673
G1 X79.396 Y121.587 E61.21834
G1 X80.071 Y118.959 E61.50713
G1 X80.682 Y116.262 E61.80145
G1 X81.213 Y113.574 E62.09307
G1 X81.663 Y110.892 E62.38251
G1 X82.033 Y108.231 E62.66845
G1 X82.337 Y105.475 E62.96356
G1 X82.562 Y102.738 E63.25585
G1 X82.706 Y100.032 E63.54426
G1 X82.781 Y96.24 E63.94793
G1 X82.781 Y88.706 E64.74979
G1 X82.791 Y88.029 E64.82186
G1 X82.839 Y87.51 E64.87733
G1 X82.965 Y87.004 E64.93283
G1 X83.168 Y86.524 E64.9883
G1 X83.441 Y86.08 E65.04377
G1 X83.778 Y85.683 E65.0992
G1 F1500 E58.5992
G1 F300 Z0.52
G0 F6000 X86.581 Y88.47 Z0.52
G1 F300 Z0.32
G1 F1500 E65.0992
G1 F900 X86.981 Y88.47 E65.14177
G1 X86.808 Y88.51 E65.16067
G1 X86.669 Y88.62 E65.17954
G1 X86.591 Y88.78 E65.19848
G1 X86.581 Y88.87 E65.20812
G1 X86.581 Y88.47 E65.25069
G1 F1500 E58.75069
G1 F300 Z0.52
G0 F6000 X86.581 Y105.59 Z0.52
G1 F300 Z0.32
G1 F1500 E65.25069
G1 F900 X86.621 Y105.763 E65.26959
G1 X86.731 Y105.902 E65.28846
G1 X86.891 Y105.98 E65.3074
G1 X86.981 Y105.99 E65.31704
G1 X86.581 Y105.99 E65.35961
G1 X86.581 Y105.59 E65.40218
G1 F1500 E58.90218
G1 F300 Z0.52
G0 F6000 X88.115 Y105.99 Z0.52
G1 F300 Z0.32
G1 F1500 E65.40218
G1 F900 X88.987 Y105.99 E65.49499
G1 X88.814 Y106.029 E65.51387
G1 X88.675 Y106.14 E65.5328
G1 X88.597 Y106.3 E65.55175
G1 X88.597 Y106.478 E65.57069
G1 X88.673 Y106.638 E65.58954
G1 X88.86 Y106.769 E65.61384
G1 X105.868 Y112.458 E67.52263
G1 X88.833 Y106.761 E69.43441
G1 X88.656 Y106.743 E69.45334
G1 X88.489 Y106.804 E69.47227
G1 X88.365 Y106.931 E69.49116
G1 X88.331 Y107.005 E69.49983
G1 X88.494 Y106.517 E69.55459
G1 X88.512 Y106.34 E69.57352
G1 X88.451 Y106.173 E69.59244
G1 X88.324 Y106.049 E69.61134
G1 X88.115 Y105.99 E69.63445
G1 F1500 E63.13445
G1 F300 Z0.52
G0 F6000 X85.143 Y116.532 Z0.52
G1 F300 Z0.32
G1 F1500 E69.63445
G1 F900 X83.023 Y122.868 E70.34555
G1 X83.005 Y123.045 E70.36449
G1 X83.066 Y123.212 E70.38341
G1 X83.193 Y123.336 E70.4023
G1 X83.265 Y123.369 E70.41073
G1 X82.896 Y123.246 E70.45213
G1 X85.143 Y116.532 E71.20567
G1 F1500 E64.70567
G1 F300 Z0.52
G0 F6000 X114.163 Y107.493 Z0.52
G1 F300 Z0.32
G1 F1500 E71.20567
G1 F900 X131.198 Y113.19 E73.11745
G1 X131.375 Y113.208 E73.13639
G1 X131.542 Y113.147 E73.15531
G1 X131.666 Y113.02 E73.1742
G1 X131.7 Y112.946 E73.18287
G1 X131.537 Y113.434 E73.23763
G1 X131.519 Y113.611 E73.25657
G1 X131.58 Y113.778 E73.27549
G1 X131.707 Y113.902 E73.29438
G1 X131.916 Y113.961 E73.3175
G1 X131.044 Y113.961 E73.4103
G1 X131.217 Y113.922 E73.42918
G1 X131.356 Y113.811 E73.44811
G1 X131.434 Y113.651 E73.46706
G1 X131.434 Y113.473 E73.486
G1 X131.358 Y113.313 E73.50485
G1 X131.171 Y113.182 E73.52915
G1 X114.163 Y107.493 E75.43794
G1 F1500 E68.93794
G1 F300 Z0.52
G0 F6000 X133.05 Y113.961 Z0.52
G1 F300 Z0.32
G1 F1500 E75.43794
G1 F900 X133.45 Y113.961 E75.48051
G1 X133.45 Y114.361 E75.52308
G1 X133.411 Y114.188 E75.54196
G1 X133.3 Y114.049 E75.56089
G1 X133.14 Y113.971 E75.57984
G1 X133.05 Y113.961 E75.58948
G1 F1500 E69.08948
G1 F300 Z0.52
G0 F6000 X134.888 Y103.419 Z0.52
G1 F300 Z0.32
G1 F1500 E75.58948
G1 F900 X137.008 Y97.083 E76.30058
G1 X137.026 Y96.906 E76.31951
G1 X136.965 Y96.739 E76.33844
G1 X136.838 Y96.615 E76.35733
G1 X136.766 Y96.582 E76.36576
G1 X137.135 Y96.705 E76.40716
G1 X134.888 Y103.419 E77.1607
G1 F1500 E70.6607
G1 F300 Z0.52
G0 F6000 X133.45 Y131.081 Z0.52
G1 F300 Z0.32
G1 F1500 E77.1607
G1 F900 X133.45 Y131.481 E77.20327
G1 X133.05 Y131.481 E77.24585
G1 X133.223 Y131.442 E77.26472
G1 X133.362 Y131.331 E77.28365
G1 X133.44 Y131.171 E77.3026
G1 X133.45 Y131.081 E77.31224
G0 F6000 X132.65 Y130.681
;TYPE:SUPPORT-INTERFACE
G1 F900 X114.392 Y130.681 E79.25548
G1 X114.392 Y125.093 E79.85022
G1 X114.69 Y125.093 E79.88194
G1 X114.69 Y124.693 E79.92451
G1 X114.896 Y124.693 E79.94644
G1 X115.06 Y124.351 E79.98681
G1 X115.287 Y123.847 E80.04564
G1 X115.376 Y123.406 E80.09352
G1 X115.403 Y123.046 E80.13195
G1 X115.403 Y121.799 E80.26467
G1 X115.37 Y121.375 E80.30993
G1 X115.209 Y120.73 E80.38069
G1 X114.848 Y120.115 E80.45659
G1 X114.69 Y120.115 E80.4734
G1 X114.69 Y119.715 E80.51598
G1 X114.29 Y119.715 E80.55855
G1 X114.29 Y119.315 E80.60112
G1 X113.89 Y119.315 E80.64369
G1 X113.89 Y115.16 E81.08592
G1 X114.29 Y115.16 E81.12849
G1 X114.29 Y114.76 E81.17107
G1 X132.65 Y114.761 E83.12517
G1 X132.65 Y130.681 E84.81957
G1 F1500 E78.31957
G1 F300 Z0.52
G0 F6000 X131.073 Y112.305 Z0.52
G1 F300 Z0.32
G1 F1500 E84.81957
G1 F900 X113.659 Y106.48 E86.77393
G1 X113.712 Y106.327 E86.79116
G1 X113.303 Y105.817 E86.86074
G1 X114.854 Y101.179 E87.38124
G1 X115.052 Y101.06 E87.40583
G1 X115.096 Y100.925 E87.42094
G1 X115.232 Y100.925 E87.43542
G1 X115.601 Y100.654 E87.48414
G1 X115.644 Y100.525 E87.49862
G1 X115.782 Y100.525 E87.5133
G1 X116.148 Y100.125 E87.57101
G1 X116.22 Y100.125 E87.57867
G1 X116.555 Y99.499 E87.65424
G1 X116.706 Y99.061 E87.70355
G1 X116.768 Y98.64 E87.74884
G1 X116.781 Y98.415 E87.77283
G1 X117.023 Y97.696 E87.85357
G1 X117.093 Y97.421 E87.88377
G1 X117.156 Y97.028 E87.92614
G1 X117.185 Y96.591 E87.97275
G1 X117.185 Y95.947 E88.04129
G1 X117.428 Y95.212 E88.12368
G1 X117.508 Y94.902 E88.15776
G1 X117.556 Y94.577 E88.19272
G1 X117.585 Y94.135 E88.23987
G1 X117.585 Y93.464 E88.31129
G1 X117.794 Y93.464 E88.33353
G1 X118.114 Y92.874 E88.40497
G1 X118.274 Y92.467 E88.45151
G1 X118.367 Y92.094 E88.49243
G1 X118.367 Y91.688 E88.53564
G1 X118.585 Y91.762 E88.56014
G1 X118.712 Y91.382 E88.60278
G1 X136.123 Y97.208 E90.55687
G1 X131.073 Y112.305 E92.25119
G1 F1500 E85.75119
G1 F300 Z0.52
G0 F6000 X106.624 Y113.977 Z0.52
G1 F300 Z0.32
G1 F1500 E92.25119
G1 F900 X106.497 Y114.355 E92.29363
G1 X106.639 Y114.402 E92.30955
G1 X105.34 Y118.282 E92.74504
G1 X105.005 Y118.53 E92.7894
