;FLAVOR:Marlin
;TIME:3229
;Filament used: 5.07716m
;Layer height: 0.32
;MINX:48
;MINY:48
;MINZ:0.32
;MAXX:172
;MAXY:172
;MAXZ:10.72
;TARGET_MACHINE.NAME:Creality Ender-3 Pro
;Generated with Cura_SteamEngine 5.5.0
M82 ;absolute extrusion mode
; Ender 3 Custom Start G-code
G92 E0 ; Reset Extruder
G28 ; Home all axes
G1 Z5.0 F3000 ; Move Z Axis up a bit during heating to not damage bed
M104 S120 ; Start heating up the nozzle most of the way
M190 S70 ; Start heating the bed, wait until target temperature reached
M109 S220 ; Finish heating the nozzle
G1 Z2.0 F3000 ; Move Z Axis up little to prevent scratching of Heat Bed
G1 X0.1 Y20 Z0.3 F5000.0 ; Move to start position
G1 X0.1 Y200.0 Z0.3 F1500.0 E15 ; Draw the first line
G1 X0.4 Y200.0 Z0.3 F5000.0 ; Move to side a little
G1 X0.4 Y20 Z0.3 F1500.0 E30 ; Draw the second line
G92 E0 ; Reset Extruder
G1 Z2.0 F3000 ; Move Z Axis up little to prevent scratching of Heat Bed
G1 X5 Y20 Z0.3 F5000.0 ; Move over to prevent blob squish
G92 E0
G92 E0
G1 F1500 E-6.5
;LAYER_COUNT:31
;LAYER:0
M107
G1 F300 Z1.12
G0 F6000 X51.623 Y51.427 Z1.12
;TYPE:SKIRT
G1 F300 Z0.32
G1 F1500 E0
G1 F900 X52.52 Y50.634 E0.12743
G1 X53.368 Y50.015 E0.23917
G1 X54.207 Y49.506 E0.34362
G1 X55.15 Y49.038 E0.45566
G1 X56.196 Y48.632 E0.57508
G1 X57.14 Y48.358 E0.6797
G1 X58.269 Y48.138 E0.80212
G1 X59.626 Y48.016 E0.94713
G1 X60.294 Y48 E1.01825
G1 X159.314 Y48 E11.55719
G1 X160.234 Y48.013 E11.65512
G1 X161.144 Y48.066 E11.75214
G1 X162.325 Y48.241 E11.87921
G1 X163.28 Y48.471 E11.98376
G1 X164.343 Y48.829 E12.10314
G1 X165.306 Y49.252 E12.21508
G1 X166.107 Y49.687 E12.3121
G1 X167.102 Y50.346 E12.43912
G1 X167.919 Y51.004 E12.55077
G1 X168.581 Y51.632 E12.64789
G1 X169.371 Y52.528 E12.77502
G1 X169.989 Y53.376 E12.8867
G1 X170.497 Y54.214 E12.991
G1 X170.936 Y55.093 E13.09557
G1 X171.372 Y56.208 E13.223
G1 X171.645 Y57.152 E13.32759
G1 X171.863 Y58.278 E13.44965
G1 X171.984 Y59.626 E13.5937
G1 X172 Y60.33 E13.66865
G1 X171.999 Y159.413 E24.21429
G1 X171.988 Y160.212 E24.29934
G1 X171.93 Y161.192 E24.40383
G1 X171.766 Y162.299 E24.52293
G1 X171.557 Y163.186 E24.61993
G1 X171.182 Y164.32 E24.74705
G1 X170.821 Y165.157 E24.84406
G1 X170.327 Y166.084 E24.95586
G1 X169.668 Y167.085 E25.08342
G1 X169.012 Y167.902 E25.19493
G1 X168.335 Y168.613 E25.29942
G1 X167.548 Y169.311 E25.41138
G1 X166.642 Y169.978 E25.53113
G1 X165.803 Y170.488 E25.63563
G1 X164.798 Y170.985 E25.75495
G1 X163.949 Y171.318 E25.85202
G1 X162.804 Y171.655 E25.97905
G1 X161.743 Y171.86 E26.09407
G1 X160.374 Y171.984 E26.24037
G1 X159.67 Y172 E26.31532
G1 X60.552 Y171.999 E36.86469
G1 X59.781 Y171.988 E36.94675
G1 X58.734 Y171.922 E37.05841
G1 X57.763 Y171.778 E37.16289
G1 X56.673 Y171.517 E37.28218
G1 X55.807 Y171.231 E37.37924
G1 X54.71 Y170.756 E37.50647
G1 X53.787 Y170.252 E37.6184
G1 X53.026 Y169.75 E37.71543
G1 X52.094 Y169.009 E37.84216
G1 X51.432 Y168.382 E37.9392
G1 X50.639 Y167.487 E38.06647
G1 X50.058 Y166.696 E38.17093
G1 X49.545 Y165.862 E38.27514
G1 X49.012 Y164.791 E38.40247
G1 X48.634 Y163.81 E38.51436
G1 X48.36 Y162.867 E38.61888
G1 X48.139 Y161.734 E38.74174
G1 X48.013 Y160.305 E38.89442
G1 X48 Y159.658 E38.9633
G1 X48.001 Y60.511 E49.51575
G1 X48.012 Y59.774 E49.5942
G1 X48.078 Y58.726 E49.70597
G1 X48.21 Y57.824 E49.80299
G1 X48.487 Y56.662 E49.93013
G1 X48.799 Y55.731 E50.03463
G1 X49.248 Y54.702 E50.15413
G1 X49.752 Y53.782 E50.26577
G1 X50.254 Y53.021 E50.3628
G1 X50.996 Y52.089 E50.4896
G1 X51.623 Y51.427 E50.58664
G0 F6000 X52.204 Y51.977
G1 F900 X52.993 Y51.279 E50.69876
G1 X53.785 Y50.698 E50.80331
G1 X54.563 Y50.223 E50.90032
G1 X55.506 Y49.755 E51.01237
G1 X56.421 Y49.4 E51.11683
G1 X57.296 Y49.143 E51.21389
G1 X58.342 Y48.935 E51.3274
G1 X59.645 Y48.816 E51.46666
G1 X60.313 Y48.8 E51.53777
G1 X159.303 Y48.8 E62.07352
G1 X160.187 Y48.812 E62.16761
G1 X161.097 Y48.865 E62.26463
G1 X162.138 Y49.019 E62.37663
G1 X163.093 Y49.249 E62.48118
G1 X164.023 Y49.562 E62.58562
G1 X164.924 Y49.955 E62.69024
G1 X165.725 Y50.39 E62.78726
G1 X166.602 Y50.97 E62.89916
G1 X167.368 Y51.584 E63.00365
G1 X168.03 Y52.212 E63.10077
G1 X168.726 Y53.001 E63.21275
G1 X169.306 Y53.793 E63.31723
G1 X169.781 Y54.571 E63.41424
G1 X170.22 Y55.45 E63.51882
G1 X170.603 Y56.43 E63.6308
G1 X170.876 Y57.374 E63.73539
G1 X171.066 Y58.351 E63.84132
G1 X171.184 Y59.645 E63.97962
G1 X171.2 Y60.33 E64.05255
G1 X171.199 Y159.403 E74.59713
G1 X171.189 Y160.165 E74.67823
G1 X171.131 Y161.145 E74.78272
G1 X170.987 Y162.116 E74.8872
G1 X170.778 Y163.003 E74.98419
G1 X170.447 Y164.003 E75.0963
G1 X170.086 Y164.84 E75.19332
G1 X169.622 Y165.706 E75.29788
G1 X169.043 Y166.586 E75.41
G1 X168.431 Y167.352 E75.51435
G1 X167.804 Y168.014 E75.6114
G1 X167.017 Y168.712 E75.72336
G1 X166.226 Y169.294 E75.82788
G1 X165.387 Y169.804 E75.93238
G1 X164.506 Y170.24 E76.037
G1 X163.657 Y170.573 E76.13406
G1 X162.649 Y170.87 E76.24591
G1 X161.67 Y171.063 E76.35211
G1 X160.355 Y171.184 E76.49266
G1 X159.67 Y171.2 E76.56558
G1 X60.563 Y171.199 E87.11378
G1 X59.829 Y171.189 E87.19191
G1 X58.849 Y171.13 E87.2964
G1 X57.947 Y170.999 E87.39341
G1 X56.924 Y170.757 E87.5053
G1 X56.058 Y170.471 E87.60237
G1 X55.092 Y170.053 E87.71439
G1 X54.228 Y169.584 E87.81902
G1 X53.467 Y169.082 E87.91606
G1 X52.644 Y168.428 E88.02794
G1 X51.982 Y167.801 E88.12498
G1 X51.284 Y167.013 E88.23702
G1 X50.703 Y166.222 E88.34148
G1 X50.227 Y165.444 E88.43855
G1 X49.758 Y164.501 E88.55065
G1 X49.402 Y163.585 E88.65524
G1 X49.145 Y162.71 E88.75231
G1 X48.936 Y161.663 E88.86594
G1 X48.813 Y160.289 E89.01276
G1 X48.8 Y159.658 E89.07994
G1 X48.801 Y60.522 E99.63122
G1 X48.811 Y59.822 E99.70573
G1 X48.87 Y58.842 E99.81022
G1 X49.002 Y57.94 E99.90725
G1 X49.246 Y56.916 E100.01929
G1 X49.558 Y55.985 E100.12379
G1 X49.95 Y55.085 E100.22827
G1 X50.42 Y54.223 E100.33277
G1 X50.922 Y53.462 E100.4298
G1 X51.577 Y52.639 E100.54175
G1 X52.204 Y51.977 E100.63879
G0 F6000 X52.785 Y52.527
G1 F900 X53.468 Y51.923 E100.73583
G1 X54.202 Y51.381 E100.83294
G1 X54.98 Y50.906 E100.92996
G1 X55.797 Y50.5 E101.02706
G1 X56.646 Y50.168 E101.12409
G1 X57.521 Y49.911 E101.22115
G1 X58.415 Y49.732 E101.31819
G1 X59.718 Y49.613 E101.45745
G1 X60.33 Y49.6 E101.5226
G1 X159.293 Y49.6 E112.05547
G1 X160.14 Y49.611 E112.14563
G1 X161.05 Y49.664 E112.24264
G1 X161.953 Y49.797 E112.33979
G1 X162.84 Y50.008 E112.43683
G1 X163.705 Y50.296 E112.53386
G1 X164.542 Y50.658 E112.63092
G1 X165.343 Y51.093 E112.72793
G1 X166.104 Y51.596 E112.82502
G1 X166.817 Y52.164 E112.92205
G1 X167.479 Y52.792 E113.01916
G1 X168.082 Y53.476 E113.11621
G1 X168.623 Y54.21 E113.21326
G1 X169.098 Y54.988 E113.31028
G1 X169.503 Y55.805 E113.40733
G1 X169.835 Y56.655 E113.50446
G1 X170.091 Y57.53 E113.60149
G1 X170.269 Y58.424 E113.69851
G1 X170.387 Y59.718 E113.8368
G1 X170.4 Y60.33 E113.90195
G1 X170.399 Y159.393 E124.44547
G1 X170.39 Y160.12 E124.52285
G1 X170.339 Y161.03 E124.61986
G1 X170.208 Y161.933 E124.71697
G1 X169.999 Y162.82 E124.81396
G1 X169.712 Y163.686 E124.91106
G1 X169.351 Y164.523 E125.00808
G1 X168.918 Y165.326 E125.10518
G1 X168.417 Y166.088 E125.20224
G1 X167.85 Y166.802 E125.29928
G1 X167.223 Y167.464 E125.39632
G1 X166.541 Y168.069 E125.49335
G1 X165.808 Y168.612 E125.59044
G1 X165.03 Y169.088 E125.68752
G1 X164.214 Y169.495 E125.78457
G1 X163.365 Y169.828 E125.88163
G1 X162.491 Y170.086 E125.97862
G1 X161.597 Y170.266 E126.07568
G1 X160.282 Y170.387 E126.21623
G1 X159.67 Y170.4 E126.28138
G1 X60.573 Y170.399 E136.82852
G1 X59.875 Y170.39 E136.90282
G1 X58.964 Y170.338 E136.99993
G1 X58.062 Y170.207 E137.09694
G1 X57.175 Y169.997 E137.19396
G1 X56.309 Y169.711 E137.29102
G1 X55.472 Y169.349 E137.38808
G1 X54.669 Y168.916 E137.48518
G1 X53.908 Y168.414 E137.58221
G1 X53.194 Y167.847 E137.67925
G1 X52.532 Y167.22 E137.7763
G1 X51.927 Y166.537 E137.87341
G1 X51.385 Y165.804 E137.97043
G1 X50.909 Y165.026 E138.06751
G1 X50.503 Y164.209 E138.16461
G1 X50.17 Y163.36 E138.26167
G1 X49.913 Y162.485 E138.35873
G1 X49.733 Y161.591 E138.45579
G1 X49.613 Y160.272 E138.59676
G1 X49.6 Y159.658 E138.66212
G1 X49.601 Y60.533 E149.21224
G1 X49.61 Y59.868 E149.28302
G1 X49.662 Y58.958 E149.38003
G1 X49.794 Y58.056 E149.47706
G1 X50.005 Y57.168 E149.5742
G1 X50.292 Y56.303 E149.6712
G1 X50.654 Y55.466 E149.76826
G1 X51.088 Y54.664 E149.86531
G1 X51.59 Y53.903 E149.96234
G1 X52.158 Y53.189 E150.05945
G1 X52.785 Y52.527 E150.15649
G1 F1500 E143.65649
G1 F300 Z1.12
;MESH:MatratzenAbstandshalter_v2-Ko??rper.stl
G0 F6000 X61.217 Y61.093 Z1.12
;TYPE:WALL-INNER
G1 F300 Z0.32
G1 F1500 E150.15649
G1 F973 X61.127 Y61.093 E150.16535
G1 X61.08 Y61.172 E150.1744
G1 X61.126 Y61.251 E150.1834
G1 X61.217 Y61.251 E150.19236
G1 X61.264 Y61.172 E150.20141
G1 F1500 E143.70141
G1 F300 Z1.12
G0 F6000 X85.055 Y61.154 Z1.12
G1 F300 Z0.32
G1 F1500 E150.20141
G1 F800 X84.945 Y61.154 E150.21458
G1 X84.888 Y61.25 E150.22795
G1 X84.944 Y61.346 E150.24126
G1 X85.055 Y61.346 E150.25455
G1 X85.112 Y61.25 E150.26792
G1 F1500 E143.76792
G1 F300 Z1.12
G0 F6000 X110.055 Y61.154 Z1.12
G1 F300 Z0.32
G1 F1500 E150.26792
G1 F800 X109.945 Y61.154 E150.28109
G1 X109.888 Y61.25 E150.29446
G1 X109.944 Y61.346 E150.30777
G1 X110.055 Y61.346 E150.32106
G1 X110.112 Y61.25 E150.33442
G1 F1500 E143.83442
G1 F300 Z1.12
G0 F6000 X135.055 Y61.154 Z1.12
G1 F300 Z0.32
G1 F1500 E150.33442
G1 F800 X134.945 Y61.154 E150.3476
G1 X134.888 Y61.25 E150.36096
G1 X134.944 Y61.346 E150.37427
G1 X135.055 Y61.346 E150.38756
G1 X135.112 Y61.25 E150.40093
G1 F1500 E143.90093
G1 F300 Z1.12
G0 F6000 X158.874 Y61.092 Z1.12
G1 F300 Z0.32
G1 F1500 E150.40093
G1 F967.7 X158.782 Y61.092 E150.41004
G1 X158.735 Y61.172 E150.41922
G1 X158.782 Y61.252 E150.4284
G1 X158.874 Y61.252 E150.43751
G1 X158.921 Y61.172 E150.44669
G1 F1500 E143.94669
G1 F300 Z1.12
G0 F6000 X158.805 Y109.904 Z1.12
G1 F300 Z0.32
G1 F1500 E150.44669
G1 F800 X158.695 Y109.904 E150.45987
G1 X158.638 Y110 E150.47323
G1 X158.694 Y110.096 E150.48654
G1 X158.805 Y110.096 E150.49983
G1 X158.862 Y110 E150.5132
G1 F1500 E144.0132
G1 F300 Z1.12
G0 F6000 X135.153 Y110 Z1.12
G1 F300 Z0.32
G1 F1500 E150.5132
G1 F586.3 X135.076 Y110.132 E150.53817
G1 X134.924 Y110.132 E150.563
G1 X134.847 Y110 E150.58797
G1 X134.924 Y109.868 E150.61293
G1 X135.076 Y109.868 E150.63776
G1 F1500 E144.13776
G1 F300 Z1.12
G0 F6000 X110.153 Y110 Z1.12
G1 F300 Z0.32
G1 F1500 E150.63776
G1 F586.3 X110.076 Y110.132 E150.66273
G1 X109.924 Y110.132 E150.68756
G1 X109.847 Y110 E150.71253
G1 X109.924 Y109.868 E150.7375
G1 X110.076 Y109.868 E150.76233
G1 F1500 E144.26233
G1 F300 Z1.12
G0 F6000 X85.153 Y110 Z1.12
G1 F300 Z0.32
G1 F1500 E150.76233
G1 F586.3 X85.076 Y110.132 E150.7873
G1 X84.924 Y110.132 E150.81213
G1 X84.847 Y110 E150.83709
G1 X84.924 Y109.868 E150.86206
G1 X85.076 Y109.868 E150.88689
G1 F1500 E144.38689
G1 F300 Z1.12
G0 F6000 X61.362 Y110 Z1.12
G1 F300 Z0.32
G1 F1500 E150.88689
G1 F800 X61.305 Y110.096 E150.90026
G1 X61.194 Y110.096 E150.91355
G1 X61.138 Y110 E150.92686
G1 X61.195 Y109.904 E150.94023
G1 X61.305 Y109.904 E150.9534
G1 F1500 E144.4534
G1 F300 Z1.12
G0 F6000 X61.217 Y158.749 Z1.12
G1 F300 Z0.32
G1 F1500 E150.9534
G1 F973 X61.127 Y158.749 E150.96226
G1 X61.08 Y158.828 E150.97131
G1 X61.126 Y158.907 E150.98031
G1 X61.217 Y158.907 E150.98927
G1 X61.264 Y158.828 E150.99832
G1 F1500 E144.49832
G1 F300 Z1.12
G0 F6000 X85.055 Y158.654 Z1.12
G1 F300 Z0.32
G1 F1500 E150.99832
G1 F800 X84.945 Y158.654 E151.01149
G1 X84.888 Y158.75 E151.02486
G1 X84.944 Y158.846 E151.03817
G1 X85.055 Y158.846 E151.05146
G1 X85.112 Y158.75 E151.06482
G1 F1500 E144.56482
G1 F300 Z1.12
G0 F6000 X110.055 Y158.654 Z1.12
G1 F300 Z0.32
G1 F1500 E151.06482
G1 F800 X109.945 Y158.654 E151.078
G1 X109.888 Y158.75 E151.09136
G1 X109.944 Y158.846 E151.10467
G1 X110.055 Y158.846 E151.11796
G1 X110.112 Y158.75 E151.13133
G1 F1500 E144.63133
G1 F300 Z1.12
G0 F6000 X135.055 Y158.654 Z1.12
G1 F300 Z0.32
G1 F1500 E151.13133
G1 F800 X134.945 Y158.654 E151.1445
G1 X134.888 Y158.75 E151.15787
G1 X134.944 Y158.846 E151.17118
G1 X135.055 Y158.846 E151.18447
G1 X135.112 Y158.75 E151.19784
G1 F1500 E144.69784
G1 F300 Z1.12
G0 F6000 X158.874 Y158.748 Z1.12
G1 F300 Z0.32
G1 F1500 E151.19784
G1 F967.7 X158.782 Y158.748 E151.20694
G1 X158.735 Y158.828 E151.21613
G1 X158.782 Y158.908 E151.22531
G1 X158.874 Y158.908 E151.23442
G1 X158.921 Y158.828 E151.2436
G1 F1500 E144.7436
G1 F300 Z1.12
G0 F6000 X136 Y158.5 Z1.12
;TYPE:WALL-OUTER
G1 F300 Z0.32
G1 F1500 E151.2436
G1 F752.4 X135.572 Y158.161 E151.31312
G1 F751.6 X135.5 Y158.044 E151.33062
G1 F719.3 X135.5 Y111 E157.59564
G1 F768.4 X135.609 Y110.804 E157.6236
G1 F812.6 X135.799 Y110.599 E157.65655
G1 F757.9 X135.956 Y110.5 E157.68001
G1 F719.3 X158 Y110.5 E160.61568
G1 F757.9 X158.159 Y110.578 E160.63807
G1 X158.5 Y111 E160.70664
G1 F719.3 X158.499 Y134.544 E163.84208
G1 F716.4 X158.497 Y158.088 E166.99005
G1 F797.3 X158.283 Y158.283 E167.02483
G1 F796.5 X158.087 Y158.497 E167.05973
G1 F717.1 X136 Y158.5 E170.00995
G1 F1500 E163.50995
G1 F300 Z1.12
G0 F6000 X111 Y158.5 Z1.12
G1 F300 Z0.32
G1 F1500 E170.00995
G1 F752.4 X110.572 Y158.161 E170.07947
G1 F751.6 X110.5 Y158.044 E170.09697
G1 F719.3 X110.5 Y111 E176.36199
G1 F768.4 X110.609 Y110.804 E176.38995
G1 F812.6 X110.799 Y110.599 E176.4229
G1 F757.9 X110.956 Y110.5 E176.44636
G1 F719.3 X134 Y110.5 E179.51521
G1 F768.4 X134.196 Y110.609 E179.54316
G1 F822.9 X134.391 Y110.804 E179.57527
G1 F768.4 X134.5 Y111 E179.60322
G1 F719.3 X134.5 Y158.044 E185.86824
G1 F751.6 X134.428 Y158.161 E185.88575
G1 F840.1 X134.32 Y158.24 E185.90101
G1 F796.5 X134.087 Y158.497 E185.94273
G1 F717.1 X111 Y158.5 E189.02652
G0 F6000 X110 Y159.6
G1 F847.1 X110.5 Y159.55 E189.08335
G1 F757.9 X111 Y159.5 E189.14686
G1 F717.1 X134.174 Y159.496 E192.24227
G1 F796.5 X135 Y159.6 E192.3424
G1 F847.1 X135.5 Y159.55 E192.39922
G1 F757.9 X136 Y159.5 E192.46273
G1 F717.1 X158.174 Y159.496 E195.42457
G1 F796.5 X158.828 Y159.6 E195.50421
G1 F900 X159.6 Y159.6 E195.58638
G1 X159.6 Y158.828 E195.66855
G1 F797.3 X159.497 Y158.174 E195.74808
G1 F716.4 X159.498 Y134.587 E198.9018
G1 F719.3 X159.5 Y111 E202.04297
G1 F757.9 X159.55 Y110.5 E202.10648
G1 F847.1 X159.6 Y110 E202.1633
G1 F797.3 X159.497 Y109.174 E202.2633
G1 F716.4 X159.498 Y85.587 E205.41702
G1 F719.3 X159.5 Y62 E208.55818
G1 F800 X159.6 Y61.172 E208.65804
G1 F900 X159.6 Y60.4 E208.74021
G1 X158.828 Y60.4 E208.82238
G1 F800 X158 Y60.5 E208.92224
G1 F717.1 X135.826 Y60.504 E211.88408
G1 F796.5 X135 Y60.4 E211.98421
G1 F847.1 X134.5 Y60.45 E212.04103
G1 F757.9 X134 Y60.5 E212.10454
G1 F717.1 X110.826 Y60.504 E215.19995
G1 F796.5 X110 Y60.4 E215.30008
G1 F847.1 X109.5 Y60.45 E215.3569
G1 F757.9 X109 Y60.5 E215.42041
G1 F717.1 X85.826 Y60.504 E218.51583
G1 F796.5 X85 Y60.4 E218.61595
G1 F847.1 X84.5 Y60.45 E218.67278
G1 F757.9 X84 Y60.5 E218.73629
G1 F717.1 X61.826 Y60.504 E221.69813
G1 F796.5 X61.172 Y60.401 E221.77775
G1 F900 X60.401 Y60.401 E221.85981
G1 X60.401 Y61.172 E221.94187
G1 F800 X60.5 Y62 E222.04172
G1 F718.6 X60.502 Y85.587 E225.18602
G1 F715.7 X60.504 Y109.174 E228.34288
G1 F796.5 X60.4 Y110 E228.44301
G1 F847.1 X60.45 Y110.5 E228.49983
G1 F757.9 X60.5 Y111 E228.56334
G1 F718.6 X60.502 Y134.587 E231.70764
G1 F715.7 X60.504 Y158.174 E234.8645
G1 F796.5 X60.401 Y158.828 E234.94412
G1 F900 X60.401 Y159.599 E235.02618
G1 X61.172 Y159.599 E235.10824
G1 F800 X62 Y159.5 E235.20809
G1 F717.1 X84.174 Y159.496 E238.16993
G1 F796.5 X85 Y159.6 E238.27006
G1 F847.1 X85.5 Y159.55 E238.32688
G1 F757.9 X86 Y159.5 E238.39039
G1 F717.1 X109.174 Y159.496 E241.4858
G1 F796.5 X110 Y159.6 E241.58593
G0 F6000 X109.087 Y158.497
G1 F717.1 X86 Y158.5 E244.66972
G1 F752.4 X85.572 Y158.161 E244.73924
G1 F751.6 X85.5 Y158.044 E244.75675
G1 F719.3 X85.5 Y111 E251.02177
G1 F768.4 X85.609 Y110.804 E251.04972
G1 F812.6 X85.799 Y110.599 E251.08267
G1 F757.9 X85.956 Y110.5 E251.10613
G1 F719.3 X109 Y110.5 E254.17498
G1 F768.4 X109.196 Y110.609 E254.20294
G1 F822.9 X109.391 Y110.804 E254.23504
G1 F768.4 X109.5 Y111 E254.263
G1 F719.3 X109.5 Y158.044 E260.52802
G1 F751.6 X109.428 Y158.161 E260.54553
