;FLAVOR:Marlin
;TIME:7851
;Filament used: 13.5088m
;Layer height: 0.32
;MINX:78.258
;MINY:62.885
;MINZ:0.4
;MAXX:143.332
;MAXY:157.114
;MAXZ:43.76
;TARGET_MACHINE.NAME:Creality Ender-3 Pro
;Generated with Cura_SteamEngine 5.5.0
M82 ;absolute extrusion mode
; Ender 3 Custom Start G-code
G92 E0 ; Reset Extruder
G28 ; Home all axes
G1 Z5.0 F3000 ; Move Z Axis up a bit during heating to not damage bed
M104 S120 ; Start heating up the nozzle most of the way
M190 S90 ; Start heating the bed, wait until target temperature reached
M109 S235.0 ; Finish heating the nozzle
G1 Z2.0 F3000 ; Move Z Axis up little to prevent scratching of Heat Bed
G1 X0.1 Y20 Z0.3 F5000.0 ; Move to start position
G1 X0.1 Y200.0 Z0.3 F1500.0 E15 ; Draw the first line
G1 X0.4 Y200.0 Z0.3 F5000.0 ; Move to side a little
G1 X0.4 Y20 Z0.3 F1500.0 E30 ; Draw the second line
G92 E0 ; Reset Extruder
G1 Z2.0 F3000 ; Move Z Axis up little to prevent scratching of Heat Bed
G1 X5 Y20 Z0.3 F5000.0 ; Move over to prevent blob squish
G92 E0
G92 E0
G1 F1500 E-6.5
;LAYER_COUNT:134
;LAYER:0
M107
G1 F300 Z1.2
G0 F6000 X79.947 Y66.296 Z1.2
;TYPE:SKIRT
G1 F300 Z0.4
G1 F1500 E0
G1 F900 X80.741 Y65.633 E0.13762
G1 X83.489 Y63.735 E0.58194
G1 X84.043 Y63.407 E0.66759
G1 X84.757 Y63.121 E0.76992
G1 X85.488 Y62.953 E0.86971
G1 X86.115 Y62.899 E0.95344
G1 X86.48 Y62.89 E1.00201
G1 X105.609 Y62.885 E3.54694
G1 X106.444 Y62.901 E3.65805
G1 X107.077 Y62.959 E3.74262
G1 X107.831 Y63.147 E3.846
G1 X108.527 Y63.439 E3.94642
G1 X109.093 Y63.782 E4.03447
G1 X111.792 Y65.651 E4.47123
G1 X112.339 Y66.094 E4.56488
G1 X112.838 Y66.637 E4.66299
G1 X113.152 Y67.042 E4.73117
G1 X113.87 Y68.083 E4.89941
G1 X115.427 Y70.278 E5.25744
G1 X117.023 Y72.398 E5.61048
G1 X118.715 Y74.516 E5.97114
G1 X120.474 Y76.597 E6.33365
G1 X122.272 Y78.605 E6.69224
G1 X124.081 Y80.513 E7.04203
G1 X126.001 Y82.426 E7.40262
G1 X127.961 Y84.273 E7.76092
G1 X129.954 Y86.047 E8.11589
G1 X132.068 Y87.823 E8.48322
G1 X134.101 Y89.438 E8.82864
G1 X136.298 Y91.082 E9.19371
G1 X138.576 Y92.684 E9.56421
G1 X139.104 Y93.043 E9.64916
G1 X139.604 Y93.436 E9.73377
G1 X139.935 Y93.739 E9.79347
G1 X140.354 Y94.188 E9.87517
G1 X140.61 Y94.525 E9.93148
G1 X142.487 Y97.245 E10.37114
G1 X142.811 Y97.796 E10.45618
G1 X143.098 Y98.518 E10.55955
G1 X143.265 Y99.241 E10.65827
G1 X143.317 Y99.856 E10.74038
G1 X143.329 Y100.33 E10.80346
G1 X143.332 Y119.356 E13.33469
G1 X143.316 Y120.191 E13.4458
G1 X143.258 Y120.822 E13.5301
G1 X143.069 Y121.577 E13.63365
G1 X142.779 Y122.271 E13.73372
G1 X142.436 Y122.837 E13.82177
G1 X140.643 Y125.433 E14.24151
G1 X140.087 Y126.104 E14.35744
G1 X139.786 Y126.399 E14.41351
G1 X139.228 Y126.862 E14.50998
G1 X138.228 Y127.553 E14.67169
G1 X136.044 Y129.104 E15.02807
G1 X133.853 Y130.755 E15.39305
G1 X131.766 Y132.423 E15.74849
G1 X129.716 Y134.158 E16.10579
G1 X127.696 Y135.969 E16.46673
G1 X125.774 Y137.79 E16.81897
G1 X123.892 Y139.681 E17.17391
G1 X122.033 Y141.654 E17.53456
G1 X120.258 Y143.649 E17.88983
G1 X118.515 Y145.724 E18.25036
G1 X116.844 Y147.83 E18.60802
G1 X115.235 Y149.98 E18.96529
G1 X113.739 Y152.103 E19.31081
G1 X113.085 Y153.049 E19.46382
G1 X112.55 Y153.706 E19.57654
G1 X111.699 Y154.414 E19.72382
G1 X109.006 Y156.267 E20.15872
G1 X108.455 Y156.592 E20.24382
G1 X107.722 Y156.884 E20.3488
G1 X106.893 Y157.057 E20.46146
G1 X106.386 Y157.1 E20.52916
G1 X106.023 Y157.109 E20.57746
G1 X86.893 Y157.114 E23.12253
G1 X86.058 Y157.098 E23.23364
G1 X85.427 Y157.04 E23.31794
G1 X84.675 Y156.852 E23.42107
G1 X83.974 Y156.559 E23.52215
G1 X83.411 Y156.217 E23.60979
G1 X80.658 Y154.309 E24.05541
G1 X80.158 Y153.904 E24.14102
G1 X79.749 Y153.459 E24.22143
G1 X79.421 Y153.05 E24.29118
G1 X79.053 Y152.517 E24.37735
G1 X78.699 Y151.762 E24.48829
G1 X78.577 Y151.402 E24.53886
G1 X78.441 Y150.923 E24.6051
G1 X78.319 Y150.315 E24.6876
G1 X78.269 Y149.705 E24.76903
G1 X78.259 Y148.963 E24.86775
G1 X78.258 Y126.057 E27.91518
G1 X78.27 Y125.22 E28.02655
G1 X78.272 Y122.675 E28.36513
G1 X78.259 Y121.546 E28.51535
G1 X78.26 Y98.509 E31.5802
G1 X78.271 Y97.754 E31.68066
G1 X78.274 Y95.241 E32.01499
G1 X78.259 Y93.963 E32.18503
G1 X78.26 Y70.943 E35.24762
G1 X78.277 Y70.161 E35.35168
G1 X78.356 Y69.448 E35.44712
G1 X78.434 Y69.101 E35.49444
G1 X78.582 Y68.587 E35.5656
G1 X78.801 Y67.99 E35.6502
G1 X79.185 Y67.273 E35.75841
G1 X79.947 Y66.296 E35.92325
G0 F6000 X80.526 Y66.854
G1 F900 X81.196 Y66.291 E36.03968
G1 X83.896 Y64.424 E36.4764
G1 X84.398 Y64.127 E36.554
G1 X84.995 Y63.888 E36.63955
G1 X85.616 Y63.745 E36.72433
G1 X86.136 Y63.699 E36.79379
G1 X86.48 Y63.69 E36.83957
G1 X105.596 Y63.685 E39.38277
G1 X106.371 Y63.698 E39.48589
G1 X106.947 Y63.751 E39.56285
G1 X107.573 Y63.907 E39.64868
G1 X108.164 Y64.155 E39.73395
G1 X108.638 Y64.44 E39.80753
G1 X111.289 Y66.273 E40.23632
G1 X111.788 Y66.677 E40.32174
G1 X112.207 Y67.129 E40.40373
G1 X112.493 Y67.496 E40.46563
G1 X113.217 Y68.546 E40.63531
G1 X114.774 Y70.741 E40.99335
G1 X116.398 Y72.897 E41.35245
G1 X118.104 Y75.033 E41.71614
G1 X119.867 Y77.118 E42.0794
G1 X121.679 Y79.142 E42.44082
G1 X123.516 Y81.08 E42.79607
G1 X125.436 Y82.993 E43.15666
G1 X127.429 Y84.871 E43.52098
G1 X129.439 Y86.66 E43.87897
G1 X131.553 Y88.436 E44.2463
G1 X133.622 Y90.079 E44.59779
G1 X135.819 Y91.723 E44.96286
G1 X138.126 Y93.346 E45.33812
G1 X138.654 Y93.705 E45.42307
G1 X139.067 Y94.029 E45.4929
G1 X139.35 Y94.285 E45.54367
G1 X139.769 Y94.734 E45.62538
G1 X139.952 Y94.98 E45.66617
G1 X141.797 Y97.65 E46.09794
G1 X142.091 Y98.15 E46.17511
G1 X142.331 Y98.753 E46.26146
G1 X142.473 Y99.369 E46.34556
G1 X142.517 Y99.877 E46.4134
G1 X142.529 Y100.33 E46.47369
G1 X142.532 Y119.343 E49.00318
G1 X142.519 Y120.117 E49.10617
G1 X142.466 Y120.691 E49.18286
G1 X142.308 Y121.323 E49.26953
G1 X142.063 Y121.909 E49.35403
G1 X141.778 Y122.382 E49.4275
G1 X139.985 Y124.978 E49.84725
G1 X139.522 Y125.537 E49.94381
G1 X139.275 Y125.783 E49.99019
G1 X138.717 Y126.246 E50.08666
G1 X137.775 Y126.894 E50.23877
G1 X135.563 Y128.465 E50.59972
G1 X133.372 Y130.116 E50.96471
G1 X131.249 Y131.812 E51.32621
G1 X129.199 Y133.547 E51.68351
G1 X127.162 Y135.373 E52.04746
G1 X125.224 Y137.209 E52.40263
G1 X123.31 Y139.132 E52.76359
G1 X121.435 Y141.122 E53.12735
G1 X119.645 Y143.134 E53.48562
G1 X117.902 Y145.209 E53.84615
G1 X116.203 Y147.351 E54.20989
G1 X114.594 Y149.501 E54.56715
G1 X113.085 Y151.642 E54.91563
G1 X112.465 Y152.543 E55.06114
G1 X111.975 Y153.144 E55.16431
G1 X111.245 Y153.755 E55.29095
G1 X108.599 Y155.578 E55.71844
G1 X108.099 Y155.873 E55.79567
G1 X107.492 Y156.115 E55.88261
G1 X106.823 Y156.26 E55.97368
G1 X106.365 Y156.3 E56.03485
G1 X106.023 Y156.309 E56.08036
G1 X86.906 Y156.314 E58.6237
G1 X86.132 Y156.301 E58.72669
G1 X85.558 Y156.248 E58.80338
G1 X84.926 Y156.09 E58.89005
G1 X84.337 Y155.844 E58.97497
G1 X83.866 Y155.559 E59.04821
G1 X81.161 Y153.687 E59.48586
G1 X80.709 Y153.321 E59.56323
G1 X80.371 Y152.956 E59.62942
G1 X80.079 Y152.595 E59.69119
G1 X79.748 Y152.116 E59.76865
G1 X79.456 Y151.503 E59.85898
G1 X79.346 Y151.181 E59.90425
G1 X79.224 Y150.757 E59.96295
G1 X79.116 Y150.247 E60.03231
G1 X79.069 Y149.694 E60.10614
G1 X79.059 Y148.963 E60.2034
G1 X79.058 Y126.068 E63.24937
G1 X79.07 Y125.231 E63.36073
G1 X79.072 Y122.676 E63.70065
G1 X79.059 Y121.546 E63.851
G1 X79.06 Y98.521 E66.91426
G1 X79.071 Y97.766 E67.01471
G1 X79.074 Y95.242 E67.35051
G1 X79.059 Y93.963 E67.52068
G1 X79.06 Y70.958 E70.58128
G1 X79.073 Y70.243 E70.67642
G1 X79.137 Y69.623 E70.75934
G1 X79.215 Y69.276 E70.80666
G1 X79.333 Y68.862 E70.86393
G1 X79.532 Y68.319 E70.94087
G1 X79.857 Y67.712 E71.03247
G1 X80.526 Y66.854 E71.17722
G0 F6000 X81.104 Y67.414
G1 F900 X81.711 Y66.904 E71.28269
G1 X83.362 Y65.772 E71.54901
G1 X84.303 Y65.113 E71.70185
G1 X84.751 Y64.848 E71.7711
G1 X85.235 Y64.654 E71.84047
G1 X85.743 Y64.537 E71.90983
G1 X86.158 Y64.499 E71.96527
G1 X86.48 Y64.49 E72.00813
G1 X105.585 Y64.485 E74.54987
G1 X106.297 Y64.495 E74.6446
G1 X106.816 Y64.543 E74.71394
G1 X107.321 Y64.669 E74.78319
G1 X107.802 Y64.87 E74.85254
G1 X108.183 Y65.098 E74.91161
G1 X110.834 Y66.931 E75.3404
G1 X111.238 Y67.26 E75.40972
G1 X111.577 Y67.622 E75.4757
G1 X111.834 Y67.95 E75.53114
G1 X112.558 Y69 E75.70082
G1 X114.135 Y71.222 E76.06332
G1 X115.773 Y73.396 E76.42546
G1 X117.493 Y75.55 E76.79218
G1 X119.26 Y77.639 E77.15619
G1 X121.086 Y79.679 E77.52044
G1 X122.951 Y81.647 E77.88115
G1 X124.871 Y83.56 E78.24174
G1 X126.88 Y85.453 E78.60898
G1 X128.924 Y87.273 E78.97309
G1 X131.038 Y89.049 E79.34041
G1 X133.143 Y90.72 E79.69798
G1 X135.34 Y92.364 E80.06304
G1 X137.676 Y94.008 E80.44307
G1 X138.204 Y94.367 E80.52801
G1 X138.572 Y94.657 E80.59035
G1 X138.77 Y94.836 E80.62586
G1 X139.129 Y95.214 E80.69522
G1 X139.293 Y95.433 E80.73162
G1 X140.32 Y96.928 E80.97292
G1 X141.107 Y98.055 E81.1558
G1 X141.371 Y98.504 E81.22509
G1 X141.564 Y98.988 E81.29441
G1 X141.681 Y99.496 E81.36377
G1 X141.717 Y99.899 E81.4176
G1 X141.729 Y100.33 E81.47496
G1 X141.732 Y119.332 E84.003
G1 X141.722 Y120.043 E84.0976
G1 X141.674 Y120.562 E84.16694
G1 X141.548 Y121.068 E84.23631
G1 X141.347 Y121.548 E84.30555
G1 X141.12 Y121.927 E84.36432
G1 X139.327 Y124.523 E84.78406
G1 X138.952 Y124.976 E84.8623
G1 X138.761 Y125.17 E84.89852
G1 X138.264 Y125.587 E84.98483
G1 X137.322 Y126.235 E85.13695
G1 X135.082 Y127.826 E85.50248
G1 X132.891 Y129.477 E85.86746
G1 X130.732 Y131.201 E86.23504
G1 X128.682 Y132.936 E86.59234
G1 X126.628 Y134.777 E86.9593
G1 X124.674 Y136.628 E87.31739
G1 X122.728 Y138.583 E87.68437
G1 X120.837 Y140.59 E88.05123
G1 X119.032 Y142.619 E88.41253
G1 X117.289 Y144.694 E88.77305
G1 X115.576 Y146.854 E89.13982
G1 X113.94 Y149.04 E89.50308
G1 X112.431 Y151.181 E89.85155
G1 X111.845 Y152.037 E89.98957
G1 X111.401 Y152.581 E90.08299
G1 X110.793 Y153.095 E90.18891
G1 X109.112 Y154.247 E90.46002
G1 X108.192 Y154.889 E90.60928
G1 X107.743 Y155.154 E90.67864
G1 X107.259 Y155.347 E90.74796
G1 X106.751 Y155.463 E90.81729
G1 X106.342 Y155.5 E90.87192
G1 X106.023 Y155.509 E90.91438
G1 X86.917 Y155.514 E93.45625
G1 X86.206 Y155.504 E93.55085
G1 X85.687 Y155.456 E93.6202
G1 X85.181 Y155.33 E93.68957
G1 X84.701 Y155.129 E93.7588
G1 X84.321 Y154.901 E93.81776
G1 X81.664 Y153.065 E94.24743
G1 X81.259 Y152.737 E94.31677
G1 X80.958 Y152.412 E94.3757
G1 X80.737 Y152.14 E94.42233
G1 X80.441 Y151.712 E94.49156
G1 X80.213 Y151.243 E94.56094
G1 X80.114 Y150.955 E94.60145
G1 X80.007 Y150.591 E94.65193
G1 X79.899 Y150.081 E94.72129
G1 X79.869 Y149.683 E94.77439
G1 X79.859 Y148.963 E94.87018
G1 X79.858 Y126.079 E97.91468
G1 X79.87 Y125.242 E98.02605
G1 X79.872 Y122.677 E98.3673
G1 X79.859 Y121.546 E98.51778
G1 X79.86 Y98.533 E101.57944
G1 X79.871 Y97.778 E101.6799
G1 X79.874 Y95.243 E102.01715
G1 X79.859 Y93.963 E102.18746
G1 X79.86 Y70.97 E105.24646
G1 X79.87 Y70.317 E105.33334
G1 X79.918 Y69.798 E105.40269
G1 X79.996 Y69.451 E105.45
G1 X80.084 Y69.137 E105.49339
G1 X80.263 Y68.648 E105.56267
G1 X80.529 Y68.151 E105.63766
G1 X81.104 Y67.414 E105.76203
G1 F1500 E99.26203
G1 F300 Z1.2
G0 F6000 X86.651 Y68.288 Z1.2
G1 F300 Z0.4
G1 F1500 E105.76203
G1 F900 X105.851 Y68.285 E108.3164
G1 X105.851 Y95.84 E111.98234
G1 X105.591 Y95.845 E112.01693
G1 X105.46 Y95.878 E112.03491
G1 X105.458 Y95.873 E112.03562
G1 X105.442 Y95.879 E112.0379
G1 X105.435 Y95.884 E112.03904
G1 X105.418 Y95.888 E112.04136
G1 X105.377 Y95.921 E112.04837
G1 X105.293 Y95.977 E112.0618
G1 X105.202 Y96.13 E112.08548
G1 X105.186 Y96.307 E112.10912
G1 X105.248 Y96.473 E112.1327
G1 X105.296 Y96.514 E112.1411
G1 X105.349 Y96.582 E112.15257
G1 X105.39 Y96.597 E112.15838
G1 X105.412 Y96.616 E112.16224
G1 X105.429 Y96.624 E112.16474
G1 X105.434 Y96.613 E112.16635
G1 X105.59 Y96.67 E112.18845
G1 X105.851 Y96.676 E112.22318
G1 X105.851 Y123.316 E115.76738
G1 X105.566 Y123.316 E115.8053
G1 X105.379 Y123.362 E115.83092
G1 X105.29 Y123.409 E115.84431
G1 X105.155 Y123.525 E115.86799
G1 X105.084 Y123.688 E115.89164
G1 X105.09 Y123.866 E115.91533
G1 X105.173 Y124.023 E115.93896
G1 X105.308 Y124.125 E115.96147
G1 X105.345 Y124.142 E115.96689
G1 X105.349 Y124.147 E115.96774
G1 X105.509 Y124.225 E115.99142
G1 X105.6 Y124.235 E116.0036
G1 X105.85 Y124.235 E116.03686
G1 X105.851 Y151.711 E119.69228
G1 X86.651 Y151.714 E122.24666
G1 X86.651 Y124.233 E125.90275
G1 X86.936 Y124.233 E125.94067
G1 X87.123 Y124.187 E125.96629
G1 X87.212 Y124.14 E125.97968
G1 X87.347 Y124.024 E126.00336
G1 X87.418 Y123.861 E126.02701
G1 X87.412 Y123.683 E126.0507
G1 X87.329 Y123.526 E126.07433
G1 X87.194 Y123.424 E126.09684
G1 X87.157 Y123.407 E126.10226
G1 X87.153 Y123.402 E126.10311
G1 X86.993 Y123.324 E126.12679
G1 X86.902 Y123.314 E126.13897
G1 X86.652 Y123.314 E126.17223
G1 X86.651 Y96.679 E129.71577
G1 X86.908 Y96.677 E129.74996
G1 X87.052 Y96.643 E129.76964
G1 X87.074 Y96.638 E129.77265
G1 X87.081 Y96.636 E129.77361
G1 X87.098 Y96.622 E129.77654
G1 X87.224 Y96.535 E129.79691
G1 X87.312 Y96.381 E129.82051
G1 X87.324 Y96.204 E129.84411
G1 X87.259 Y96.038 E129.86783
G1 X87.194 Y95.985 E129.87899
G1 X87.153 Y95.934 E129.8877
G1 X87.112 Y95.919 E129.8935
G1 X87.085 Y95.897 E129.89814
G1 X87.059 Y95.886 E129.90189
G1 X87.054 Y95.898 E129.90362
G1 X86.911 Y95.846 E129.92387
G1 X86.652 Y95.841 E129.95833
G1 X86.651 Y68.288 E133.624
G0 F6000 X87.451 Y69.088
G1 F900 X105.051 Y69.085 E135.96551
G1 X105.051 Y95.185 E139.43787
G1 X104.986 Y95.213 E139.44728
G1 X104.946 Y95.244 E139.45402
G1 X104.888 Y95.275 E139.46277
G1 X104.786 Y95.369 E139.48122
G1 X104.743 Y95.403 E139.48851
G1 X104.727 Y95.423 E139.49192
G1 X104.661 Y95.485 E139.50397
G1 X104.495 Y95.746 E139.54512
G1 X104.401 Y96.041 E139.58631
G1 X104.386 Y96.35 E139.62747
G1 X104.45 Y96.652 E139.66854
G1 X104.589 Y96.928 E139.70965
G1 X104.692 Y97.043 E139.73019
G1 X104.742 Y97.11 E139.74131
G1 X104.773 Y97.134 E139.74653
G1 X104.795 Y97.159 E139.75096
G1 X104.851 Y97.196 E139.75989
G1 X104.985 Y97.301 E139.78254
G1 X105.051 Y97.33 E139.79213
G1 X105.051 Y122.637 E143.15899
G1 X105.006 Y122.655 E143.16543
G1 X104.917 Y122.702 E143.17882
G1 X104.664 Y122.88 E143.21998
G1 X104.466 Y123.117 E143.26106
G1 X104.334 Y123.397 E143.30225
G1 X104.279 Y123.701 E143.34335
G1 X104.303 Y124.01 E143.38458
G1 X104.405 Y124.301 E143.42561
G1 X104.578 Y124.558 E143.46682
G1 X104.811 Y124.761 E143.50794
G1 X104.954 Y124.841 E143.52974
G1 X104.985 Y124.866 E143.53503
G1 X105.05 Y124.894 E143.54445
G1 X105.051 Y150.911 E147.00577
G1 X87.451 Y150.914 E149.34728
G1 X87.451 Y124.912 E152.8066
G1 X87.496 Y124.894 E152.81305
G1 X87.585 Y124.847 E152.82644
G1 X87.838 Y124.669 E152.86759
G1 X88.036 Y124.432 E152.90868
G1 X88.168 Y124.152 E152.94986
G1 X88.223 Y123.848 E152.99096
G1 X88.199 Y123.539 E153.0322
G1 X88.097 Y123.248 E153.07322
G1 X87.924 Y122.991 E153.11444
G1 X87.691 Y122.788 E153.15555
G1 X87.548 Y122.708 E153.17735
G1 X87.517 Y122.683 E153.18265
G1 X87.452 Y122.655 E153.19206
G1 X87.451 Y97.338 E156.56025
G1 X87.506 Y97.315 E156.56818
G1 X87.55 Y97.281 E156.57558
G1 X87.645 Y97.228 E156.59005
G1 X87.746 Y97.13 E156.60878
G1 X87.752 Y97.126 E156.60974
G1 X87.755 Y97.121 E156.61051
G1 X87.867 Y97.014 E156.63112
G1 X88.027 Y96.749 E156.6723
G1 X88.114 Y96.452 E156.71348
G1 X88.123 Y96.143 E156.7546
G1 X88.052 Y95.842 E156.79575
G1 X87.907 Y95.569 E156.83687
G1 X87.779 Y95.431 E156.86191
G1 X87.76 Y95.406 E156.86609
G1 X87.743 Y95.393 E156.86894
G1 X87.697 Y95.343 E156.87798
G1 X87.62 Y95.296 E156.88998
G1 X87.517 Y95.215 E156.90741
G1 X87.452 Y95.187 E156.91683
G1 X87.451 Y69.088 E160.38905
G0 F6000 X88.251 Y69.888
G1 F900 X104.251 Y69.885 E162.5177
G1 X104.251 Y94.768 E165.82815
G1 X104.206 Y94.803 E165.83573
G1 X104.151 Y94.867 E165.84696
G1 X104.137 Y94.879 E165.84941
G1 X104.112 Y94.912 E165.85492
G1 X103.945 Y95.105 E165.88888
G1 X103.749 Y95.454 E165.94213
G1 X103.627 Y95.834 E165.99523
G1 X103.582 Y96.231 E166.04838
G1 X103.617 Y96.629 E166.10154
G1 X103.731 Y97.012 E166.1547
G1 X103.919 Y97.365 E166.20791
G1 X104.173 Y97.673 E166.26102
G1 X104.192 Y97.689 E166.26432
G1 X104.206 Y97.705 E166.26715
G1 X104.251 Y97.741 E166.27482
G1 X104.251 Y122.188 E169.52726
