;FLAVOR:Marlin
;TIME:2307
;Filament used: 3.6072m
;Layer height: 0.32
;MINX:92.008
;MINY:90.401
;MINZ:0.4
;MAXX:127.993
;MAXY:129.6
;MAXZ:43.76
;TARGET_MACHINE.NAME:Creality Ender-3 Pro
;Generated with Cura_SteamEngine 5.5.0
M82 ;absolute extrusion mode
; Ender 3 Custom Start G-code
G92 E0 ; Reset Extruder
G28 ; Home all axes
G1 Z5.0 F3000 ; Move Z Axis up a bit during heating to not damage bed
M104 S120 ; Start heating up the nozzle most of the way
M190 S90 ; Start heating the bed, wait until target temperature reached
M109 S235.0 ; Finish heating the nozzle
G1 Z2.0 F3000 ; Move Z Axis up little to prevent scratching of Heat Bed
G1 X0.1 Y20 Z0.3 F5000.0 ; Move to start position
G1 X0.1 Y200.0 Z0.3 F1500.0 E15 ; Draw the first line
G1 X0.4 Y200.0 Z0.3 F5000.0 ; Move to side a little
G1 X0.4 Y20 Z0.3 F1500.0 E30 ; Draw the second line
G92 E0 ; Reset Extruder
G1 Z2.0 F3000 ; Move Z Axis up little to prevent scratching of Heat Bed
G1 X5 Y20 Z0.3 F5000.0 ; Move over to prevent blob squish
G92 E0
G92 E0
G1 F1500 E-6.5
;LAYER_COUNT:134
;LAYER:0
M107
G1 F300 Z1.2
G0 F6000 X93.731 Y93.807 Z1.2
;TYPE:SKIRT
G1 F300 Z0.4
G1 F1500 E0
G1 F900 X93.998 Y93.552 E0.04912
G1 X94.59 Y93.076 E0.15018
G1 X97.242 Y91.245 E0.57893
G1 X97.793 Y90.92 E0.66404
G1 X98.526 Y90.628 E0.76901
G1 X99.356 Y90.455 E0.8818
G1 X99.864 Y90.412 E0.94963
G1 X100.228 Y90.403 E0.99807
G1 X119.366 Y90.401 E3.5442
G1 X120.193 Y90.417 E3.65425
G1 X120.822 Y90.475 E3.73828
G1 X121.575 Y90.663 E3.84154
G1 X122.285 Y90.961 E3.94398
G1 X122.858 Y91.31 E4.03324
G1 X123.991 Y92.101 E4.21708
G1 X125.303 Y92.998 E4.42852
G1 X125.662 Y93.265 E4.48804
G1 X126.299 Y93.813 E4.59983
G1 X127.061 Y94.778 E4.76342
G1 X127.486 Y95.587 E4.885
G1 X127.678 Y96.128 E4.96137
G1 X127.813 Y96.604 E5.02719
G1 X127.942 Y97.222 E5.11119
G1 X127.982 Y97.81 E5.18959
G1 X127.992 Y98.57 E5.29071
G1 X127.993 Y121.449 E8.33455
G1 X127.975 Y122.326 E8.45125
G1 X127.913 Y122.937 E8.53295
G1 X127.824 Y123.373 E8.59216
G1 X127.74 Y123.688 E8.63553
G1 X127.517 Y124.347 E8.72809
G1 X127.253 Y124.864 E8.80532
G1 X127.025 Y125.246 E8.8645
G1 X126.598 Y125.836 E8.9614
G1 X126.3 Y126.16 E9.01996
G1 X125.971 Y126.473 E9.08038
G1 X125.415 Y126.921 E9.17537
G1 X122.76 Y128.753 E9.60452
G1 X122.21 Y129.078 E9.68951
G1 X121.483 Y129.368 E9.79365
G1 X120.647 Y129.545 E9.90733
G1 X120.152 Y129.587 E9.97342
G1 X119.687 Y129.599 E10.03531
G1 X100.624 Y129.6 E12.57146
G1 X99.856 Y129.585 E12.67366
G1 X99.148 Y129.52 E12.76824
G1 X98.413 Y129.334 E12.86911
G1 X97.708 Y129.035 E12.97099
G1 X97.147 Y128.693 E13.0584
G1 X94.696 Y127.002 E13.45456
G1 X94.384 Y126.772 E13.50613
G1 X93.8 Y126.264 E13.60911
G1 X93.519 Y125.973 E13.66293
G1 X93.067 Y125.437 E13.75621
G1 X92.658 Y124.76 E13.86144
G1 X92.382 Y124.055 E13.96216
G1 X92.187 Y123.389 E14.05449
G1 X92.058 Y122.771 E14.13848
G1 X92.018 Y122.179 E14.21742
G1 X92.008 Y121.373 E14.32466
G1 X92.009 Y98.459 E17.37315
G1 X92.025 Y97.684 E17.47627
G1 X92.083 Y97.056 E17.56018
G1 X92.257 Y96.331 E17.65937
G1 X92.482 Y95.655 E17.75416
G1 X92.781 Y95.076 E17.84085
G1 X93.02 Y94.687 E17.90159
G1 X93.448 Y94.11 E17.99717
G1 X93.731 Y93.807 E18.05233
G0 F6000 X94.284 Y94.386
G1 F900 X94.551 Y94.131 E18.10145
G1 X95.042 Y93.736 E18.18529
G1 X96.17 Y92.964 E18.36714
G1 X97.649 Y91.934 E18.60692
G1 X98.149 Y91.639 E18.68416
G1 X98.756 Y91.397 E18.77109
G1 X99.425 Y91.252 E18.86216
G1 X99.885 Y91.212 E18.92359
G1 X100.228 Y91.203 E18.96924
G1 X119.352 Y91.201 E21.51351
G1 X120.119 Y91.214 E21.61557
G1 X120.693 Y91.267 E21.69226
G1 X121.323 Y91.424 E21.77863
G1 X121.915 Y91.673 E21.86408
G1 X122.4 Y91.966 E21.93946
G1 X123.533 Y92.756 E22.12322
G1 X124.829 Y93.642 E22.33208
G1 X125.14 Y93.871 E22.38347
G1 X125.717 Y94.368 E22.48478
G1 X126.389 Y95.218 E22.62894
G1 X126.75 Y95.906 E22.7323
G1 X126.924 Y96.396 E22.80148
G1 X127.03 Y96.768 E22.85294
G1 X127.148 Y97.332 E22.9296
G1 X127.182 Y97.821 E22.99482
G1 X127.192 Y98.57 E23.09447
G1 X127.193 Y121.435 E26.13645
G1 X127.179 Y122.245 E26.24422
G1 X127.117 Y122.856 E26.32593
G1 X127.049 Y123.173 E26.36906
G1 X126.982 Y123.432 E26.40465
G1 X126.778 Y124.035 E26.48934
G1 X126.564 Y124.458 E26.55241
G1 X126.373 Y124.782 E26.60245
G1 X126.009 Y125.294 E26.68603
G1 X125.711 Y125.618 E26.74459
G1 X125.467 Y125.852 E26.78957
G1 X124.963 Y126.261 E26.87592
G1 X123.481 Y127.277 E27.11497
G1 X122.353 Y128.064 E27.29796
G1 X121.854 Y128.359 E27.37508
G1 X121.25 Y128.6 E27.4616
G1 X120.578 Y128.748 E27.55314
G1 X120.13 Y128.787 E27.61297
G1 X119.687 Y128.799 E27.67193
G1 X100.638 Y128.8 E30.20622
G1 X99.929 Y128.788 E30.30056
G1 X99.284 Y128.729 E30.38673
G1 X98.663 Y128.572 E30.47194
G1 X98.076 Y128.323 E30.55677
G1 X97.601 Y128.034 E30.63075
G1 X95.171 Y126.358 E31.02347
G1 X94.859 Y126.128 E31.07504
G1 X94.373 Y125.705 E31.16076
G1 X94.131 Y125.457 E31.20686
G1 X93.717 Y124.966 E31.2923
G1 X93.379 Y124.406 E31.37932
G1 X93.127 Y123.763 E31.4712
G1 X92.97 Y123.225 E31.54576
G1 X92.852 Y122.661 E31.62242
G1 X92.818 Y122.169 E31.68804
G1 X92.808 Y121.373 E31.79395
G1 X92.809 Y98.474 E34.84044
G1 X92.822 Y97.758 E34.93571
G1 X92.875 Y97.185 E35.01227
G1 X93.035 Y96.518 E35.10353
G1 X93.22 Y95.969 E35.1806
G1 X93.492 Y95.443 E35.25938
G1 X93.666 Y95.159 E35.30369
G1 X94.034 Y94.655 E35.38672
G1 X94.284 Y94.386 E35.43558
G0 F6000 X94.87 Y94.931
G1 F900 X95.056 Y94.752 E35.46992
G1 X95.494 Y94.396 E35.54501
G1 X96.628 Y93.62 E35.72782
G1 X98.056 Y92.623 E35.95952
G1 X98.505 Y92.358 E36.02889
G1 X98.989 Y92.165 E36.09821
G1 X99.497 Y92.049 E36.16753
G1 X99.907 Y92.012 E36.2223
G1 X100.228 Y92.003 E36.26503
G1 X119.341 Y92.001 E38.80783
G1 X120.045 Y92.011 E38.9015
G1 X120.564 Y92.059 E38.97084
G1 X121.07 Y92.185 E39.04022
G1 X121.55 Y92.387 E39.1095
G1 X121.942 Y92.622 E39.17031
G1 X123.082 Y93.417 E39.35521
G1 X124.359 Y94.289 E39.56093
G1 X124.618 Y94.477 E39.60351
G1 X125.138 Y94.925 E39.69483
G1 X125.715 Y95.654 E39.81852
G1 X126.015 Y96.226 E39.90445
G1 X126.156 Y96.619 E39.95999
G1 X126.247 Y96.932 E40.00336
G1 X126.354 Y97.442 E40.07269
G1 X126.382 Y97.832 E40.12471
G1 X126.392 Y98.57 E40.2229
G1 X126.393 Y121.423 E43.26328
G1 X126.382 Y122.171 E43.3628
G1 X126.334 Y122.69 E43.43214
G1 X126.274 Y122.973 E43.47063
G1 X126.207 Y123.232 E43.50622
G1 X126.038 Y123.725 E43.57556
G1 X125.85 Y124.097 E43.63101
G1 X125.716 Y124.326 E43.66631
G1 X125.419 Y124.754 E43.73562
G1 X125.153 Y125.045 E43.78807
G1 X124.96 Y125.233 E43.82391
G1 X124.511 Y125.601 E43.90115
G1 X123.029 Y126.617 E44.1402
G1 X121.946 Y127.375 E44.31607
G1 X121.498 Y127.64 E44.38532
G1 X121.014 Y127.833 E44.45464
G1 X120.506 Y127.951 E44.52402
G1 X120.107 Y127.987 E44.57732
G1 X119.687 Y127.999 E44.63322
G1 X100.652 Y128 E47.16565
G1 X99.943 Y127.988 E47.25999
G1 X99.425 Y127.939 E47.32921
G1 X98.919 Y127.811 E47.39865
G1 X98.439 Y127.608 E47.46799
G1 X98.058 Y127.378 E47.52719
G1 X96.915 Y126.582 E47.7125
G1 X95.641 Y125.711 E47.91782
G1 X95.382 Y125.523 E47.9604
G1 X94.946 Y125.146 E48.03708
G1 X94.704 Y124.898 E48.08318
G1 X94.369 Y124.498 E48.1526
G1 X94.1 Y124.052 E48.22189
G1 X93.872 Y123.471 E48.30492
G1 X93.753 Y123.061 E48.36172
G1 X93.646 Y122.551 E48.43105
G1 X93.618 Y122.159 E48.48333
G1 X93.608 Y121.373 E48.58791
G1 X93.609 Y98.486 E51.63281
G1 X93.619 Y97.832 E51.71983
G1 X93.667 Y97.313 E51.78917
G1 X93.793 Y96.774 E51.86281
G1 X93.96 Y96.28 E51.93219
G1 X94.177 Y95.856 E51.99556
G1 X94.317 Y95.624 E52.03161
G1 X94.62 Y95.2 E52.10094
G1 X94.87 Y94.931 E52.1498
G1 F1500 E45.6498
G1 F300 Z1.2
G0 F6000 X100.4 Y95.801 Z1.2
G1 F300 Z0.4
G1 F1500 E52.1498
G1 F900 X119.6 Y95.801 E54.70418
G1 X119.6 Y124.199 E58.48226
G1 X100.401 Y124.2 E61.03651
G1 X100.4 Y95.801 E64.81472
G0 F6000 X101.2 Y96.601
G1 F900 X118.8 Y96.601 E67.15624
G1 X118.8 Y123.399 E70.72146
G1 X101.201 Y123.4 E73.06284
G1 X101.2 Y96.601 E76.62819
G0 F6000 X102 Y97.401
G1 F900 X118 Y97.401 E78.75684
G1 X118 Y122.599 E82.1092
G1 X102.001 Y122.6 E84.23771
G1 X102 Y97.401 E87.5902
G0 F6000 X102.8 Y98.201
G1 F900 X117.2 Y98.201 E89.50598
G1 X117.2 Y121.799 E92.64548
G1 X102.801 Y121.8 E94.56113
G1 X102.8 Y98.201 E97.70075
G0 F6000 X103.6 Y99.001
G1 F900 X116.4 Y99.001 E99.40367
G1 X116.4 Y120.999 E102.33029
G1 X103.601 Y121 E104.03308
G1 X103.6 Y99.001 E106.95984
G0 F6000 X104.4 Y99.801
;TYPE:SUPPORT
G1 F900 X115.6 Y99.801 E108.44989
G1 X115.6 Y120.199 E111.16365
G1 X104.401 Y120.2 E112.65358
G1 X104.4 Y99.801 E115.36747
G1 F1500 E108.86747
G1 F300 Z1.2
G0 F6000 X104.56 Y101.327 Z1.2
G1 F300 Z0.4
G1 F1500 E115.36747
G1 F900 X115.44 Y101.327 E116.81495
G1 F1500 E110.31495
G1 F300 Z1.2
G0 F6000 X111.993 Y99.961 Z1.2
G1 F300 Z0.4
G1 F1500 E116.81495
G1 F900 X111.993 Y120.04 E119.48627
G1 F1500 E112.98627
G1 F300 Z1.2
G0 F6000 X115.44 Y117.326 Z1.2
G1 F300 Z0.4
G1 F1500 E119.48627
G1 F900 X104.56 Y117.326 E120.93375
G1 F1500 E114.43375
G1 F300 Z1.2
G0 F6000 X106.66 Y120.04 Z1.2
G1 F300 Z0.4
G1 F1500 E120.93375
G1 F900 X106.66 Y99.961 E123.60507
G1 F1500 E117.10507
G1 F300 Z1.2
G0 F6000 X104.56 Y106.66 Z1.2
G1 F300 Z0.4
G1 F1500 E123.60507
G1 F900 X115.44 Y106.66 E125.05255
G1 F1500 E118.55255
G1 F300 Z1.2
G0 F6000 X115.44 Y111.993 Z1.2
G1 F300 Z0.4
G1 F1500 E125.05255
G1 F900 X104.56 Y111.993 E126.50004
G1 F1500 E120.00004
G1 F300 Z1.2
;MESH:2025-05-12_SolarAufsteller-RelingAufsatz.stl
G0 F6000 X98.576 Y121.824 Z1.2
;TYPE:WALL-INNER
G1 F300 Z0.4
G1 F1500 E126.50004
G1 F962.6 X98.576 Y98.175 E129.4418
G1 F1500 E122.9418
G1 F300 Z1.2
G0 F6000 X99.35 Y122.599 Z1.2
;TYPE:WALL-OUTER
G1 F300 Z0.4
G1 F1500 E129.4418
G1 F900 X99.35 Y97.401 E132.79416
G1 X98.02 Y97.4 E132.9711
G1 X97.802 Y97.444 E133.00069
G1 X97.803 Y122.556 E136.3416
G1 X97.97 Y122.597 E136.36448
G1 X99.35 Y122.599 E136.54808
G1 F1500 E130.04808
G1 F300 Z1.2
G0 F6000 X121.425 Y121.825 Z1.2
;TYPE:WALL-INNER
G1 F300 Z0.4
G1 F1500 E136.54808
G1 F962.6 X121.425 Y98.178 E139.4896
G1 F1500 E132.9896
G1 F300 Z1.2
G0 F6000 X120.651 Y122.599 Z1.2
M104 S225
;TYPE:WALL-OUTER
G1 F300 Z0.4
G1 F1500 E139.4896
G1 F900 X121.999 Y122.599 E139.66894
G1 X122.199 Y122.557 E139.69612
G1 X122.199 Y97.442 E143.03744
G1 X122.069 Y97.406 E143.05538
G1 X120.651 Y97.402 E143.24404
G1 X120.651 Y122.599 E146.59626
G1 F1500 E140.09626
G1 F300 Z1.2
;MESH:NONMESH
G0 F6000 X94.87 Y94.931 Z1.2
;TIME_ELAPSED:88.198931
;LAYER:1
M140 S80
G0 F7500 X94.87 Y94.931 Z1.52
;TYPE:SKIRT
G1 F300 Z0.72
G1 F1500 E146.59626
G1 F900 X95.056 Y94.752 E146.62373
G1 X95.494 Y94.396 E146.68381
G1 X96.628 Y93.62 E146.83005
G1 X98.056 Y92.623 E147.01542
G1 X98.505 Y92.358 E147.07091
G1 X98.989 Y92.165 E147.12637
G1 X99.497 Y92.049 E147.18183
G1 X99.907 Y92.012 E147.22564
G1 X100.228 Y92.003 E147.25982
G1 X119.341 Y92.001 E149.29406
G1 X120.045 Y92.011 E149.369
G1 X120.564 Y92.059 E149.42447
G1 X121.07 Y92.185 E149.47997
G1 X121.55 Y92.387 E149.5354
G1 X121.942 Y92.622 E149.58404
G1 X123.082 Y93.417 E149.73197
G1 X124.359 Y94.289 E149.89654
G1 X124.618 Y94.477 E149.93061
G1 X125.138 Y94.925 E150.00366
G1 X125.715 Y95.654 E150.10261
G1 X126.015 Y96.226 E150.17136
G1 X126.156 Y96.619 E150.21579
G1 X126.247 Y96.932 E150.25049
G1 X126.354 Y97.442 E150.30595
G1 X126.382 Y97.832 E150.34756
G1 X126.392 Y98.57 E150.42612
G1 X126.393 Y121.423 E152.85842
G1 X126.382 Y122.171 E152.93804
G1 X126.334 Y122.69 E152.99351
G1 X126.274 Y122.973 E153.0243
G1 X126.207 Y123.232 E153.05278
G1 X126.038 Y123.725 E153.10825
G1 X125.85 Y124.097 E153.15261
G1 X125.716 Y124.326 E153.18085
G1 X125.419 Y124.754 E153.23629
G1 X125.153 Y125.045 E153.27825
G1 X124.96 Y125.233 E153.30693
G1 X124.511 Y125.601 E153.36872
G1 X123.029 Y126.617 E153.55996
G1 X121.946 Y127.375 E153.70065
G1 X121.498 Y127.64 E153.75605
G1 X121.014 Y127.833 E153.81151
G1 X120.506 Y127.951 E153.86702
G1 X120.107 Y127.987 E153.90966
G1 X119.687 Y127.999 E153.95438
G1 X100.652 Y128 E155.98032
G1 X99.943 Y127.988 E156.05579
G1 X99.425 Y127.939 E156.11117
G1 X98.919 Y127.811 E156.16672
G1 X98.439 Y127.608 E156.22219
G1 X98.058 Y127.378 E156.26955
G1 X96.915 Y126.582 E156.4178
G1 X95.641 Y125.711 E156.58205
G1 X95.382 Y125.523 E156.61612
G1 X94.946 Y125.146 E156.67746
G1 X94.704 Y124.898 E156.71434
G1 X94.369 Y124.498 E156.76987
G1 X94.1 Y124.052 E156.82531
G1 X93.872 Y123.471 E156.89174
G1 X93.753 Y123.061 E156.93718
G1 X93.646 Y122.551 E156.99264
G1 X93.618 Y122.159 E157.03447
G1 X93.608 Y121.373 E157.11813
G1 X93.609 Y98.486 E159.55405
G1 X93.619 Y97.832 E159.62366
G1 X93.667 Y97.313 E159.67914
G1 X93.793 Y96.774 E159.73805
G1 X93.96 Y96.28 E159.79355
G1 X94.177 Y95.856 E159.84425
G1 X94.317 Y95.624 E159.87308
G1 X94.62 Y95.2 E159.92855
G1 X94.87 Y94.931 E159.96764
G1 F1500 E153.46764
G1 F300 Z1.52
G0 F7500 X101.327 Y95.401 Z1.52
;TYPE:SUPPORT
G1 F300 Z0.72
G1 F1500 E159.96764
G1 F1200 X101.327 Y124.6 E163.07536
G1 F1500 E156.57536
G1 F300 Z1.52
G0 F7500 X106.66 Y124.6 Z1.52
G1 F300 Z0.72
G1 F1500 E163.07536
G1 F1200 X106.66 Y95.401 E166.18308
G1 F1500 E159.68308
G1 F300 Z1.52
G0 F7500 X111.993 Y95.401 Z1.52
G1 F300 Z0.72
G1 F1500 E166.18308
G1 F1200 X111.993 Y124.6 E169.2908
G1 F1500 E162.7908
G1 F300 Z1.52
G0 F7500 X117.326 Y124.6 Z1.52
G1 F300 Z0.72
G1 F1500 E169.2908
G1 F1200 X117.326 Y95.401 E172.39852
G1 F1500 E165.89852
G1 F300 Z1.52
;MESH:2025-05-12_SolarAufsteller-RelingAufsatz.stl
G0 F7500 X121.574 Y98.328 Z1.52
;TYPE:WALL-INNER
G1 F300 Z0.72
G1 F1500 E172.39852
G1 F916 X121.574 Y121.675 E175.65371
G0 F7500 X120.65 Y122.599
;TYPE:WALL-OUTER
G1 F1200 X122.094 Y122.599 E175.8074
G1 X122.352 Y122.478 E175.83773
G1 X122.498 Y122.325 E175.86024
G1 X122.498 Y97.662 E178.48518
G1 X122.279 Y97.478 E178.51562
G1 X122.047 Y97.406 E178.54148
G1 X120.65 Y97.402 E178.69016
G1 X120.65 Y122.599 E181.37194
G1 F1500 E174.87194
G1 F300 Z1.52
G0 F7500 X98.426 Y121.672 Z1.52
;TYPE:WALL-INNER
G1 F300 Z0.72
G1 F1500 E181.37194
G1 F916 X98.426 Y98.325 E184.62713
G1 F1500 E178.12713
G1 F300 Z1.52
G0 F7500 X99.35 Y122.598 Z1.52
;TYPE:WALL-OUTER
G1 F300 Z0.72
G1 F1500 E184.62713
G1 F1200 X99.35 Y97.401 E187.30891
G1 X97.906 Y97.401 E187.4626
G1 X97.648 Y97.523 E187.49297
G1 X97.502 Y97.675 E187.5154
G1 X97.502 Y122.338 E190.14035
G1 X97.721 Y122.521 E190.17072
G1 X97.953 Y122.594 E190.19661
G1 X99.35 Y122.598 E190.3453
G1 F1500 E183.8453
G1 F300 Z1.52
;MESH:NONMESH
G0 F7500 X94.87 Y94.931 Z1.52
;TIME_ELAPSED:117.401214
;LAYER:2
G0 F9000 X94.87 Y94.931 Z1.84
;TYPE:SKIRT
G1 F300 Z1.04
G1 F1500 E190.3453
G1 F900 X95.056 Y94.752 E190.37277
G1 X95.494 Y94.396 E190.43284
G1 X96.628 Y93.62 E190.57909
G1 X98.056 Y92.623 E190.76445
G1 X98.505 Y92.358 E190.81995
G1 X98.989 Y92.165 E190.8754
G1 X99.497 Y92.049 E190.93086
G1 X99.907 Y92.012 E190.97468
G1 X100.228 Y92.003 E191.00886
G1 X119.341 Y92.001 E193.0431
G1 X120.045 Y92.011 E193.11803
G1 X120.564 Y92.059 E193.17351
G1 X121.07 Y92.185 E193.22901
G1 X121.55 Y92.387 E193.28444
G1 X121.942 Y92.622 E193.33308
G1 X123.082 Y93.417 E193.481
G1 X124.359 Y94.289 E193.64558
G1 X124.618 Y94.477 E193.67964
G1 X125.138 Y94.925 E193.7527
G1 X125.715 Y95.654 E193.85165
G1 X126.015 Y96.226 E193.92039
G1 X126.156 Y96.619 E193.96483
G1 X126.247 Y96.932 E193.99952
G1 X126.354 Y97.442 E194.05499
G1 X126.382 Y97.832 E194.0966
G1 X126.392 Y98.57 E194.17516
G1 X126.393 Y121.423 E196.60746
G1 X126.382 Y122.171 E196.68708
G1 X126.334 Y122.69 E196.74255
G1 X126.274 Y122.973 E196.77334
G1 X126.207 Y123.232 E196.80181
G1 X126.038 Y123.725 E196.85728
G1 X125.85 Y124.097 E196.90164
G1 X125.716 Y124.326 E196.92988
G1 X125.419 Y124.754 E196.98533
G1 X125.153 Y125.045 E197.02729
G1 X124.96 Y125.233 E197.05597
G1 X124.511 Y125.601 E197.11776
G1 X123.029 Y126.617 E197.309
G1 X121.946 Y127.375 E197.44969
G1 X121.498 Y127.64 E197.50509
G1 X121.014 Y127.833 E197.56055
G1 X120.506 Y127.951 E197.61605
G1 X120.107 Y127.987 E197.65869
G1 X119.687 Y127.999 E197.70341
G1 X100.652 Y128 E199.72935
G1 X99.943 Y127.988 E199.80483
G1 X99.425 Y127.939 E199.8602
G1 X98.919 Y127.811 E199.91575
G1 X98.439 Y127.608 E199.97122
G1 X98.058 Y127.378 E200.01859
G1 X96.915 Y126.582 E200.16684
G1 X95.641 Y125.711 E200.33109
G1 X95.382 Y125.523 E200.36515
