;FLAVOR:Marlin
;TIME:5598
;Filament used: 9.5769m
;Layer height: 0.32
;MINX:78.158
;MINY:73.632
;MINZ:0.4
;MAXX:140.132
;MAXY:146.318
;MAXZ:18.8
;TARGET_MACHINE.NAME:Creality Ender-3 Pro
;Generated with Cura_SteamEngine 5.5.0
M82 ;absolute extrusion mode
; Ender 3 Custom Start G-code
G92 E0 ; Reset Extruder
G28 ; Home all axes
G1 Z5.0 F3000 ; Move Z Axis up a bit during heating to not damage bed
M104 S120 ; Start heating up the nozzle most of the way
M190 S90 ; Start heating the bed, wait until target temperature reached
M109 S235.0 ; Finish heating the nozzle
G1 Z2.0 F3000 ; Move Z Axis up little to prevent scratching of Heat Bed
G1 X0.1 Y20 Z0.3 F5000.0 ; Move to start position
G1 X0.1 Y200.0 Z0.3 F1500.0 E15 ; Draw the first line
G1 X0.4 Y200.0 Z0.3 F5000.0 ; Move to side a little
G1 X0.4 Y20 Z0.3 F1500.0 E30 ; Draw the second line
G92 E0 ; Reset Extruder
G1 Z2.0 F3000 ; Move Z Axis up little to prevent scratching of Heat Bed
G1 X5 Y20 Z0.3 F5000.0 ; Move over to prevent blob squish
G92 E0
G92 E0
G1 F1500 E-6.5
;LAYER_COUNT:56
;LAYER:0
M107
G1 F300 Z1.2
G0 F6000 X86.28 Y75.982 Z1.2
;TYPE:SKIRT
G1 F300 Z0.4
G1 F1500 E0
G1 F900 X86.863 Y75.477 E0.10262
G1 X87.485 Y75.094 E0.1998
G1 X87.869 Y74.909 E0.2565
G1 X88.84 Y74.522 E0.39557
G1 X89.562 Y74.279 E0.49692
G1 X90.019 Y74.145 E0.56028
G1 X90.97 Y73.915 E0.69045
G1 X91.696 Y73.782 E0.78864
G1 X91.979 Y73.743 E0.82665
G1 X92.9 Y73.656 E0.94972
G1 X93.238 Y73.639 E0.99475
G1 X93.803 Y73.632 E1.06992
G1 X94.538 Y73.658 E1.16777
G1 X95.225 Y73.721 E1.25955
G1 X95.913 Y73.814 E1.35191
G1 X96.467 Y73.922 E1.42701
G1 X97.082 Y74.068 E1.5111
G1 X97.951 Y74.32 E1.63147
G1 X98.971 Y74.672 E1.77503
G1 X100.342 Y75.248 E1.97287
G1 X102.859 Y76.264 E2.33399
G1 X105.363 Y77.192 E2.68926
G1 X107.92 Y78.057 E3.04838
G1 X110.497 Y78.851 E3.40714
G1 X113.122 Y79.578 E3.76951
G1 X114.072 Y79.828 E3.9002
G1 X114.637 Y80.023 E3.97972
G1 X117.324 Y81.15 E4.36737
G1 X117.927 Y81.462 E4.4577
G1 X118.25 Y81.674 E4.5091
G1 X120.051 Y83.034 E4.80935
G1 X122.213 Y84.585 E5.16334
G1 X124.527 Y86.147 E5.53477
G1 X126.713 Y87.535 E5.87927
G1 X129.066 Y88.939 E6.24381
G1 X130.281 Y89.636 E6.43016
G1 X130.787 Y89.985 E6.51194
G1 X131.128 Y90.275 E6.57149
G1 X131.509 Y90.636 E6.64132
G1 X131.821 Y90.949 E6.70012
G1 X132.32 Y91.526 E6.80161
G1 X132.702 Y92.152 E6.89917
G1 X132.881 Y92.527 E6.95445
G1 X133.75 Y94.627 E7.25681
G1 X133.938 Y95.179 E7.3344
G1 X134.48 Y97.225 E7.61599
G1 X135.239 Y99.828 E7.97671
G1 X136.057 Y102.373 E8.33236
G1 X136.946 Y104.888 E8.68724
G1 X138.437 Y108.682 E9.22958
G1 X139.072 Y110.207 E9.44935
G1 X139.415 Y111.157 E9.58373
G1 X139.655 Y111.971 E9.69663
G1 X139.847 Y112.8 E9.80984
G1 X139.984 Y113.567 E9.9135
G1 X140.064 Y114.249 E10.00485
G1 X140.132 Y115.37 E10.15427
G1 X140.12 Y115.991 E10.2369
G1 X140.083 Y116.601 E10.3182
G1 X140.029 Y117.08 E10.38233
G1 X139.866 Y118.105 E10.52041
G1 X139.805 Y118.403 E10.56088
G1 X139.573 Y119.315 E10.68608
G1 X139.415 Y119.842 E10.75927
G1 X139.14 Y120.623 E10.86943
G1 X138.887 Y121.271 E10.96198
G1 X138.611 Y121.852 E11.04756
G1 X138.181 Y122.489 E11.1498
G1 X137.639 Y123.072 E11.25571
G1 X136.775 Y123.695 E11.39742
G1 X136.305 Y123.968 E11.46973
G1 X133.928 Y125.397 E11.83872
G1 X131.696 Y126.826 E12.19131
G1 X129.495 Y128.324 E12.54552
G1 X127.33 Y129.89 E12.901
G1 X125.159 Y131.555 E13.26499
G1 X123.117 Y133.213 E13.61494
G1 X121.05 Y134.993 E13.97784
G1 X119.075 Y136.793 E14.33335
G1 X117.126 Y138.674 E14.69371
G1 X115.227 Y140.614 E15.05488
G1 X112.694 Y143.382 E15.55406
G1 X112.322 Y143.8 E15.6285
G1 X111.822 Y144.288 E15.72146
G1 X111.184 Y144.741 E15.82556
G1 X110.612 Y145.027 E15.91064
G1 X109.61 Y145.428 E16.05422
G1 X108.888 Y145.671 E16.15557
G1 X108.431 Y145.805 E16.21893
G1 X107.48 Y146.035 E16.3491
G1 X106.754 Y146.168 E16.4473
G1 X106.471 Y146.207 E16.4853
G1 X105.55 Y146.294 E16.60838
G1 X105.212 Y146.311 E16.6534
G1 X104.647 Y146.318 E16.72858
G1 X103.912 Y146.292 E16.82642
G1 X103.225 Y146.229 E16.9182
G1 X102.537 Y146.136 E17.01057
G1 X101.983 Y146.028 E17.08566
G1 X101.369 Y145.882 E17.16963
G1 X100.576 Y145.654 E17.2794
G1 X99.374 Y145.235 E17.44875
G1 X98.084 Y144.693 E17.63491
G1 X95.592 Y143.687 E17.99244
G1 X93.085 Y142.758 E18.34814
G1 X90.516 Y141.886 E18.70907
G1 X87.969 Y141.103 E19.06357
G1 X85.338 Y140.375 E19.42676
G1 X84.375 Y140.121 E19.55926
G1 X84.053 Y140.019 E19.60419
G1 X82.63 Y139.491 E19.80612
G1 X81.946 Y139.22 E19.904
G1 X81.254 Y138.888 E20.00612
G1 X80.654 Y138.464 E20.10386
G1 X80.233 Y138.115 E20.17661
G1 X79.821 Y137.745 E20.25028
G1 X79.289 Y137.194 E20.35218
G1 X78.848 Y136.563 E20.4546
G1 X78.513 Y135.877 E20.55617
G1 X78.284 Y135.14 E20.65884
G1 X78.172 Y134.316 E20.76948
G1 X78.163 Y133.964 E20.81632
G1 X78.179 Y132.646 E20.99168
G1 X78.169 Y129.752 E21.3767
G1 X78.158 Y128.951 E21.48328
G1 X78.196 Y128.281 E21.57256
G1 X78.46 Y127.261 E21.71273
G1 X79.045 Y125.684 E21.93651
G1 X79.93 Y123.155 E22.29297
G1 X80.743 Y120.599 E22.64981
G1 X81.492 Y117.992 E23.01068
G1 X82.167 Y115.367 E23.37127
G1 X82.745 Y112.823 E23.71835
G1 X83.274 Y110.15 E24.08087
G1 X83.724 Y107.469 E24.44254
G1 X84.087 Y104.865 E24.79233
G1 X84.384 Y102.183 E25.15132
G1 X84.605 Y99.501 E25.50935
G1 X84.75 Y96.794 E25.87
G1 X84.824 Y93.018 E26.37246
G1 X84.823 Y80.126 E28.08762
G1 X84.839 Y79.309 E28.19634
G1 X84.897 Y78.68 E28.28037
G1 X85.085 Y77.926 E28.38376
G1 X85.385 Y77.213 E28.48667
G1 X85.785 Y76.563 E28.58821
G1 X86.28 Y75.982 E28.68975
G0 F6000 X86.851 Y76.545
G1 F900 X87.338 Y76.124 E28.7754
G1 X87.832 Y75.815 E28.85292
G1 X88.216 Y75.63 E28.90963
G1 X89.096 Y75.28 E29.03562
G1 X89.787 Y75.047 E29.13264
G1 X90.244 Y74.913 E29.196
G1 X91.157 Y74.693 E29.32094
G1 X91.805 Y74.575 E29.40857
G1 X92.088 Y74.536 E29.44657
G1 X92.942 Y74.455 E29.5607
G1 X93.249 Y74.439 E29.6016
G1 X93.776 Y74.432 E29.67172
G1 X94.466 Y74.455 E29.76357
G1 X95.118 Y74.514 E29.85066
G1 X95.806 Y74.607 E29.94303
G1 X96.282 Y74.7 E30.00755
G1 X96.86 Y74.837 E30.08658
G1 X97.691 Y75.077 E30.20166
G1 X98.661 Y75.41 E30.3381
G1 X100.032 Y75.986 E30.53594
G1 X102.567 Y77.009 E30.89963
G1 X105.106 Y77.95 E31.25987
G1 X107.67 Y78.818 E31.62
G1 X110.262 Y79.616 E31.98081
G1 X112.92 Y80.352 E32.34774
G1 X113.813 Y80.585 E32.47053
G1 X114.328 Y80.761 E32.54293
G1 X116.956 Y81.861 E32.92195
G1 X117.559 Y82.173 E33.01228
G1 X117.802 Y82.337 E33.05128
G1 X119.585 Y83.684 E33.34858
G1 X121.765 Y85.248 E33.70553
G1 X124.079 Y86.81 E34.07695
G1 X126.303 Y88.222 E34.42743
G1 X128.669 Y89.634 E34.794
G1 X129.827 Y90.295 E34.97139
G1 X130.333 Y90.644 E35.05317
G1 X130.578 Y90.856 E35.09627
G1 X130.942 Y91.201 E35.163
G1 X131.254 Y91.514 E35.22179
G1 X131.672 Y91.999 E35.30698
G1 X131.98 Y92.497 E35.38488
G1 X132.159 Y92.872 E35.44016
G1 X132.994 Y94.888 E35.73047
G1 X133.165 Y95.384 E35.80026
G1 X133.712 Y97.449 E36.08447
G1 X134.477 Y100.073 E36.4481
G1 X135.296 Y102.618 E36.80379
G1 X136.201 Y105.181 E37.1654
G1 X137.693 Y108.975 E37.70779
G1 X138.32 Y110.479 E37.92457
G1 X138.648 Y111.385 E38.05276
G1 X138.876 Y112.152 E38.15922
G1 X139.068 Y112.981 E38.27243
G1 X139.19 Y113.662 E38.36447
G1 X139.266 Y114.299 E38.44982
G1 X139.332 Y115.355 E38.59058
G1 X139.321 Y115.943 E38.66882
G1 X139.284 Y116.553 E38.75013
G1 X139.239 Y116.955 E38.80395
G1 X139.082 Y117.945 E38.9373
G1 X139.021 Y118.243 E38.97777
G1 X138.807 Y119.086 E39.09348
G1 X138.66 Y119.577 E39.16167
G1 X138.394 Y120.334 E39.26842
G1 X138.164 Y120.928 E39.35316
G1 X137.914 Y121.455 E39.43076
G1 X137.553 Y121.989 E39.51652
G1 X137.107 Y122.469 E39.60369
G1 X136.373 Y123.003 E39.72445
G1 X135.903 Y123.276 E39.79676
G1 X133.516 Y124.711 E40.16729
G1 X131.265 Y126.152 E40.52288
G1 X129.026 Y127.676 E40.88321
G1 X126.843 Y129.255 E41.24165
G1 X124.672 Y130.92 E41.60564
G1 X122.595 Y132.607 E41.96163
G1 X120.511 Y134.402 E42.32755
G1 X118.519 Y136.217 E42.68608
G1 X116.57 Y138.098 E43.04644
G1 X114.655 Y140.054 E43.41062
G1 X112.096 Y142.85 E43.91488
G1 X111.724 Y143.268 E43.98932
G1 X111.307 Y143.673 E44.06666
G1 X110.776 Y144.05 E44.1533
G1 X110.254 Y144.311 E44.23094
G1 X109.354 Y144.67 E44.35986
G1 X108.663 Y144.903 E44.45687
G1 X108.206 Y145.037 E44.52023
G1 X107.293 Y145.257 E44.64517
G1 X106.645 Y145.375 E44.7328
G1 X106.362 Y145.414 E44.77081
G1 X105.508 Y145.495 E44.88493
G1 X105.201 Y145.511 E44.92583
G1 X104.674 Y145.518 E44.99595
G1 X103.984 Y145.495 E45.0878
G1 X103.332 Y145.436 E45.1749
G1 X102.644 Y145.343 E45.26726
G1 X102.168 Y145.25 E45.33179
G1 X101.59 Y145.113 E45.41081
G1 X100.797 Y144.885 E45.52059
G1 X99.684 Y144.497 E45.6774
G1 X98.394 Y143.955 E45.86356
G1 X95.884 Y142.942 E46.22366
G1 X93.342 Y142 E46.58432
G1 X90.766 Y141.126 E46.94622
G1 X88.204 Y140.338 E47.30283
G1 X85.541 Y139.601 E47.67044
G1 X84.617 Y139.358 E47.79755
G1 X84.295 Y139.256 E47.84248
G1 X82.925 Y138.747 E48.03692
G1 X82.241 Y138.476 E48.1348
G1 X81.661 Y138.196 E48.22049
G1 X81.164 Y137.848 E48.30121
G1 X80.768 Y137.52 E48.36962
G1 X80.356 Y137.15 E48.44329
G1 X79.909 Y136.685 E48.5291
G1 X79.54 Y136.156 E48.61491
G1 X79.259 Y135.581 E48.70005
G1 X79.067 Y134.964 E48.78602
G1 X78.972 Y134.294 E48.87605
G1 X78.963 Y133.974 E48.91864
G1 X78.979 Y132.656 E49.094
G1 X78.969 Y129.749 E49.48075
G1 X78.957 Y128.997 E49.58081
G1 X78.991 Y128.402 E49.6601
G1 X79.21 Y127.539 E49.77855
G1 X79.795 Y125.962 E50.00233
G1 X80.685 Y123.419 E50.36077
G1 X81.508 Y120.834 E50.72169
G1 X82.261 Y118.213 E51.0845
G1 X82.942 Y115.566 E51.44812
G1 X83.53 Y112.978 E51.80121
G1 X84.059 Y110.305 E52.16372
G1 X84.513 Y107.602 E52.52837
G1 X84.882 Y104.955 E52.88393
G1 X85.179 Y102.271 E53.24319
G1 X85.404 Y99.544 E53.60722
G1 X85.549 Y96.837 E53.96788
G1 X85.624 Y93.034 E54.47393
G1 X85.623 Y80.14 E56.18936
G1 X85.636 Y79.383 E56.29008
G1 X85.689 Y78.809 E56.36677
G1 X85.846 Y78.179 E56.45315
G1 X86.096 Y77.585 E56.53889
G1 X86.435 Y77.033 E56.62508
G1 X86.851 Y76.545 E56.71039
G0 F6000 X87.42 Y77.111
G1 F900 X87.814 Y76.77 E56.77971
G1 X88.256 Y76.494 E56.84904
G1 X88.553 Y76.356 E56.89261
G1 X89.352 Y76.038 E57.00702
G1 X90.012 Y75.815 E57.0997
G1 X90.469 Y75.681 E57.16306
G1 X91.344 Y75.471 E57.28278
G1 X91.914 Y75.368 E57.35984
G1 X92.197 Y75.329 E57.39784
G1 X92.986 Y75.254 E57.50329
G1 X93.26 Y75.239 E57.53979
G1 X93.751 Y75.232 E57.60512
G1 X94.395 Y75.252 E57.69084
G1 X95.013 Y75.307 E57.77339
G1 X95.653 Y75.392 E57.85928
G1 X96.099 Y75.479 E57.91973
G1 X96.639 Y75.606 E57.99354
G1 X97.432 Y75.834 E58.10331
G1 X98.351 Y76.148 E58.23252
G1 X99.722 Y76.724 E58.43036
G1 X102.275 Y77.754 E58.79661
G1 X104.849 Y78.708 E59.16182
G1 X107.42 Y79.579 E59.52296
G1 X110.027 Y80.381 E59.88584
G1 X112.707 Y81.123 E60.2558
G1 X113.557 Y81.343 E60.37261
G1 X114.019 Y81.499 E60.43749
G1 X116.647 Y82.599 E60.81651
G1 X117.111 Y82.836 E60.88583
G1 X117.354 Y83 E60.92483
G1 X119.119 Y84.334 E61.21917
G1 X121.317 Y85.911 E61.57907
G1 X123.631 Y87.473 E61.9505
G1 X125.893 Y88.909 E62.30696
G1 X128.274 Y90.33 E62.67586
G1 X129.379 Y90.958 E62.84495
G1 X129.811 Y91.25 E62.91432
G1 X130.028 Y91.437 E62.95243
G1 X130.375 Y91.766 E63.01605
G1 X130.687 Y92.079 E63.07484
G1 X131.026 Y92.475 E63.1442
G1 X131.3 Y92.918 E63.21349
G1 X131.42 Y93.178 E63.25159
G1 X132.255 Y95.194 E63.5419
G1 X132.393 Y95.595 E63.59832
G1 X132.6 Y96.352 E63.70273
G1 X132.944 Y97.673 E63.88433
G1 X133.709 Y100.297 E64.24797
G1 X134.542 Y102.884 E64.60954
G1 X135.457 Y105.474 E64.97499
G1 X136.955 Y109.283 E65.51952
G1 X137.568 Y110.753 E65.73141
G1 X137.881 Y111.613 E65.85317
G1 X138.109 Y112.38 E65.95963
G1 X138.281 Y113.124 E66.06122
G1 X138.396 Y113.758 E66.14694
G1 X138.468 Y114.351 E66.22642
G1 X138.532 Y115.341 E66.3584
G1 X138.522 Y115.895 E66.43212
G1 X138.485 Y116.505 E66.51342
G1 X138.449 Y116.83 E66.55692
G1 X138.298 Y117.785 E66.68556
G1 X138.237 Y118.083 E66.72602
G1 X138.04 Y118.858 E66.83241
G1 X137.905 Y119.312 E66.89542
G1 X137.647 Y120.048 E66.99918
G1 X137.441 Y120.586 E67.07583
G1 X137.218 Y121.057 E67.14516
G1 X136.926 Y121.488 E67.21442
G1 X136.571 Y121.87 E67.2838
G1 X135.972 Y122.311 E67.38276
G1 X135.491 Y122.59 E67.45674
G1 X133.104 Y124.025 E67.82727
G1 X130.834 Y125.478 E68.18584
G1 X128.557 Y127.028 E68.5523
G1 X126.356 Y128.62 E68.91369
G1 X124.185 Y130.285 E69.27769
G1 X122.073 Y132.001 E69.63972
G1 X119.972 Y133.811 E70.00866
G1 X117.963 Y135.641 E70.37021
G1 X116.014 Y137.522 E70.73057
G1 X114.083 Y139.494 E71.09776
G1 X111.506 Y142.31 E71.60559
G1 X111.167 Y142.694 E71.67374
G1 X110.793 Y143.057 E71.74308
G1 X110.368 Y143.359 E71.81244
G1 X109.896 Y143.595 E71.88265
G1 X109.098 Y143.912 E71.99689
G1 X108.438 Y144.135 E72.08957
G1 X107.981 Y144.269 E72.15293
G1 X107.106 Y144.479 E72.27265
G1 X106.536 Y144.582 E72.34971
G1 X106.253 Y144.621 E72.38771
G1 X105.464 Y144.696 E72.49316
G1 X105.19 Y144.711 E72.52966
G1 X104.699 Y144.718 E72.59499
G1 X104.055 Y144.698 E72.68071
G1 X103.437 Y144.643 E72.76326
G1 X102.797 Y144.558 E72.84915
G1 X102.351 Y144.471 E72.90961
G1 X101.811 Y144.344 E72.98341
G1 X101.018 Y144.116 E73.09318
G1 X99.994 Y143.759 E73.23746
G1 X98.704 Y143.217 E73.42361
G1 X96.176 Y142.197 E73.78628
G1 X93.599 Y141.242 E74.15192
G1 X91.016 Y140.366 E74.51478
G1 X88.439 Y139.573 E74.87349
G1 X85.744 Y138.827 E75.24552
G1 X84.859 Y138.595 E75.36724
G1 X84.537 Y138.493 E75.41218
G1 X83.22 Y138.003 E75.59913
G1 X82.536 Y137.732 E75.69701
G1 X82.067 Y137.503 E75.76644
G1 X81.622 Y137.192 E75.83867
G1 X81.303 Y136.925 E75.89402
G1 X80.891 Y136.555 E75.96769
G1 X80.531 Y136.178 E76.03704
G1 X80.233 Y135.75 E76.10642
G1 X80.004 Y135.282 E76.17574
G1 X79.849 Y134.785 E76.245
G1 X79.772 Y134.269 E76.31441
G1 X79.763 Y133.984 E76.35235
G1 X79.779 Y132.666 E76.52771
G1 X79.769 Y129.746 E76.91619
G1 X79.756 Y129.043 E77.00973
G1 X79.786 Y128.523 E77.07903
G1 X79.96 Y127.817 E77.17577
G1 X80.545 Y126.24 E77.39954
G1 X81.44 Y123.683 E77.75996
G1 X82.277 Y121.055 E78.1269
G1 X83.03 Y118.434 E78.4897
G1 X83.717 Y115.765 E78.85636
G1 X84.315 Y113.133 E79.21545
G1 X84.844 Y110.46 E79.57796
G1 X85.302 Y107.735 E79.94558
G1 X85.677 Y105.045 E80.30692
G1 X85.974 Y102.359 E80.66645
G1 X86.203 Y99.587 E81.03649
G1 X86.348 Y96.88 E81.39715
G1 X86.424 Y93.05 E81.9068
G1 X86.423 Y80.152 E83.62275
G1 X86.433 Y79.457 E83.71522
G1 X86.481 Y78.938 E83.78457
G1 X86.607 Y78.432 E83.85394
G1 X86.809 Y77.952 E83.92323
G1 X87.082 Y77.508 E83.99257
G1 X87.42 Y77.111 E84.06194
G1 F1500 E77.56194
G1 F300 Z1.2
G0 F6000 X114.1 Y86.123 Z1.2
G1 F300 Z0.4
G1 F1500 E84.06194
G1 F900 X114.821 Y86.123 E84.15786
G1 X114.608 Y86.961 E84.27289
G1 X114.1 Y86.898 E84.34099
G1 X114.1 Y86.123 E84.4441
G1 F1500 E77.9441
G1 F300 Z1.2
G0 F6000 X114.593 Y90.003 Z1.2
G1 F300 Z0.4
G1 F1500 E84.4441
G1 F900 X114.872 Y90.9 E84.56908
G1 X114.626 Y91.148 E84.61555
G1 X114.1 Y90.99 E84.68862
G1 X114.1 Y90.077 E84.81008
G1 X114.593 Y90.003 E84.87641
G1 F1500 E78.37641
G1 F300 Z1.2
G0 F6000 X122.665 Y94.623 Z1.2
G1 F300 Z0.4
G1 F1500 E84.87641
G1 F900 X122.897 Y94.375 E84.92159
G1 X123.785 Y94.588 E85.04308
G1 X123.725 Y95.1 E85.11166
G1 X122.816 Y95.1 E85.23259
G1 X122.665 Y94.623 E85.29916
G1 F1500 E78.79916
G1 F300 Z1.2
G0 F6000 X126.769 Y94.589 Z1.2
G1 F300 Z0.4
G1 F1500 E85.29916
G1 F900 X127.092 Y94.511 E85.34337
G1 X127.116 Y94.504 E85.34669
G1 X127.595 Y94.357 E85.41335
G1 X127.841 Y94.597 E85.45908
G1 X127.7 Y95.1 E85.52857
G1 X126.83 Y95.1 E85.64432
G1 X126.769 Y94.589 E85.71279
G1 F1500 E79.21279
G1 F300 Z1.2
G0 F6000 X84.35 Y129.008 Z1.2
G1 F300 Z0.4
G1 F1500 E85.71279
G1 F900 X84.35 Y129.89 E85.83013
G1 X83.853 Y129.962 E85.89694
G1 X83.597 Y129.093 E86.01746
G1 X83.846 Y128.848 E86.06394
G1 X84.35 Y129.008 E86.13429
G1 F1500 E79.63429
G1 F300 Z1.2
G0 F6000 X83.838 Y132.893 Z1.2
G1 F300 Z0.4
G1 F1500 E86.13429
G1 F900 X84.35 Y132.953 E86.20287
G1 X84.35 Y133.929 E86.33272
G1 X83.865 Y134.119 E86.40202
G1 X83.599 Y133.887 E86.44898
G1 X83.838 Y132.893 E86.58499
G1 F1500 E80.08499
G1 F300 Z1.2
;MESH:2025-05-12_SolarAufsteller-RohrAufsatz.stl(2)
G0 F6000 X93.8 Y89.607 Z1.2
;TYPE:WALL-INNER
G1 F300 Z0.4
G1 F1500 E86.58499
