;FLAVOR:Marlin
;TIME:1384
;Filament used: 2.42488m
;Layer height: 0.32
;MINX:95.623
;MINY:95.132
;MINZ:0.4
;MAXX:131.124
;MAXY:124.882
;MAXZ:18.8
;TARGET_MACHINE.NAME:Creality Ender-3 Pro
;Generated with Cura_SteamEngine 5.5.0
M82 ;absolute extrusion mode
; Ender 3 Custom Start G-code
G92 E0 ; Reset Extruder
G28 ; Home all axes
G1 Z5.0 F3000 ; Move Z Axis up a bit during heating to not damage bed
M104 S120 ; Start heating up the nozzle most of the way
M190 S90 ; Start heating the bed, wait until target temperature reached
M109 S235.0 ; Finish heating the nozzle
G1 Z2.0 F3000 ; Move Z Axis up little to prevent scratching of Heat Bed
G1 X0.1 Y20 Z0.3 F5000.0 ; Move to start position
G1 X0.1 Y200.0 Z0.3 F1500.0 E15 ; Draw the first line
G1 X0.4 Y200.0 Z0.3 F5000.0 ; Move to side a little
G1 X0.4 Y20 Z0.3 F1500.0 E30 ; Draw the second line
G92 E0 ; Reset Extruder
G1 Z2.0 F3000 ; Move Z Axis up little to prevent scratching of Heat Bed
G1 X5 Y20 Z0.3 F5000.0 ; Move over to prevent blob squish
G92 E0
G92 E0
G1 F1500 E-6.5
;LAYER_COUNT:56
;LAYER:0
M107
G1 F300 Z1.2
G0 F6000 X97.08 Y97.482 Z1.2
;TYPE:SKIRT
G1 F300 Z0.4
G1 F1500 E0
G1 F900 X97.663 Y96.977 E0.10262
G1 X98.285 Y96.594 E0.1998
G1 X98.669 Y96.409 E0.2565
G1 X99.64 Y96.022 E0.39557
G1 X100.362 Y95.779 E0.49692
G1 X100.819 Y95.645 E0.56028
G1 X101.77 Y95.415 E0.69045
G1 X102.496 Y95.282 E0.78864
G1 X102.779 Y95.243 E0.82665
G1 X103.7 Y95.156 E0.94972
G1 X104.038 Y95.139 E0.99475
G1 X104.603 Y95.132 E1.06992
G1 X105.338 Y95.158 E1.16777
G1 X106.025 Y95.221 E1.25955
G1 X106.713 Y95.314 E1.35191
G1 X107.267 Y95.422 E1.42701
G1 X107.882 Y95.568 E1.5111
G1 X108.751 Y95.82 E1.63147
G1 X109.771 Y96.172 E1.77503
G1 X111.142 Y96.748 E1.97287
G1 X113.659 Y97.764 E2.33399
G1 X116.163 Y98.692 E2.68926
G1 X118.72 Y99.557 E3.04838
G1 X121.297 Y100.351 E3.40714
G1 X123.922 Y101.078 E3.76951
G1 X124.814 Y101.311 E3.89217
G1 X125.434 Y101.522 E3.9793
G1 X128.108 Y102.642 E4.36499
G1 X128.738 Y102.962 E4.459
G1 X129.359 Y103.411 E4.56095
G1 X129.905 Y103.949 E4.66293
G1 X130.36 Y104.563 E4.7646
G1 X130.717 Y105.244 E4.8669
G1 X130.97 Y105.974 E4.96968
G1 X131.095 Y106.718 E5.07005
G1 X131.124 Y107.296 E5.14705
G1 X131.087 Y110.111 E5.52159
G1 X131.111 Y111.583 E5.71745
G1 X131.111 Y112.599 E5.85262
G1 X131.064 Y113.242 E5.93839
G1 X130.894 Y113.984 E6.03967
G1 X130.606 Y114.707 E6.14321
G1 X130.221 Y115.359 E6.24394
G1 X129.765 Y115.913 E6.3394
G1 X129.002 Y116.692 E6.48447
G1 X128.448 Y117.162 E6.58113
G1 X127.723 Y117.586 E6.69287
G1 X127.416 Y117.723 E6.73759
G1 X125.945 Y118.293 E6.94747
G1 X125.16 Y118.581 E7.05872
G1 X124.889 Y118.668 E7.09658
G1 X124.053 Y118.898 E7.21194
G1 X122.758 Y119.236 E7.39
G1 X120.172 Y119.989 E7.74833
G1 X117.619 Y120.811 E8.10515
G1 X115.1 Y121.701 E8.46058
G1 X111.318 Y123.187 E9.00119
G1 X109.793 Y123.822 E9.22096
G1 X108.843 Y124.165 E9.35534
G1 X108.076 Y124.393 E9.46179
G1 X107.159 Y124.605 E9.58701
G1 X106.431 Y124.734 E9.68537
G1 X105.75 Y124.814 E9.77659
G1 X104.631 Y124.882 E9.92574
G1 X104.009 Y124.87 E10.00851
G1 X103.399 Y124.833 E10.08981
G1 X102.92 Y124.779 E10.15394
G1 X101.895 Y124.616 E10.29202
G1 X101.597 Y124.555 E10.33249
G1 X100.705 Y124.329 E10.45491
G1 X100.154 Y124.162 E10.53151
G1 X99.379 Y123.891 E10.64074
G1 X98.792 Y123.664 E10.72447
G1 X98.153 Y123.364 E10.81838
G1 X97.523 Y122.938 E10.91956
G1 X96.958 Y122.411 E11.02235
G1 X96.486 Y121.816 E11.1234
G1 X96.103 Y121.137 E11.22711
G1 X95.832 Y120.424 E11.32859
G1 X95.686 Y119.698 E11.42711
G1 X95.637 Y119.097 E11.50733
G1 X95.624 Y118.194 E11.62748
G1 X95.623 Y101.626 E13.8317
G1 X95.639 Y100.809 E13.94041
G1 X95.697 Y100.18 E14.02445
G1 X95.885 Y99.426 E14.12783
G1 X96.185 Y98.713 E14.23074
G1 X96.585 Y98.063 E14.33228
G1 X97.08 Y97.482 E14.43383
G0 F6000 X97.651 Y98.045
G1 F900 X98.138 Y97.624 E14.51947
G1 X98.632 Y97.315 E14.59699
G1 X99.016 Y97.13 E14.6537
G1 X99.896 Y96.78 E14.7797
G1 X100.587 Y96.547 E14.87671
G1 X101.044 Y96.413 E14.94007
G1 X101.957 Y96.193 E15.06502
G1 X102.605 Y96.075 E15.15264
G1 X102.888 Y96.036 E15.19065
G1 X103.742 Y95.955 E15.30478
G1 X104.049 Y95.939 E15.34568
G1 X104.576 Y95.932 E15.41579
G1 X105.266 Y95.955 E15.50764
G1 X105.918 Y96.014 E15.59474
G1 X106.606 Y96.107 E15.6871
G1 X107.082 Y96.2 E15.75163
G1 X107.66 Y96.337 E15.83066
G1 X108.491 Y96.577 E15.94573
G1 X109.461 Y96.91 E16.08217
G1 X110.832 Y97.486 E16.28002
G1 X113.367 Y98.509 E16.6437
G1 X115.906 Y99.45 E17.00394
G1 X118.47 Y100.318 E17.36408
G1 X121.062 Y101.116 E17.72489
G1 X123.72 Y101.852 E18.09182
G1 X124.612 Y102.085 E18.21447
G1 X125.125 Y102.26 E18.28658
G1 X127.799 Y103.38 E18.67228
G1 X128.319 Y103.646 E18.74999
G1 X128.842 Y104.024 E18.83584
G1 X129.299 Y104.475 E18.92126
G1 X129.679 Y104.987 E19.00609
G1 X129.981 Y105.563 E19.09261
G1 X130.192 Y106.173 E19.17848
G1 X130.306 Y106.851 E19.26995
G1 X130.324 Y107.285 E19.32774
G1 X130.287 Y110.1 E19.70228
G1 X130.311 Y111.585 E19.89987
G1 X130.313 Y112.541 E20.02706
G1 X130.271 Y113.122 E20.10456
G1 X130.127 Y113.748 E20.19002
G1 X129.887 Y114.351 E20.27636
G1 X129.561 Y114.903 E20.36165
G1 X129.193 Y115.353 E20.43899
G1 X128.43 Y116.132 E20.58406
G1 X127.984 Y116.507 E20.66158
G1 X127.397 Y116.855 E20.75237
G1 X127.09 Y116.992 E20.79709
G1 X125.669 Y117.542 E20.99981
G1 X124.915 Y117.819 E21.10668
G1 X124.644 Y117.906 E21.14455
G1 X123.851 Y118.124 E21.25396
G1 X122.543 Y118.465 E21.43379
G1 X119.927 Y119.227 E21.79629
G1 X117.374 Y120.049 E22.15312
G1 X114.807 Y120.956 E22.51532
G1 X111.025 Y122.443 E23.05598
G1 X109.521 Y123.07 E23.27276
G1 X108.615 Y123.398 E23.40095
G1 X107.848 Y123.626 E23.50741
G1 X107.018 Y123.818 E23.62075
G1 X106.336 Y123.94 E23.71292
G1 X105.7 Y124.016 E23.79814
G1 X104.646 Y124.082 E23.93863
G1 X104.057 Y124.071 E24.01701
G1 X103.447 Y124.034 E24.09831
G1 X103.045 Y123.989 E24.15213
G1 X102.055 Y123.832 E24.28549
G1 X101.757 Y123.771 E24.32595
G1 X100.902 Y123.554 E24.44331
G1 X100.418 Y123.407 E24.51061
G1 X99.668 Y123.145 E24.6163
G1 X99.081 Y122.918 E24.70003
G1 X98.552 Y122.668 E24.77787
G1 X98.023 Y122.31 E24.86285
G1 X97.547 Y121.866 E24.94945
G1 X97.15 Y121.366 E25.03439
G1 X96.832 Y120.801 E25.12065
G1 X96.603 Y120.2 E25.20621
G1 X96.483 Y119.631 E25.28358
G1 X96.437 Y119.085 E25.35647
G1 X96.424 Y118.194 E25.47503
G1 X96.423 Y101.64 E27.67738
G1 X96.436 Y100.883 E27.77811
G1 X96.489 Y100.309 E27.8548
G1 X96.646 Y99.679 E27.94118
G1 X96.896 Y99.085 E28.02692
G1 X97.235 Y98.533 E28.1131
G1 X97.651 Y98.045 E28.19841
G0 F6000 X98.22 Y98.611
G1 F900 X98.614 Y98.27 E28.26773
G1 X99.056 Y97.994 E28.33706
G1 X99.353 Y97.856 E28.38063
G1 X100.152 Y97.538 E28.49504
G1 X100.812 Y97.315 E28.58772
G1 X101.269 Y97.181 E28.65108
G1 X102.144 Y96.971 E28.7708
G1 X102.714 Y96.868 E28.84786
G1 X102.997 Y96.829 E28.88587
G1 X103.786 Y96.754 E28.99131
G1 X104.06 Y96.739 E29.02782
G1 X104.551 Y96.732 E29.09314
G1 X105.195 Y96.752 E29.17886
G1 X105.813 Y96.807 E29.26141
G1 X106.453 Y96.892 E29.3473
G1 X106.899 Y96.979 E29.40776
G1 X107.439 Y97.106 E29.48156
G1 X108.232 Y97.334 E29.59133
G1 X109.151 Y97.648 E29.72054
G1 X110.522 Y98.224 E29.91838
G1 X113.075 Y99.254 E30.28463
G1 X115.649 Y100.208 E30.64984
G1 X118.22 Y101.079 E31.01099
G1 X120.827 Y101.881 E31.37386
G1 X123.507 Y102.623 E31.74383
G1 X124.357 Y102.843 E31.86064
G1 X124.817 Y102.998 E31.92522
G1 X127.435 Y104.092 E32.3027
G1 X127.899 Y104.329 E32.37202
G1 X128.321 Y104.634 E32.44129
G1 X128.692 Y105.001 E32.51072
G1 X129.002 Y105.419 E32.57996
G1 X129.245 Y105.881 E32.6494
G1 X129.415 Y106.373 E32.71866
G1 X129.507 Y106.886 E32.788
G1 X129.524 Y107.274 E32.83966
G1 X129.487 Y110.089 E33.21421
G1 X129.511 Y111.589 E33.41379
G1 X129.515 Y112.483 E33.53273
G1 X129.477 Y113.003 E33.6021
G1 X129.361 Y113.511 E33.67142
G1 X129.168 Y113.995 E33.74074
G1 X128.903 Y114.444 E33.81011
G1 X128.574 Y114.846 E33.87922
G1 X127.916 Y115.519 E34.00444
G1 X127.517 Y115.854 E34.07375
G1 X127.071 Y116.124 E34.14311
G1 X126.764 Y116.261 E34.18784
G1 X125.393 Y116.791 E34.38339
G1 X124.67 Y117.057 E34.48588
G1 X124.399 Y117.144 E34.52375
G1 X123.649 Y117.35 E34.62722
G1 X122.328 Y117.694 E34.80883
G1 X119.703 Y118.459 E35.17259
G1 X117.116 Y119.292 E35.53417
G1 X114.526 Y120.207 E35.89962
G1 X110.717 Y121.705 E36.44415
G1 X109.247 Y122.318 E36.65604
G1 X108.387 Y122.631 E36.7778
G1 X107.62 Y122.859 E36.88425
G1 X106.876 Y123.031 E36.98585
G1 X106.239 Y123.146 E37.07196
G1 X105.648 Y123.218 E37.15117
G1 X104.66 Y123.282 E37.28289
G1 X104.105 Y123.272 E37.35674
G1 X103.495 Y123.235 E37.43804
G1 X103.17 Y123.199 E37.48155
G1 X102.215 Y123.048 E37.61018
G1 X101.917 Y122.987 E37.65065
G1 X101.133 Y122.788 E37.75826
G1 X100.682 Y122.652 E37.82093
G1 X99.954 Y122.398 E37.92351
G1 X99.423 Y122.195 E37.99914
G1 X98.952 Y121.972 E38.06847
G1 X98.52 Y121.68 E38.13784
G1 X98.139 Y121.325 E38.20712
G1 X97.815 Y120.916 E38.27654
G1 X97.559 Y120.463 E38.34576
G1 X97.374 Y119.975 E38.4152
G1 X97.266 Y119.465 E38.48455
G1 X97.237 Y119.073 E38.53685
G1 X97.224 Y118.194 E38.6538
G1 X97.223 Y101.652 E40.85456
G1 X97.233 Y100.957 E40.94703
G1 X97.281 Y100.438 E41.01637
G1 X97.407 Y99.932 E41.08575
G1 X97.609 Y99.452 E41.15503
G1 X97.882 Y99.008 E41.22438
G1 X98.22 Y98.611 E41.29374
G1 F1500 E34.79374
G1 F300 Z1.2
G0 F6000 X124.9 Y107.623 Z1.2
G1 F300 Z0.4
G1 F1500 E41.29374
G1 F900 X125.621 Y107.623 E41.38966
G1 X125.408 Y108.461 E41.5047
G1 X124.9 Y108.398 E41.5728
G1 X124.9 Y107.623 E41.67591
G1 F1500 E35.17591
G1 F300 Z1.2
G0 F6000 X125.393 Y111.503 Z1.2
G1 F300 Z0.4
G1 F1500 E41.67591
G1 F900 X125.672 Y112.4 E41.80088
G1 X125.426 Y112.648 E41.84736
G1 X124.9 Y112.49 E41.92042
G1 X124.9 Y111.577 E42.04189
G1 X125.393 Y111.503 E42.10821
G1 F1500 E35.60821
G1 F300 Z1.2
;MESH:2025-05-12_SolarAufsteller-RohrAufsatz.stl
G0 F6000 X104.6 Y111.107 Z1.2
;TYPE:WALL-INNER
G1 F300 Z0.4
G1 F1500 E42.10821
G1 F961.3 X104.638 Y110.949 E42.12846
G1 X105.199 Y110.298 E42.2355
G1 X105.688 Y110.029 E42.30502
G1 X105.866 Y109.998 E42.32752
G1 X105.688 Y109.967 E42.35003
G1 X105.199 Y109.698 E42.41954
G1 X104.64 Y109.048 E42.52633
G1 X104.6 Y108.928 E42.54208
G1 X104.6 Y111.107 E42.8135
G1 F1500 E36.3135
G1 F300 Z1.2
G0 F6000 X105.038 Y117.851 Z1.2
G1 F300 Z0.4
G1 F1500 E42.8135
G1 F669.1 X105.042 Y111.88 E43.88195
G1 F767.6 X105.321 Y111.314 E43.98038
G1 F900 X105.662 Y110.919 E44.04981
G1 X105.959 Y110.755 E44.09494
G1 F765.1 X106.381 Y110.54 E44.16906
G1 F667.9 X122.34 Y110.535 E47.03006
G1 F669.8 X122.366 Y109.881 E47.14707
G1 X122.339 Y109.461 E47.22231
G1 F667.9 X106.381 Y109.458 E50.08314
G1 F765.1 X105.96 Y109.242 E50.15718
G1 F900 X105.663 Y109.078 E50.20232
G1 X105.323 Y108.683 E50.27166
G1 F764.3 X105.043 Y108.334 E50.34175
G1 F666.7 X105.037 Y102.159 E51.45081
G1 F669.1 X104.302 Y102.141 E51.58237
G1 X103.963 Y102.162 E51.64315
G1 F668.5 X103.965 Y108.119 E52.71008
G1 F663.6 X103.972 Y108.443 E52.76856
G1 F761.1 X103.825 Y109.058 E52.86803
G1 F900 X103.825 Y110.94 E53.11842
G1 F828.5 X103.894 Y111.41 E53.18707
G1 F715 X103.964 Y111.88 E53.26664
G1 F669.1 X103.964 Y117.847 E54.33438
G1 F669.8 X104.328 Y117.871 E54.39959
G1 X105.038 Y117.851 E54.52657
G0 F6000 X105.974 Y118.68
M104 S225
;TYPE:WALL-OUTER
G1 F900 X105.98 Y111.88 E55.43125
G1 X106.027 Y111.692 E55.45703
G1 X106.14 Y111.56 E55.48014
G1 X106.381 Y111.481 E55.51389
G1 X123.17 Y111.472 E57.7475
G1 X123.247 Y110.92 E57.82165
G1 X123.275 Y110.648 E57.85803
G1 X123.298 Y110.031 E57.94017
G1 X123.298 Y109.773 E57.9745
G1 X123.262 Y109.21 E58.04955
G1 X123.236 Y108.953 E58.08392
G1 X123.17 Y108.525 E58.14153
G1 X106.381 Y108.517 E60.37515
G1 X106.142 Y108.438 E60.40864
G1 X106.029 Y108.306 E60.43176
G1 X105.987 Y108.186 E60.44867
G1 X105.974 Y101.328 E61.36107
G1 X105.42 Y101.252 E61.43546
G1 X105.148 Y101.225 E61.47183
G1 X104.374 Y101.196 E61.57487
G1 X103.721 Y101.238 E61.66193
G1 X103.442 Y101.266 E61.69923
G1 X103.025 Y101.33 E61.75536
G1 X103.027 Y118.679 E64.06348
G1 X103.427 Y118.742 E64.11735
G1 X104.036 Y118.794 E64.19867
G1 X104.302 Y118.808 E64.2341
G1 X104.879 Y118.799 E64.31088
G1 X105.168 Y118.782 E64.34939
G1 X105.666 Y118.728 E64.41604
G1 X105.974 Y118.68 E64.45751
G1 F1500 E57.95751
G1 F300 Z1.2
;MESH:NONMESH
G0 F6000 X98.22 Y98.611 Z1.2
;TIME_ELAPSED:41.083450
;LAYER:1
M140 S80
G0 F7500 X98.22 Y98.611 Z1.52
;TYPE:SKIRT
G1 F300 Z0.72
G1 F1500 E64.45751
G1 F900 X98.614 Y98.27 E64.51297
G1 X99.056 Y97.994 E64.56843
G1 X99.353 Y97.856 E64.60328
G1 X100.152 Y97.538 E64.69481
G1 X100.812 Y97.315 E64.76896
G1 X101.269 Y97.181 E64.81965
G1 X102.144 Y96.971 E64.91542
G1 X102.714 Y96.868 E64.97707
G1 X102.997 Y96.829 E65.00747
G1 X103.786 Y96.754 E65.09183
G1 X104.06 Y96.739 E65.12103
G1 X104.551 Y96.732 E65.1733
G1 X105.195 Y96.752 E65.24187
G1 X105.813 Y96.807 E65.30791
G1 X106.453 Y96.892 E65.37662
G1 X106.899 Y96.979 E65.42499
G1 X107.439 Y97.106 E65.48403
G1 X108.232 Y97.334 E65.57185
G1 X109.151 Y97.648 E65.67521
G1 X110.522 Y98.224 E65.83348
G1 X113.075 Y99.254 E66.12649
G1 X115.649 Y100.208 E66.41865
G1 X118.22 Y101.079 E66.70757
G1 X120.827 Y101.881 E66.99787
G1 X123.507 Y102.623 E67.29384
G1 X124.357 Y102.843 E67.38729
G1 X124.817 Y102.998 E67.43895
G1 X127.435 Y104.092 E67.74094
G1 X127.899 Y104.329 E67.7964
G1 X128.321 Y104.634 E67.85181
G1 X128.692 Y105.001 E67.90736
G1 X129.002 Y105.419 E67.96274
G1 X129.245 Y105.881 E68.0183
G1 X129.415 Y106.373 E68.07371
G1 X129.507 Y106.886 E68.12918
G1 X129.524 Y107.274 E68.17051
G1 X129.487 Y110.089 E68.47014
G1 X129.511 Y111.589 E68.62981
G1 X129.515 Y112.483 E68.72497
G1 X129.477 Y113.003 E68.78046
G1 X129.361 Y113.511 E68.83592
G1 X129.168 Y113.995 E68.89138
G1 X128.903 Y114.444 E68.94687
G1 X128.574 Y114.846 E69.00215
G1 X127.916 Y115.519 E69.10233
G1 X127.517 Y115.854 E69.15778
G1 X127.071 Y116.124 E69.21327
G1 X126.764 Y116.261 E69.24905
G1 X125.393 Y116.791 E69.40549
G1 X124.67 Y117.057 E69.48749
G1 X124.399 Y117.144 E69.51778
G1 X123.649 Y117.35 E69.60056
G1 X122.328 Y117.694 E69.74585
G1 X119.703 Y118.459 E70.03685
G1 X117.116 Y119.292 E70.32612
G1 X114.526 Y120.207 E70.61847
G1 X110.717 Y121.705 E71.0541
G1 X109.247 Y122.318 E71.22361
G1 X108.387 Y122.631 E71.32102
G1 X107.62 Y122.859 E71.40618
G1 X106.876 Y123.031 E71.48746
G1 X106.239 Y123.146 E71.55635
G1 X105.648 Y123.218 E71.61972
G1 X104.66 Y123.282 E71.72509
G1 X104.105 Y123.272 E71.78417
G1 X103.495 Y123.235 E71.84922
G1 X103.17 Y123.199 E71.88402
G1 X102.215 Y123.048 E71.98692
G1 X101.917 Y122.987 E72.0193
G1 X101.133 Y122.788 E72.10539
G1 X100.682 Y122.652 E72.15552
G1 X99.954 Y122.398 E72.23759
G1 X99.423 Y122.195 E72.29809
G1 X98.952 Y121.972 E72.35356
G1 X98.52 Y121.68 E72.40905
G1 X98.139 Y121.325 E72.46448
G1 X97.815 Y120.916 E72.52001
G1 X97.559 Y120.463 E72.57539
G1 X97.374 Y119.975 E72.63094
G1 X97.266 Y119.465 E72.68642
G1 X97.237 Y119.073 E72.72826
G1 X97.224 Y118.194 E72.82182
G1 X97.223 Y101.652 E74.58243
G1 X97.233 Y100.957 E74.65641
G1 X97.281 Y100.438 E74.71188
G1 X97.407 Y99.932 E74.76738
G1 X97.609 Y99.452 E74.82281
G1 X97.882 Y99.008 E74.87828
G1 X98.22 Y98.611 E74.93377
G1 F1500 E68.43377
G1 F300 Z1.52
;MESH:2025-05-12_SolarAufsteller-RohrAufsatz.stl
G0 F7500 X104.86 Y116.792 Z1.52
;TYPE:WALL-INNER
G1 F300 Z0.72
G1 F1500 E74.93377
G1 F1337 X104.862 Y113.119 E75.28463
G1 F1290.3 X104.922 Y112.435 E75.35259
G1 F1224.5 X105.149 Y111.805 E75.42244
G1 F1201.5 X105.509 Y111.281 E75.49002
G1 F1200 X105.938 Y110.882 E75.55238
G1 X106.246 Y110.681 E75.59152
G1 X106.634 Y110.5 E75.63709
G1 F1233.9 X107.105 Y110.391 E75.68713
G1 F1292.1 X107.378 Y110.366 E75.71423
G1 F1327.8 X121.283 Y110.359 E77.05173
G1 F1338.9 X121.301 Y109.642 E77.12014
G1 F1327.8 X107.377 Y109.64 E78.45947
G1 F1292.1 X107.104 Y109.615 E78.48657
G1 F1233.9 X106.633 Y109.508 E78.53656
G1 F1200 X106.244 Y109.326 E78.58227
G1 X105.937 Y109.127 E78.62121
G1 X105.505 Y108.728 E78.6838
G1 X105.144 Y108.204 E78.75152
G1 F1250 X104.893 Y107.487 E78.82914
G1 F1322.3 X104.857 Y106.884 E78.88749
G1 F1340.8 X104.858 Y103.216 E79.23689
G1 F1338.9 X104.141 Y103.199 E79.3053
G1 F1340.8 X104.141 Y106.884 E79.65633
