;FLAVOR:Marlin
;TIME:7799
;Filament used: 4.23318m
;Layer height: 0.2
;MINX:61.404
;MINY:61.409
;MINZ:0.4
;MAXX:158.6
;MAXY:158.6
;MAXZ:13.4
;POSTPROCESSED
;Generated with Cura_SteamEngine 5.3.1
M82 ;absolute extrusion mode
; Ender 3 Custom Start G-code
G92 E0 ; Reset Extruder
G28 ; Home all axes
M104 S120 ; Start heating up the nozzle most of the way
M190 S70 ; Start heating the bed, wait until target temperature reached
M109 S250 ; Finish heating the nozzle
G1 Z2.0 F3000 ; Move Z Axis up little to prevent scratching of Heat Bed
G1 X0.1 Y20 Z0.3 F5000.0 ; Move to start position
G1 X0.1 Y200.0 Z0.3 F1500.0 E15 ; Draw the first line
G1 X0.4 Y200.0 Z0.3 F5000.0 ; Move to side a little
G1 X0.4 Y20 Z0.3 F1500.0 E30 ; Draw the second line
G92 E0 ; Reset Extruder
G1 Z2.0 F3000 ; Move Z Axis up little to prevent scratching of Heat Bed
G1 X5 Y20 Z0.3 F5000.0 ; Move over to prevent blob squish
G92 E0
G92 E0
G1 F1500 E-6.5
;LAYER_COUNT:67
;LAYER:0
M107
G0 F2400 X115.518 Y68.405 Z0.4
;TYPE:SKIRT
G1 F1500 E0
G1 F600 X115.996 Y67.638 E0.06012
G1 X116.539 Y66.917 E0.12016
G1 X117.091 Y66.3 E0.17523
G1 X117.603 Y65.773 E0.22411
G1 X118.289 Y65.1 E0.28803
G1 X118.964 Y64.499 E0.34815
G1 X119.689 Y63.961 E0.40821
G1 X120.459 Y63.489 E0.46829
G1 X121.267 Y63.086 E0.52835
G1 X122.108 Y62.757 E0.58842
G1 X122.975 Y62.503 E0.64852
G1 X123.861 Y62.327 E0.70861
G1 X124.758 Y62.23 E0.76862
G1 X125.403 Y62.21 E0.81155
G1 X125.891 Y62.21 E0.84401
G1 X126.612 Y62.236 E0.892
G1 X127.574 Y62.305 E0.95616
G1 X128.662 Y62.398 E1.0288
G1 X131.21 Y62.541 E1.19856
G1 X133.754 Y62.613 E1.36785
G1 X136.287 Y62.613 E1.53635
G1 X138.846 Y62.541 E1.70664
G1 X141.374 Y62.396 E1.87508
G1 X143.294 Y62.242 E2.00321
G1 X144.133 Y62.209 E2.05907
G1 X144.616 Y62.21 E2.09119
G1 X145.518 Y62.252 E2.15126
G1 X146.413 Y62.373 E2.21134
G1 X147.294 Y62.574 E2.27145
G1 X148.153 Y62.851 E2.33149
G1 X148.985 Y63.203 E2.39158
G1 X149.782 Y63.627 E2.45163
G1 X150.539 Y64.121 E2.51176
G1 X151.249 Y64.679 E2.57183
G1 X151.691 Y65.083 E2.61167
G1 X152.418 Y65.793 E2.67926
G1 X152.905 Y66.294 E2.72574
G1 X153.505 Y66.969 E2.78582
G1 X154.043 Y67.694 E2.84587
G1 X154.515 Y68.464 E2.90595
G1 X154.917 Y69.273 E2.96604
G1 X155.246 Y70.114 E3.02611
G1 X155.499 Y70.981 E3.08619
G1 X155.675 Y71.867 E3.14628
G1 X155.771 Y72.765 E3.20636
G1 X155.79 Y73.24 E3.23798
G1 X155.799 Y73.798 E3.2751
G1 X155.8 Y102.479 E5.18297
G1 X155.837 Y105.085 E5.35634
G1 X155.946 Y107.651 E5.52718
G1 X156.124 Y110.158 E5.69437
G1 X156.372 Y112.667 E5.86208
G1 X156.7 Y115.23 E6.03396
G1 X157.088 Y117.694 E6.19989
G1 X157.617 Y120.53 E6.3918
G1 X157.743 Y121.424 E6.45185
G1 X157.785 Y122.091 E6.49631
G1 X157.8 Y122.73 E6.53883
G1 X157.799 Y146.99 E8.15261
G1 X157.79 Y147.717 E8.20097
G1 X157.739 Y148.619 E8.26107
G1 X157.608 Y149.513 E8.32117
G1 X157.399 Y150.391 E8.38121
G1 X157.113 Y151.248 E8.44131
G1 X156.752 Y152.076 E8.5014
G1 X156.32 Y152.868 E8.56141
G1 X155.819 Y153.62 E8.62152
G1 X155.253 Y154.324 E8.6816
G1 X154.628 Y154.975 E8.74164
G1 X153.947 Y155.569 E8.80175
G1 X153.216 Y156.1 E8.86185
G1 X152.442 Y156.564 E8.92188
G1 X151.629 Y156.958 E8.98198
G1 X150.785 Y157.278 E9.04202
G1 X149.915 Y157.523 E9.10214
G1 X149.028 Y157.689 E9.16217
G1 X147.877 Y157.787 E9.23901
G1 X147.27 Y157.8 E9.2794
G1 X122.961 Y157.799 E10.89644
G1 X122.262 Y157.789 E10.94294
G1 X121.361 Y157.736 E11.00298
G1 X120.513 Y157.612 E11.05999
G1 X118.977 Y157.322 E11.16397
G1 X116.388 Y156.879 E11.33869
G1 X113.873 Y156.522 E11.50767
G1 X111.382 Y156.24 E11.67443
G1 X108.81 Y156.022 E11.84613
G1 X106.327 Y155.882 E12.01157
G1 X102.397 Y155.8 E12.27305
G1 X73.962 Y155.799 E14.16455
G1 X73.26 Y155.789 E14.21125
G1 X72.358 Y155.736 E14.27136
G1 X71.465 Y155.604 E14.33141
G1 X70.587 Y155.393 E14.39147
G1 X69.731 Y155.105 E14.45155
G1 X68.903 Y154.743 E14.51166
G1 X68.111 Y154.309 E14.57174
G1 X67.361 Y153.806 E14.63181
G1 X66.658 Y153.24 E14.69185
G1 X66.305 Y152.913 E14.72386
G1 X65.572 Y152.197 E14.79202
G1 X65.094 Y151.706 E14.8376
G1 X64.494 Y151.032 E14.89763
G1 X63.955 Y150.307 E14.95772
G1 X63.483 Y149.537 E15.0178
G1 X63.08 Y148.729 E15.07786
G1 X62.751 Y147.888 E15.13793
G1 X62.497 Y147.021 E15.19803
G1 X62.321 Y146.135 E15.25812
G1 X62.224 Y145.238 E15.31814
G1 X62.204 Y144.443 E15.37104
G1 X62.211 Y143.961 E15.4031
G1 X62.236 Y143.383 E15.44159
G1 X62.309 Y142.373 E15.50895
G1 X62.398 Y141.331 E15.57851
G1 X62.541 Y138.79 E15.74781
G1 X62.613 Y136.246 E15.91711
G1 X62.613 Y133.712 E16.08567
G1 X62.541 Y131.154 E16.25589
G1 X62.396 Y128.626 E16.42433
G1 X62.242 Y126.706 E16.55246
G1 X62.209 Y125.867 E16.60832
G1 X62.21 Y125.384 E16.64045
G1 X62.252 Y124.482 E16.70051
G1 X62.373 Y123.587 E16.76059
G1 X62.574 Y122.706 E16.8207
G1 X62.851 Y121.847 E16.88074
G1 X63.203 Y121.015 E16.94083
G1 X63.627 Y120.218 E17.00088
G1 X64.121 Y119.461 E17.06101
G1 X64.679 Y118.751 E17.12108
G1 X65.087 Y118.305 E17.16129
G1 X65.595 Y117.781 E17.20984
G1 X66.298 Y117.092 E17.27532
G1 X66.973 Y116.492 E17.3354
G1 X67.698 Y115.954 E17.39545
G1 X68.468 Y115.483 E17.45549
G1 X69.149 Y115.139 E17.50625
G1 X70.752 Y114.403 E17.62358
G1 X73.102 Y113.271 E17.79709
G1 X75.338 Y112.114 E17.96457
G1 X77.583 Y110.87 E18.1353
G1 X79.78 Y109.57 E18.30511
G1 X81.908 Y108.228 E18.47246
G1 X84.008 Y106.821 E18.64061
G1 X86.102 Y105.329 E18.81165
G1 X88.111 Y103.811 E18.97915
G1 X90.083 Y102.23 E19.14728
G1 X92.056 Y100.556 E19.3194
G1 X93.92 Y98.88 E19.48614
G1 X95.754 Y97.136 E19.65449
G1 X97.559 Y95.319 E19.82486
G1 X99.289 Y93.476 E19.99301
G1 X100.974 Y91.575 E20.16199
G1 X102.602 Y89.632 E20.33061
G1 X104.2 Y87.611 E20.502
G1 X105.684 Y85.62 E20.66718
G1 X107.164 Y83.512 E20.83851
G1 X108.56 Y81.401 E21.00687
G1 X109.906 Y79.234 E21.17656
G1 X111.175 Y77.056 E21.34424
G1 X112.404 Y74.804 E21.5149
G1 X113.551 Y72.549 E21.68319
G1 X114.658 Y70.213 E21.85515
G1 X115.111 Y69.211 E21.9283
G1 X115.518 Y68.405 E21.98836
G0 F2400 X115.179 Y68.193
G1 F600 X115.676 Y67.397 E22.05078
G1 X116.219 Y66.676 E22.11082
G1 X116.804 Y66.021 E22.16924
G1 X117.323 Y65.487 E22.21878
G1 X118.023 Y64.801 E22.28397
G1 X118.698 Y64.2 E22.34409
G1 X119.48 Y63.62 E22.40886
G1 X120.28 Y63.131 E22.47123
G1 X121.121 Y62.713 E22.5337
G1 X121.962 Y62.384 E22.59377
G1 X122.863 Y62.119 E22.65625
G1 X123.818 Y61.929 E22.72102
G1 X124.715 Y61.832 E22.78104
G1 X125.391 Y61.81 E22.82603
G1 X125.905 Y61.81 E22.86022
G1 X126.641 Y61.837 E22.90921
G1 X127.608 Y61.906 E22.9737
G1 X128.696 Y62 E23.04634
G1 X131.221 Y62.141 E23.21457
G1 X133.765 Y62.213 E23.38386
G1 X136.276 Y62.213 E23.5509
G1 X138.835 Y62.141 E23.72119
G1 X141.342 Y61.997 E23.88823
G1 X143.278 Y61.842 E24.01743
G1 X144.134 Y61.809 E24.07441
G1 X144.635 Y61.81 E24.10774
G1 X145.537 Y61.852 E24.1678
G1 X146.502 Y61.983 E24.23258
G1 X147.417 Y62.193 E24.29503
G1 X148.276 Y62.47 E24.35507
G1 X149.173 Y62.85 E24.41987
G1 X150.001 Y63.292 E24.48231
G1 X150.758 Y63.786 E24.54244
G1 X151.519 Y64.384 E24.60682
G1 X151.97 Y64.797 E24.6475
G1 X152.705 Y65.514 E24.7158
G1 X153.204 Y66.028 E24.76345
G1 X153.804 Y66.703 E24.82353
G1 X154.384 Y67.485 E24.88829
G1 X154.856 Y68.255 E24.94837
G1 X155.29 Y69.127 E25.01317
G1 X155.619 Y69.968 E25.07324
G1 X155.883 Y70.869 E25.13569
G1 X156.073 Y71.824 E25.20046
G1 X156.171 Y72.749 E25.26234
G1 X156.19 Y73.234 E25.29463
G1 X156.199 Y73.798 E25.33215
G1 X156.2 Y102.479 E27.24002
G1 X156.237 Y105.068 E27.41226
G1 X156.346 Y107.634 E27.5831
G1 X156.522 Y110.119 E27.74882
G1 X156.769 Y112.616 E27.91573
G1 X157.097 Y115.179 E28.08761
G1 X157.481 Y117.621 E28.25205
G1 X158.013 Y120.474 E28.4451
G1 X158.139 Y121.368 E28.50516
G1 X158.185 Y122.082 E28.55275
G1 X158.2 Y122.73 E28.59587
G1 X158.199 Y146.995 E30.20999
G1 X158.189 Y147.74 E30.25955
G1 X158.135 Y148.677 E30.32198
G1 X158.004 Y149.571 E30.38208
G1 X157.788 Y150.484 E30.44449
G1 X157.48 Y151.408 E30.50928
G1 X157.119 Y152.236 E30.56937
G1 X156.653 Y153.09 E30.63408
G1 X156.131 Y153.871 E30.69657
G1 X155.565 Y154.575 E30.75666
G1 X154.917 Y155.252 E30.819
G1 X154.182 Y155.893 E30.88387
G1 X153.451 Y156.424 E30.94398
G1 X152.648 Y156.907 E31.00631
G1 X151.771 Y157.332 E31.07114
G1 X150.927 Y157.652 E31.13118
G1 X149.989 Y157.916 E31.196
G1 X149.062 Y158.088 E31.25872
G1 X147.911 Y158.186 E31.33556
G1 X147.279 Y158.2 E31.37761
G1 X122.955 Y158.199 E32.99565
G1 X122.256 Y158.189 E33.04215
G1 X121.303 Y158.132 E33.10566
G1 X120.439 Y158.005 E33.16375
G1 X118.903 Y157.715 E33.26773
G1 X116.332 Y157.275 E33.44124
G1 X113.817 Y156.918 E33.61022
G1 X111.348 Y156.639 E33.7755
G1 X108.776 Y156.42 E33.94721
G1 X106.319 Y156.282 E34.11091
G1 X102.389 Y156.2 E34.37239
G1 X73.956 Y156.199 E36.26376
G1 X73.237 Y156.188 E36.31159
G1 X72.3 Y156.132 E36.37403
G1 X71.407 Y156 E36.43408
G1 X70.459 Y155.772 E36.49894
G1 X69.571 Y155.472 E36.56129
G1 X68.743 Y155.11 E36.6214
G1 X67.919 Y154.66 E36.68386
G1 X67.11 Y154.118 E36.74863
G1 X66.407 Y153.552 E36.80867
G1 X66.025 Y153.199 E36.84327
G1 X65.285 Y152.476 E36.91209
G1 X64.795 Y151.972 E36.95885
G1 X64.173 Y151.271 E37.02119
G1 X63.634 Y150.546 E37.08128
G1 X63.125 Y149.716 E37.14605
G1 X62.707 Y148.875 E37.20852
G1 X62.378 Y148.034 E37.2686
G1 X62.113 Y147.133 E37.33107
G1 X61.923 Y146.178 E37.39584
G1 X61.826 Y145.281 E37.45586
G1 X61.804 Y144.437 E37.51202
G1 X61.811 Y143.944 E37.54482
G1 X61.837 Y143.354 E37.5841
G1 X61.91 Y142.339 E37.65179
G1 X62 Y141.297 E37.72137
G1 X62.141 Y138.779 E37.88913
G1 X62.213 Y136.235 E38.05842
G1 X62.213 Y133.712 E38.22625
G1 X62.141 Y131.165 E38.39575
G1 X61.997 Y128.658 E38.56279
G1 X61.842 Y126.722 E38.69198
G1 X61.809 Y125.866 E38.74897
G1 X61.81 Y125.365 E38.7823
G1 X61.852 Y124.463 E38.84236
G1 X61.983 Y123.498 E38.90714
G1 X62.193 Y122.583 E38.96959
G1 X62.47 Y121.724 E39.02963
G1 X62.85 Y120.827 E39.09443
G1 X63.292 Y119.999 E39.15687
G1 X63.786 Y119.242 E39.217
G1 X64.384 Y118.481 E39.28138
G1 X64.8 Y118.027 E39.32234
G1 X65.315 Y117.495 E39.37159
G1 X66.032 Y116.793 E39.43834
G1 X66.707 Y116.193 E39.49842
G1 X67.489 Y115.613 E39.56318
G1 X68.259 Y115.142 E39.62323
G1 X68.982 Y114.775 E39.67716
G1 X70.585 Y114.04 E39.79447
G1 X72.928 Y112.911 E39.96748
G1 X75.144 Y111.764 E40.13346
G1 X77.389 Y110.52 E40.30419
G1 X79.576 Y109.226 E40.47323
G1 X81.685 Y107.896 E40.63909
G1 X83.776 Y106.495 E40.80652
G1 X85.87 Y105.003 E40.97755
G1 X87.87 Y103.492 E41.14429
G1 X89.824 Y101.925 E41.31091
G1 X91.797 Y100.251 E41.48303
G1 X93.644 Y98.59 E41.64826
G1 X95.478 Y96.846 E41.81661
G1 X97.275 Y95.037 E41.98623
G1 X98.998 Y93.203 E42.15362
G1 X100.667 Y91.318 E42.3211
G1 X102.295 Y89.375 E42.48972
G1 X103.886 Y87.363 E42.66035
G1 X105.363 Y85.381 E42.82477
G1 X106.83 Y83.291 E42.99463
G1 X108.226 Y81.18 E43.16298
G1 X109.566 Y79.023 E43.3319
G1 X110.829 Y76.855 E43.4988
G1 X112.053 Y74.612 E43.66878
G1 X113.195 Y72.368 E43.83627
G1 X114.297 Y70.042 E44.00748
G1 X114.754 Y69.031 E44.08129
G1 X115.179 Y68.193 E44.14379
G0 F2400 X114.822 Y68.012
G1 F600 X115.356 Y67.156 E44.2109
G1 X115.899 Y66.435 E44.27094
G1 X116.517 Y65.742 E44.33271
G1 X117.043 Y65.201 E44.3829
G1 X117.757 Y64.502 E44.44937
G1 X118.432 Y63.901 E44.50949
G1 X119.271 Y63.279 E44.57896
G1 X120.071 Y62.79 E44.64133
G1 X120.975 Y62.34 E44.70851
G1 X121.816 Y62.011 E44.76858
G1 X122.75 Y61.735 E44.83337
G1 X123.775 Y61.531 E44.90289
G1 X124.672 Y61.434 E44.9629
G1 X125.378 Y61.41 E45.00989
G1 X125.92 Y61.41 E45.04595
G1 X126.669 Y61.438 E45.09581
G1 X127.642 Y61.507 E45.16069
G1 X128.73 Y61.602 E45.23334
G1 X131.232 Y61.741 E45.40003
G1 X133.776 Y61.813 E45.56933
G1 X136.265 Y61.813 E45.7349
G1 X138.824 Y61.741 E45.90519
G1 X141.31 Y61.598 E46.07083
G1 X143.263 Y61.442 E46.20116
G1 X144.135 Y61.409 E46.25921
G1 X144.654 Y61.41 E46.29373
G1 X145.556 Y61.452 E46.3538
G1 X146.591 Y61.593 E46.42328
G1 X147.54 Y61.812 E46.48807
G1 X148.399 Y62.089 E46.54811
G1 X149.361 Y62.497 E46.61762
G1 X150.22 Y62.957 E46.68243
G1 X151.005 Y63.471 E46.74485
G1 X151.766 Y64.069 E46.80923
G1 X152.249 Y64.511 E46.85278
G1 X152.992 Y65.235 E46.92179
G1 X153.503 Y65.762 E46.97062
G1 X154.103 Y66.437 E47.0307
G1 X154.725 Y67.276 E47.10017
G1 X155.197 Y68.046 E47.16025
G1 X155.663 Y68.981 E47.22975
G1 X155.992 Y69.822 E47.28982
G1 X156.267 Y70.757 E47.35465
G1 X156.471 Y71.782 E47.42417
G1 X156.571 Y72.733 E47.48778
G1 X156.59 Y73.228 E47.52073
G1 X156.599 Y73.798 E47.55865
G1 X156.6 Y102.479 E49.46652
G1 X156.637 Y105.051 E49.63763
G1 X156.746 Y107.617 E49.80847
G1 X156.92 Y110.08 E49.97272
G1 X157.166 Y112.565 E50.13883
G1 X157.494 Y115.128 E50.31071
G1 X157.874 Y117.548 E50.47366
G1 X158.409 Y120.418 E50.66787
G1 X158.538 Y121.342 E50.72993
G1 X158.585 Y122.073 E50.77865
G1 X158.6 Y122.73 E50.82237
G1 X158.599 Y147 E52.43682
G1 X158.588 Y147.763 E52.48758
G1 X158.531 Y148.735 E52.55234
G1 X158.4 Y149.629 E52.61245
G1 X158.177 Y150.576 E52.67717
G1 X157.847 Y151.568 E52.74671
G1 X157.486 Y152.396 E52.8068
G1 X156.986 Y153.312 E52.87622
G1 X156.443 Y154.122 E52.94108
G1 X155.877 Y154.826 E53.00117
G1 X155.206 Y155.529 E53.06582
G1 X154.417 Y156.217 E53.13545
G1 X153.686 Y156.748 E53.19556
G1 X152.854 Y157.25 E53.26019
G1 X151.913 Y157.706 E53.32975
G1 X151.069 Y158.026 E53.3898
G1 X150.097 Y158.301 E53.45699
G1 X149.096 Y158.487 E53.52472
G1 X147.945 Y158.585 E53.60156
G1 X147.288 Y158.6 E53.64527
G1 X122.949 Y158.599 E55.26431
G1 X122.232 Y158.588 E55.31201
G1 X121.245 Y158.528 E55.37779
G1 X120.365 Y158.398 E55.43696
G1 X118.829 Y158.108 E55.54094
G1 X116.276 Y157.671 E55.71324
G1 X113.761 Y157.314 E55.88221
G1 X111.314 Y157.038 E56.04602
G1 X108.742 Y156.818 E56.21774
G1 X106.311 Y156.682 E56.3797
G1 X102.381 Y156.6 E56.64118
G1 X73.95 Y156.599 E58.53242
G1 X73.213 Y156.587 E58.58145
G1 X72.242 Y156.528 E58.64616
G1 X71.313 Y156.389 E58.70865
G1 X70.365 Y156.161 E58.77351
G1 X69.411 Y155.839 E58.84048
G1 X68.583 Y155.477 E58.9006
G1 X67.727 Y155.011 E58.96543
G1 X66.859 Y154.43 E59.03491
G1 X66.156 Y153.864 E59.09495
G1 X65.745 Y153.485 E59.13214
G1 X64.998 Y152.755 E59.20161
G1 X64.508 Y152.251 E59.24837
G1 X63.852 Y151.51 E59.31421
G1 X63.313 Y150.785 E59.3743
G1 X62.784 Y149.925 E59.44146
G1 X62.334 Y149.021 E59.50864
G1 X62.005 Y148.18 E59.56871
G1 X61.729 Y147.246 E59.63349
G1 X61.525 Y146.221 E59.70302
G1 X61.428 Y145.324 E59.76303
G1 X61.404 Y144.431 E59.82246
G1 X61.411 Y143.926 E59.85605
G1 X61.438 Y143.325 E59.89607
G1 X61.511 Y142.305 E59.96409
G1 X61.602 Y141.263 E60.03367
G1 X61.741 Y138.768 E60.1999
G1 X61.813 Y136.224 E60.36919
G1 X61.813 Y133.712 E60.53629
G1 X61.741 Y131.176 E60.70506
G1 X61.598 Y128.69 E60.8707
G1 X61.442 Y126.737 E61.00103
G1 X61.409 Y125.865 E61.05907
G1 X61.41 Y125.346 E61.0936
G1 X61.452 Y124.444 E61.15366
G1 X61.593 Y123.409 E61.22315
G1 X61.812 Y122.46 E61.28794
G1 X62.089 Y121.601 E61.34797
G1 X62.497 Y120.639 E61.41748
G1 X62.957 Y119.78 E61.4823
G1 X63.471 Y118.995 E61.54472
G1 X64.069 Y118.234 E61.6091
G1 X64.513 Y117.749 E61.65284
G1 X65.035 Y117.209 E61.7028
G1 X65.766 Y116.494 E61.77082
G1 X66.441 Y115.894 E61.8309
G1 X67.28 Y115.272 E61.90037
G1 X68.078 Y114.785 E61.96256
G1 X68.815 Y114.411 E62.01753
G1 X70.418 Y113.677 E62.13481
G1 X72.754 Y112.551 E62.30731
G1 X74.95 Y111.414 E62.47181
G1 X77.195 Y110.17 E62.64254
G1 X79.372 Y108.882 E62.81081
G1 X81.462 Y107.564 E62.97517
G1 X83.544 Y106.169 E63.14188
G1 X85.638 Y104.677 E63.31291
G1 X87.629 Y103.173 E63.4789
G1 X89.565 Y101.62 E63.64399
G1 X91.538 Y99.946 E63.81611
G1 X93.368 Y98.3 E63.97984
G1 X95.202 Y96.556 E64.14819
G1 X96.991 Y94.755 E64.31706
G1 X98.707 Y92.929 E64.48374
G1 X100.36 Y91.061 E64.64967
G1 X101.988 Y89.118 E64.81829
G1 X103.572 Y87.115 E64.98816
G1 X105.042 Y85.142 E65.15182
G1 X106.496 Y83.07 E65.32021
G1 X107.892 Y80.959 E65.48856
G1 X109.226 Y78.812 E65.6567
G1 X110.483 Y76.654 E65.82283
G1 X111.702 Y74.42 E65.99212
G1 X112.839 Y72.187 E66.1588
G1 X113.936 Y69.871 E66.32927
G1 X114.397 Y68.85 E66.40379
G1 X114.822 Y68.012 E66.4663
G1 F1500 E59.9663
;MESH:Eckverbinder 25x25x2mm Halbsschale-Body.stl
G0 F2400 X122.814 Y121.735
G0 X122.814 Y122.814
G0 X123.875 Y124.425
;TYPE:WALL-INNER
