;FLAVOR:Marlin
;TIME:7969
;Filament used: 17.2133m
;Layer height: 0.32
;MINX:61.723
;MINY:61.727
;MINZ:0.32
;MAXX:158.272
;MAXY:158.275
;MAXZ:56.96
;TARGET_MACHINE.NAME:Creality Ender-3 Pro
;Generated with Cura_SteamEngine 5.5.0
M82 ;absolute extrusion mode
; Ender 3 Custom Start G-code
G92 E0 ; Reset Extruder
G28 ; Home all axes
G1 Z5.0 F3000 ; Move Z Axis up a bit during heating to not damage bed
M104 S120 ; Start heating up the nozzle most of the way
M190 S70 ; Start heating the bed, wait until target temperature reached
M109 S235 ; Finish heating the nozzle
G1 Z2.0 F3000 ; Move Z Axis up little to prevent scratching of Heat Bed
G1 X0.1 Y20 Z0.3 F5000.0 ; Move to start position
G1 X0.1 Y200.0 Z0.3 F1500.0 E15 ; Draw the first line
G1 X0.4 Y200.0 Z0.3 F5000.0 ; Move to side a little
G1 X0.4 Y20 Z0.3 F1500.0 E30 ; Draw the second line
G92 E0 ; Reset Extruder
G1 Z2.0 F3000 ; Move Z Axis up little to prevent scratching of Heat Bed
G1 X5 Y20 Z0.3 F5000.0 ; Move over to prevent blob squish
G92 E0
G92 E0
G1 F1500 E-6.5
;LAYER_COUNT:178
;LAYER:0
M107
G0 F6000 X75.454 Y76.279 Z0.32
;TYPE:SKIRT
G1 F1500 E0
G1 F900 X76.518 Y75.219 E0.15985
G1 X77.176 Y74.602 E0.25586
G1 X77.99 Y73.866 E0.37265
G1 X79.191 Y72.833 E0.54126
G1 X80.211 Y72.008 E0.68088
G1 X80.907 Y71.478 E0.77399
G1 X81.962 Y70.704 E0.91326
G1 X83.082 Y69.926 E1.0584
G1 X84.054 Y69.287 E1.18221
G1 X84.728 Y68.868 E1.26667
G1 X86.074 Y68.074 E1.433
G1 X86.967 Y67.574 E1.54193
G1 X88.049 Y67.002 E1.67219
G1 X89.017 Y66.524 E1.78709
G1 X90.352 Y65.908 E1.94358
G1 X91.552 Y65.39 E2.08269
G1 X92.713 Y64.924 E2.21584
G1 X93.475 Y64.642 E2.30231
G1 X94.823 Y64.175 E2.45415
G1 X95.907 Y63.828 E2.57529
G1 X97.237 Y63.44 E2.72275
G1 X97.999 Y63.242 E2.80654
G1 X99.527 Y62.878 E2.97372
G1 X100.788 Y62.612 E3.11088
G1 X101.929 Y62.401 E3.23438
G1 X102.796 Y62.266 E3.32777
G1 X104.239 Y62.073 E3.48272
G1 X105.566 Y61.93 E3.62478
G1 X106.755 Y61.831 E3.75176
G1 X107.558 Y61.787 E3.83735
G1 X109.071 Y61.737 E3.99848
G1 X110.358 Y61.727 E4.13546
G1 X111.561 Y61.748 E4.26352
G1 X112.395 Y61.786 E4.35237
G1 X113.822 Y61.879 E4.50457
G1 X114.972 Y61.982 E4.62746
G1 X116.3 Y62.135 E4.76974
G1 X117.038 Y62.242 E4.84911
G1 X118.567 Y62.495 E5.01405
G1 X119.695 Y62.709 E5.13625
G1 X121.054 Y63.006 E5.28431
G1 X121.871 Y63.209 E5.37391
G1 X123.281 Y63.591 E5.52939
G1 X124.203 Y63.863 E5.6317
G1 X125.682 Y64.34 E5.7971
G1 X126.468 Y64.621 E5.88594
G1 X127.617 Y65.058 E6.01677
G1 X128.853 Y65.56 E6.15876
G1 X130.158 Y66.132 E6.31041
G1 X130.937 Y66.503 E6.40224
G1 X132.181 Y67.126 E6.55032
G1 X133.384 Y67.767 E6.6954
G1 X134.44 Y68.367 E6.82467
G1 X135.196 Y68.823 E6.91864
G1 X136.368 Y69.565 E7.06627
G1 X137.505 Y70.327 E7.21195
G1 X138.434 Y70.985 E7.33311
G1 X139.205 Y71.562 E7.43561
G1 X140.198 Y72.34 E7.56987
G1 X141.303 Y73.249 E7.72216
G1 X142.2 Y74.03 E7.84875
G1 X142.892 Y74.666 E7.94878
G1 X143.755 Y75.491 E8.07585
G1 X144.817 Y76.558 E8.23608
G1 X145.628 Y77.423 E8.36228
G1 X146.174 Y78.035 E8.44957
G1 X147.093 Y79.109 E8.60001
G1 X147.961 Y80.178 E8.74657
G1 X148.694 Y81.13 E8.87445
G1 X149.219 Y81.852 E8.96946
G1 X149.953 Y82.908 E9.10634
G1 X150.594 Y83.875 E9.22982
G1 X151.39 Y85.147 E9.38952
G1 X151.825 Y85.894 E9.48152
G1 X152.482 Y87.075 E9.62536
G1 X153.068 Y88.192 E9.75961
G1 X153.628 Y89.324 E9.89403
G1 X153.931 Y89.983 E9.97123
G1 X154.459 Y91.197 E10.11213
G1 X155.056 Y92.665 E10.2808
G1 X155.496 Y93.848 E10.41514
G1 X155.745 Y94.578 E10.49723
G1 X156.196 Y95.994 E10.65539
G1 X156.562 Y97.251 E10.79474
G1 X156.869 Y98.421 E10.92348
G1 X157.048 Y99.187 E11.0072
G1 X157.295 Y100.336 E11.13229
G1 X157.612 Y102.023 E11.31498
G1 X157.795 Y103.191 E11.44081
G1 X157.906 Y104.055 E11.53352
G1 X158.049 Y105.363 E11.67357
G1 X158.168 Y106.778 E11.8247
G1 X158.234 Y107.932 E11.94772
G1 X158.257 Y108.714 E12.03099
G1 X158.272 Y110.222 E12.1915
G1 X158.249 Y111.558 E12.33371
G1 X158.197 Y112.79 E12.46495
G1 X158.141 Y113.584 E12.54967
G1 X158.035 Y114.778 E12.67725
G1 X157.849 Y116.401 E12.85112
G1 X157.688 Y117.521 E12.97155
G1 X157.584 Y118.144 E13.03878
G1 X157.262 Y119.823 E13.22073
G1 X156.988 Y121.07 E13.35662
G1 X156.713 Y122.192 E13.47957
G1 X156.464 Y123.1 E13.57978
G1 X156.077 Y124.395 E13.72363
G1 X155.717 Y125.505 E13.84783
G1 X155.262 Y126.795 E13.99342
G1 X154.968 Y127.559 E14.08055
G1 X154.495 Y128.72 E14.21398
G1 X153.982 Y129.899 E14.35082
G1 X153.333 Y131.281 E14.51332
G1 X152.936 Y132.064 E14.60676
G1 X152.32 Y133.222 E14.74636
G1 X151.673 Y134.367 E14.88634
G1 X151.029 Y135.442 E15.01971
G1 X150.523 Y136.236 E15.11992
G1 X149.784 Y137.34 E15.26132
G1 X148.984 Y138.474 E15.40902
G1 X148.315 Y139.372 E15.52821
G1 X147.74 Y140.101 E15.62703
G1 X146.89 Y141.133 E15.76933
G1 X145.907 Y142.265 E15.92889
G1 X145.053 Y143.195 E16.06328
G1 X144.719 Y143.543 E16.11462
G1 X143.547 Y144.71 E16.29065
G1 X142.596 Y145.608 E16.42986
G1 X141.729 Y146.387 E16.55391
G1 X141.121 Y146.904 E16.63885
G1 X140.001 Y147.816 E16.79258
G1 X138.836 Y148.719 E16.94946
G1 X137.867 Y149.424 E17.077
G1 X137.2 Y149.883 E17.16318
G1 X136.231 Y150.525 E17.28689
G1 X135.194 Y151.179 E17.41738
G1 X134.147 Y151.805 E17.54721
G1 X133.094 Y152.393 E17.67557
G1 X131.812 Y153.064 E17.82958
G1 X130.597 Y153.661 E17.97366
G1 X129.574 Y154.131 E18.09348
G1 X128.997 Y154.381 E18.16041
G1 X127.696 Y154.91 E18.30989
G1 X126.201 Y155.475 E18.47999
G1 X125.073 Y155.865 E18.60702
G1 X124.274 Y156.117 E18.69619
G1 X123.113 Y156.457 E18.82495
G1 X121.615 Y156.857 E18.98997
G1 X120.669 Y157.084 E19.09351
G1 X120.047 Y157.221 E19.1613
G1 X118.156 Y157.578 E19.36612
G1 X116.828 Y157.79 E19.50925
G1 X115.723 Y157.937 E19.62789
G1 X115.001 Y158.015 E19.70519
G1 X113.428 Y158.152 E19.87324
G1 X112.367 Y158.217 E19.98637
G1 X110.854 Y158.27 E20.1475
G1 X110.21 Y158.275 E20.21605
G1 X108.629 Y158.252 E20.38434
G1 X107.529 Y158.211 E20.50149
G1 X106.318 Y158.137 E20.63062
G1 X105.203 Y158.036 E20.74978
G1 X103.792 Y157.872 E20.90097
G1 X102.478 Y157.685 E21.04223
G1 X101.229 Y157.474 E21.17705
G1 X100.361 Y157.303 E21.27121
G1 X99.157 Y157.04 E21.40237
G1 X98 Y156.759 E21.5291
G1 X96.854 Y156.453 E21.65534
G1 X95.814 Y156.142 E21.77087
G1 X94.624 Y155.757 E21.90399
G1 X93.357 Y155.315 E22.04681
G1 X92.385 Y154.949 E22.15735
G1 X91.242 Y154.48 E22.28885
G1 X90.226 Y154.036 E22.40686
G1 X88.943 Y153.44 E22.55743
G1 X87.681 Y152.81 E22.70755
G1 X86.94 Y152.41 E22.79717
G1 X85.921 Y151.838 E22.92155
G1 X84.756 Y151.149 E23.0656
G1 X83.505 Y150.359 E23.22308
G1 X82.764 Y149.857 E23.31834
G1 X81.71 Y149.113 E23.45565
G1 X80.568 Y148.265 E23.60704
G1 X79.606 Y147.51 E23.7372
G1 X78.922 Y146.94 E23.83196
G1 X77.928 Y146.078 E23.97199
G1 X77.072 Y145.302 E24.09496
G1 X76.264 Y144.535 E24.21354
G1 X75.425 Y143.689 E24.34035
G1 X74.514 Y142.726 E24.48144
G1 X73.582 Y141.69 E24.62976
G1 X72.777 Y140.745 E24.76188
G1 X72.222 Y140.053 E24.85629
G1 X71.438 Y139.038 E24.9928
G1 X70.648 Y137.962 E25.13487
G1 X69.929 Y136.927 E25.269
G1 X69.426 Y136.156 E25.36698
G1 X68.713 Y135.012 E25.51045
G1 X68.127 Y134.024 E25.63271
G1 X67.451 Y132.813 E25.78032
G1 X67.059 Y132.055 E25.87115
G1 X66.388 Y130.698 E26.03227
G1 X65.859 Y129.547 E26.16709
G1 X65.483 Y128.68 E26.26767
G1 X65.069 Y127.652 E26.38562
G1 X64.654 Y126.555 E26.51045
G1 X64.123 Y125.024 E26.68293
G1 X63.783 Y123.954 E26.80242
G1 X63.558 Y123.18 E26.88821
G1 X63.23 Y121.955 E27.02318
G1 X62.916 Y120.657 E27.16531
G1 X62.617 Y119.251 E27.3183
G1 X62.464 Y118.415 E27.40876
G1 X62.282 Y117.301 E27.5289
G1 X62.089 Y115.903 E27.6791
G1 X61.933 Y114.494 E27.82998
G1 X61.866 Y113.696 E27.91521
G1 X61.781 Y112.286 E28.06556
G1 X61.739 Y111.139 E28.18772
G1 X61.723 Y109.886 E28.32109
G1 X61.742 Y108.792 E28.43754
G1 X61.802 Y107.34 E28.59221
G1 X61.888 Y106.03 E28.73194
G1 X61.997 Y104.857 E28.85732
G1 X62.101 Y103.995 E28.94973
G1 X62.301 Y102.58 E29.10183
G1 X62.518 Y101.291 E29.24095
G1 X62.754 Y100.07 E29.37331
G1 X62.936 Y99.259 E29.46178
G1 X63.264 Y97.915 E29.60902
G1 X63.611 Y96.641 E29.74955
G1 X63.987 Y95.388 E29.88879
G1 X64.251 Y94.596 E29.97764
G1 X64.705 Y93.31 E30.12279
G1 X65.196 Y92.022 E30.2695
G1 X65.521 Y91.229 E30.36072
G1 X65.904 Y90.352 E30.46257
G1 X66.587 Y88.894 E30.63393
G1 X67.219 Y87.633 E30.78406
G1 X67.772 Y86.6 E30.90876
G1 X68.187 Y85.873 E30.99786
G1 X68.938 Y84.619 E31.15343
G1 X69.655 Y83.488 E31.29596
G1 X70.247 Y82.605 E31.4091
G1 X70.711 Y81.949 E31.49462
G1 X71.602 Y80.747 E31.65387
G1 X72.493 Y79.606 E31.80795
G1 X73.033 Y78.949 E31.89846
G1 X73.669 Y78.211 E32.00215
G1 X74.696 Y77.077 E32.16499
G1 X75.454 Y76.279 E32.28213
G0 F6000 X76.019 Y76.846
G1 F900 X77.083 Y75.786 E32.44198
G1 X77.712 Y75.196 E32.53377
G1 X78.512 Y74.473 E32.64853
G1 X79.713 Y73.44 E32.81714
G1 X80.696 Y72.644 E32.95176
G1 X81.38 Y72.123 E33.04327
G1 X82.419 Y71.361 E33.18041
G1 X83.522 Y70.594 E33.3234
G1 X84.477 Y69.966 E33.44505
G1 X85.134 Y69.557 E33.52742
G1 X86.465 Y68.772 E33.69188
G1 X87.341 Y68.281 E33.79876
G1 X88.403 Y67.719 E33.92664
G1 X89.353 Y67.25 E34.03941
G1 X90.669 Y66.642 E34.1937
G1 X91.85 Y66.132 E34.33061
G1 X92.991 Y65.674 E34.46147
G1 X93.737 Y65.398 E34.54613
G1 X95.067 Y64.937 E34.69595
G1 X96.131 Y64.596 E34.81486
G1 X97.438 Y64.214 E34.95979
G1 X98.184 Y64.02 E35.04183
G1 X99.692 Y63.661 E35.20682
G1 X100.933 Y63.399 E35.34181
G1 X102.074 Y63.188 E35.46531
G1 X102.902 Y63.059 E35.5545
G1 X104.325 Y62.868 E35.70731
G1 X105.632 Y62.727 E35.84722
G1 X106.799 Y62.63 E35.97186
G1 X107.585 Y62.587 E36.05564
G1 X109.077 Y62.537 E36.21453
G1 X110.344 Y62.527 E36.34938
G1 X111.525 Y62.547 E36.47509
G1 X112.343 Y62.584 E36.56225
G1 X113.751 Y62.676 E36.71242
G1 X114.881 Y62.777 E36.83317
G1 X116.186 Y62.927 E36.97298
G1 X116.907 Y63.031 E37.05051
G1 X118.418 Y63.281 E37.21352
G1 X119.525 Y63.491 E37.33344
G1 X120.861 Y63.782 E37.47897
G1 X121.662 Y63.981 E37.56681
G1 X123.055 Y64.358 E37.7204
G1 X123.957 Y64.624 E37.82049
G1 X125.413 Y65.094 E37.98333
G1 X126.184 Y65.369 E38.07046
G1 X127.316 Y65.799 E38.19934
G1 X128.532 Y66.293 E38.33903
G1 X129.815 Y66.855 E38.48811
G1 X130.579 Y67.218 E38.57814
G1 X131.805 Y67.832 E38.72407
G1 X132.989 Y68.462 E38.86682
G1 X134.027 Y69.052 E38.99389
G1 X134.768 Y69.499 E39.086
G1 X135.923 Y70.23 E39.23148
G1 X137.043 Y70.98 E39.37494
G1 X137.955 Y71.626 E39.49389
G1 X138.712 Y72.192 E39.59449
G1 X139.69 Y72.958 E39.72671
G1 X140.778 Y73.852 E39.87659
G1 X141.659 Y74.619 E40.00091
G1 X142.339 Y75.244 E40.09921
G1 X143.188 Y76.056 E40.22425
G1 X144.234 Y77.106 E40.38199
G1 X145.031 Y77.955 E40.50593
G1 X145.566 Y78.555 E40.59149
G1 X146.472 Y79.613 E40.73974
G1 X147.327 Y80.666 E40.8841
G1 X148.047 Y81.601 E41.0097
G1 X148.562 Y82.309 E41.10289
G1 X149.286 Y83.35 E41.23784
G1 X149.916 Y84.299 E41.35908
G1 X150.699 Y85.55 E41.51615
G1 X151.126 Y86.283 E41.60644
G1 X151.774 Y87.447 E41.74823
G1 X152.351 Y88.547 E41.88044
G1 X152.901 Y89.659 E42.01248
G1 X153.197 Y90.302 E42.08781
G1 X153.718 Y91.499 E42.22676
G1 X154.306 Y92.944 E42.3928
G1 X154.739 Y94.107 E42.52488
G1 X154.983 Y94.821 E42.60519
G1 X155.428 Y96.218 E42.76124
G1 X155.788 Y97.454 E42.89825
G1 X156.09 Y98.603 E43.0247
G1 X156.266 Y99.355 E43.1069
G1 X156.509 Y100.484 E43.22981
G1 X156.822 Y102.147 E43.40992
G1 X157.002 Y103.293 E43.53338
G1 X157.111 Y104.142 E43.62449
G1 X157.252 Y105.43 E43.76239
G1 X157.369 Y106.824 E43.91128
G1 X157.434 Y107.956 E44.03196
G1 X157.457 Y108.722 E44.11352
G1 X157.472 Y110.209 E44.2718
G1 X157.45 Y111.524 E44.41177
G1 X157.399 Y112.734 E44.54067
G1 X157.344 Y113.513 E44.62379
G1 X157.24 Y114.687 E44.74923
G1 X157.057 Y116.287 E44.92063
G1 X156.899 Y117.389 E45.03912
G1 X156.798 Y117.994 E45.1044
G1 X156.481 Y119.651 E45.28396
G1 X156.211 Y120.88 E45.41788
G1 X155.942 Y121.98 E45.53841
G1 X155.697 Y122.871 E45.63676
G1 X155.316 Y124.149 E45.7787
G1 X154.963 Y125.239 E45.90064
G1 X154.516 Y126.507 E46.04374
G1 X154.227 Y127.257 E46.12928
G1 X153.761 Y128.401 E46.26076
G1 X153.258 Y129.559 E46.39513
G1 X152.62 Y130.919 E46.55501
G1 X152.23 Y131.688 E46.64678
G1 X151.623 Y132.829 E46.78434
G1 X150.987 Y133.956 E46.92207
G1 X150.355 Y135.012 E47.05305
G1 X149.858 Y135.791 E47.1514
G1 X149.13 Y136.879 E47.29073
G1 X148.342 Y137.996 E47.43622
G1 X147.673 Y138.894 E47.55541
G1 X147.122 Y139.593 E47.65014
G1 X146.286 Y140.609 E47.79017
G1 X145.318 Y141.724 E47.94733
G1 X144.475 Y142.642 E48.07998
G1 X144.155 Y142.976 E48.12921
G1 X142.997 Y144.129 E48.30313
G1 X142.062 Y145.013 E48.44008
G1 X141.21 Y145.778 E48.56195
G1 X140.616 Y146.284 E48.645
G1 X139.511 Y147.184 E48.79669
G1 X138.365 Y148.072 E48.95099
G1 X137.413 Y148.765 E49.07631
G1 X136.758 Y149.216 E49.16096
G1 X135.805 Y149.848 E49.28266
G1 X134.783 Y150.492 E49.41123
G1 X133.736 Y151.118 E49.54107
G1 X132.723 Y151.684 E49.66457
G1 X131.459 Y152.346 E49.81643
G1 X130.263 Y152.934 E49.95828
G1 X129.256 Y153.397 E50.07624
G1 X128.695 Y153.64 E50.14131
G1 X127.413 Y154.162 E50.28864
G1 X125.94 Y154.719 E50.45624
G1 X124.832 Y155.102 E50.58102
G1 X124.049 Y155.349 E50.6684
G1 X122.906 Y155.684 E50.79517
G1 X121.428 Y156.079 E50.958
G1 X120.497 Y156.303 E51.05992
G1 X119.898 Y156.435 E51.1252
G1 X118.03 Y156.788 E51.32753
G1 X116.722 Y156.997 E51.46851
G1 X115.637 Y157.142 E51.58502
G1 X114.932 Y157.218 E51.66049
G1 X113.379 Y157.353 E51.8264
G1 X112.318 Y157.418 E51.93954
G1 X110.848 Y157.47 E52.09609
G1 X110.221 Y157.475 E52.16283
G1 X108.659 Y157.453 E52.32909
G1 X107.578 Y157.413 E52.44422
G1 X106.39 Y157.34 E52.5709
G1 X105.295 Y157.241 E52.68792
G1 X103.905 Y157.08 E52.83685
G1 X102.611 Y156.896 E52.97596
G1 X101.384 Y156.689 E53.1084
G1 X100.532 Y156.521 E53.20083
G1 X99.328 Y156.258 E53.33199
G1 X98.206 Y155.986 E53.45487
G1 X97.083 Y155.687 E53.57856
G1 X96.06 Y155.381 E53.6922
G1 X94.888 Y155.002 E53.8233
G1 X93.639 Y154.566 E53.9641
G1 X92.667 Y154.2 E54.07465
G1 X91.562 Y153.747 E54.20175
G1 X90.563 Y153.311 E54.31776
G1 X89.3 Y152.724 E54.466
G1 X88.061 Y152.106 E54.61336
G1 X87.332 Y151.713 E54.70151
G1 X86.328 Y151.149 E54.82407
G1 X85.183 Y150.472 E54.96564
G1 X83.953 Y149.696 E55.12043
G1 X83.225 Y149.204 E55.21395
G1 X82.187 Y148.471 E55.3492
G1 X81.062 Y147.636 E55.49831
G1 X80.118 Y146.895 E55.62604
G1 X79.446 Y146.335 E55.71914
G1 X78.465 Y145.485 E55.85729
G1 X77.622 Y144.721 E55.97838
G1 X76.832 Y143.972 E56.09424
G1 X76.006 Y143.139 E56.2191
G1 X75.109 Y142.191 E56.35801
G1 X74.191 Y141.171 E56.50406
G1 X73.401 Y140.244 E56.63369
G1 X72.855 Y139.564 E56.72651
G1 X72.083 Y138.564 E56.86097
G1 X71.305 Y137.506 E57.00074
G1 X70.599 Y136.489 E57.13251
G1 X70.105 Y135.733 E57.22862
G1 X69.401 Y134.604 E57.37023
G1 X68.826 Y133.634 E57.49025
G1 X68.15 Y132.423 E57.63786
G1 X67.776 Y131.701 E57.7244
G1 X67.115 Y130.363 E57.88324
G1 X66.593 Y129.229 E58.01611
G1 X66.225 Y128.381 E58.11449
G1 X65.817 Y127.369 E58.23063
G1 X65.41 Y126.292 E58.35317
G1 X64.885 Y124.781 E58.52342
G1 X64.551 Y123.731 E58.64069
G1 X64.331 Y122.973 E58.72469
G1 X64.008 Y121.767 E58.85758
G1 X63.694 Y120.469 E58.99971
G1 X63.404 Y119.107 E59.14792
G1 X63.254 Y118.286 E59.23675
G1 X63.072 Y117.172 E59.35689
G1 X62.884 Y115.815 E59.50269
G1 X62.73 Y114.427 E59.65133
G1 X62.665 Y113.648 E59.73453
G1 X62.58 Y112.238 E59.88487
G1 X62.539 Y111.129 E60.00298
G1 X62.523 Y109.899 E60.13391
G1 X62.541 Y108.825 E60.24823
G1 X62.6 Y107.393 E60.40077
G1 X62.685 Y106.104 E60.53826
G1 X62.794 Y104.931 E60.66364
G1 X62.893 Y104.107 E60.75198
G1 X63.09 Y102.712 E60.90192
G1 X63.303 Y101.443 E61.03887
G1 X63.535 Y100.245 E61.16875
G1 X63.713 Y99.449 E61.25556
G1 X64.036 Y98.125 E61.40061
G1 X64.383 Y96.851 E61.54115
G1 X64.746 Y95.641 E61.6756
G1 X65.005 Y94.863 E61.76287
G1 X65.453 Y93.595 E61.906
G1 X65.937 Y92.325 E62.05066
G1 X66.254 Y91.549 E62.13987
G1 X66.629 Y90.691 E62.23953
G1 X67.302 Y89.252 E62.40861
G1 X67.924 Y88.01 E62.55645
G1 X68.466 Y86.997 E62.67873
G1 X68.874 Y86.284 E62.76616
G1 X69.614 Y85.047 E62.91958
G1 X70.32 Y83.933 E63.05995
G1 X70.9 Y83.067 E63.17088
G1 X71.354 Y82.425 E63.25457
G1 X72.233 Y81.239 E63.41169
G1 X73.111 Y80.114 E63.56357
