;FLAVOR:Marlin
;TIME:8294
;Filament used: 21.5184m
;Layer height: 0.32
;MINX:62.01
;MINY:62.011
;MINZ:0.32
;MAXX:157.991
;MAXY:157.988
;MAXZ:71.04
;TARGET_MACHINE.NAME:Creality Ender-3 Pro
;Generated with Cura_SteamEngine 5.5.0
M82 ;absolute extrusion mode
; Ender 3 Custom Start G-code
G92 E0 ; Reset Extruder
G28 ; Home all axes
G1 Z5.0 F3000 ; Move Z Axis up a bit during heating to not damage bed
M104 S120 ; Start heating up the nozzle most of the way
M190 S70 ; Start heating the bed, wait until target temperature reached
M109 S235 ; Finish heating the nozzle
G1 Z2.0 F3000 ; Move Z Axis up little to prevent scratching of Heat Bed
G1 X0.1 Y20 Z0.3 F5000.0 ; Move to start position
G1 X0.1 Y200.0 Z0.3 F1500.0 E15 ; Draw the first line
G1 X0.4 Y200.0 Z0.3 F5000.0 ; Move to side a little
G1 X0.4 Y20 Z0.3 F1500.0 E30 ; Draw the second line
G92 E0 ; Reset Extruder
G1 Z2.0 F3000 ; Move Z Axis up little to prevent scratching of Heat Bed
G1 X5 Y20 Z0.3 F5000.0 ; Move over to prevent blob squish
G92 E0
G92 E0
G1 F1500 E-6.5
;LAYER_COUNT:222
;LAYER:0
M107
G0 F6000 X75.938 Y76.194 Z0.32
;TYPE:SKIRT
G1 F1500 E0
G1 F900 X76.763 Y75.381 E0.12328
G1 X77.616 Y74.584 E0.24753
G1 X78.603 Y73.704 E0.38827
G1 X79.472 Y72.972 E0.5092
G1 X80.402 Y72.222 E0.63636
G1 X81.312 Y71.531 E0.75797
G1 X82.335 Y70.785 E0.89272
G1 X83.235 Y70.169 E1.0088
G1 X84.344 Y69.442 E1.14993
G1 X85.291 Y68.86 E1.26824
G1 X86.357 Y68.236 E1.39971
G1 X87.224 Y67.759 E1.50503
G1 X88.151 Y67.272 E1.61648
G1 X89.492 Y66.615 E1.77541
G1 X90.655 Y66.082 E1.91157
G1 X91.691 Y65.642 E2.03137
G1 X92.568 Y65.286 E2.13211
G1 X93.771 Y64.839 E2.2687
G1 X95.065 Y64.392 E2.41441
G1 X96.209 Y64.035 E2.54196
G1 X97.06 Y63.786 E2.63633
G1 X98.486 Y63.413 E2.79321
G1 X99.751 Y63.116 E2.93151
G1 X100.832 Y62.895 E3.04894
G1 X102.052 Y62.671 E3.18096
G1 X103.176 Y62.499 E3.30198
G1 X104.459 Y62.33 E3.43971
G1 X105.615 Y62.213 E3.56338
G1 X106.803 Y62.116 E3.69024
G1 X107.958 Y62.054 E3.81334
G1 X109.215 Y62.015 E3.94719
G1 X110.173 Y62.011 E4.04916
G1 X111.6 Y62.036 E4.20106
G1 X112.752 Y62.091 E4.32381
G1 X114.029 Y62.179 E4.46005
G1 X114.943 Y62.268 E4.55779
G1 X116.392 Y62.439 E4.71308
G1 X116.857 Y62.503 E4.76303
G1 X118.411 Y62.753 E4.93056
G1 X118.846 Y62.831 E4.97759
G1 X119.882 Y63.04 E5.09008
G1 X121.091 Y63.308 E5.22188
G1 X122.201 Y63.589 E5.34375
G1 X123.422 Y63.924 E5.4785
G1 X124.512 Y64.258 E5.59984
G1 X125.656 Y64.635 E5.72804
G1 X126.774 Y65.039 E5.85456
G1 X127.919 Y65.481 E5.98519
G1 X128.98 Y65.924 E6.10756
G1 X130.151 Y66.444 E6.24393
G1 X130.983 Y66.842 E6.34209
G1 X132.298 Y67.503 E6.49874
G1 X133.256 Y68.022 E6.6147
G1 X134.33 Y68.632 E6.74616
G1 X135.173 Y69.143 E6.85108
G1 X136.387 Y69.914 E7.00415
G1 X137.287 Y70.523 E7.1198
G1 X138.407 Y71.318 E7.26599
G1 X139.302 Y71.994 E7.38536
G1 X139.99 Y72.532 E7.47832
G1 X141.108 Y73.459 E7.63289
G1 X142.048 Y74.278 E7.76558
G1 X142.853 Y75.02 E7.88211
G1 X143.824 Y75.956 E8.02565
G1 X144.649 Y76.797 E8.15104
G1 X145.445 Y77.643 E8.27467
G1 X146.189 Y78.482 E8.39402
G1 X147.009 Y79.447 E8.5288
G1 X147.733 Y80.35 E8.65199
G1 X148.515 Y81.368 E8.78861
G1 X149.155 Y82.254 E8.90494
G1 X149.891 Y83.318 E9.04264
G1 X150.49 Y84.241 E9.15975
G1 X151.176 Y85.349 E9.29845
G1 X151.75 Y86.338 E9.42015
G1 X152.333 Y87.391 E9.54826
G1 X152.84 Y88.371 E9.66569
G1 X153.423 Y89.56 E9.80663
G1 X153.9 Y90.612 E9.92957
G1 X154.379 Y91.734 E10.05942
G1 X154.797 Y92.79 E10.1803
G1 X155.253 Y94.019 E10.31981
G1 X155.604 Y95.058 E10.43654
G1 X155.976 Y96.242 E10.56863
G1 X156.287 Y97.334 E10.68947
G1 X156.622 Y98.617 E10.8306
G1 X156.866 Y99.679 E10.94658
G1 X157.11 Y100.84 E11.07285
G1 X157.317 Y101.996 E11.19784
G1 X157.515 Y103.245 E11.33243
G1 X157.657 Y104.355 E11.45154
G1 X157.793 Y105.638 E11.58885
G1 X157.881 Y106.775 E11.71023
G1 X157.952 Y108.041 E11.84519
G1 X157.982 Y109.115 E11.95954
G1 X157.991 Y110.212 E12.0763
G1 X157.964 Y111.525 E12.21607
G1 X157.907 Y112.85 E12.35723
G1 X157.855 Y113.578 E12.43491
G1 X157.676 Y115.478 E12.63802
G1 X157.569 Y116.343 E12.73079
G1 X157.391 Y117.566 E12.86233
G1 X157.193 Y118.698 E12.98464
G1 X156.95 Y119.945 E13.11986
G1 X156.716 Y120.987 E13.23352
G1 X156.411 Y122.217 E13.3684
G1 X156.1 Y123.33 E13.4914
G1 X155.725 Y124.572 E13.62948
G1 X155.369 Y125.639 E13.7492
G1 X154.961 Y126.782 E13.87837
G1 X154.535 Y127.877 E14.00342
G1 X154.063 Y129.016 E14.13464
G1 X153.663 Y129.912 E14.23908
G1 X153.056 Y131.197 E14.39033
G1 X152.545 Y132.2 E14.51014
G1 X151.938 Y133.332 E14.64685
G1 X151.387 Y134.29 E14.76448
G1 X150.734 Y135.374 E14.89916
G1 X150.143 Y136.295 E15.01563
G1 X149.412 Y137.384 E15.15523
G1 X148.78 Y138.268 E15.27089
G1 X148.191 Y139.062 E15.37611
G1 X147.397 Y140.073 E15.51293
G1 X146.503 Y141.157 E15.66248
G1 X145.843 Y141.909 E15.76897
G1 X144.881 Y142.963 E15.92085
G1 X144.215 Y143.649 E16.02261
G1 X143.235 Y144.619 E16.16937
G1 X142.392 Y145.407 E16.29219
G1 X141.395 Y146.298 E16.4345
G1 X140.684 Y146.899 E16.53359
G1 X139.619 Y147.762 E16.67948
G1 X138.683 Y148.475 E16.80471
G1 X137.675 Y149.209 E16.93742
G1 X136.793 Y149.814 E17.05126
G1 X135.658 Y150.557 E17.19564
G1 X134.716 Y151.136 E17.31333
G1 X133.635 Y151.768 E17.4466
G1 X132.599 Y152.335 E17.5723
G1 X131.559 Y152.876 E17.69707
G1 X130.513 Y153.383 E17.82078
G1 X129.343 Y153.921 E17.95784
G1 X128.305 Y154.36 E18.0778
G1 X127.112 Y154.836 E18.2145
G1 X126.066 Y155.22 E18.3331
G1 X124.935 Y155.608 E18.46036
G1 X123.791 Y155.965 E18.58791
G1 X122.94 Y156.214 E18.68228
G1 X121.514 Y156.587 E18.83916
G1 X120.249 Y156.884 E18.97746
G1 X119.168 Y157.105 E19.09489
G1 X117.948 Y157.329 E19.22691
G1 X116.824 Y157.501 E19.34793
G1 X115.541 Y157.67 E19.48566
G1 X114.385 Y157.787 E19.60933
G1 X113.197 Y157.884 E19.73619
G1 X112.042 Y157.946 E19.8593
G1 X110.783 Y157.985 E19.99336
G1 X109.634 Y157.988 E20.11565
G1 X108.409 Y157.964 E20.24605
G1 X107.26 Y157.91 E20.36848
G1 X105.958 Y157.82 E20.50739
G1 X105.058 Y157.733 E20.60362
G1 X103.61 Y157.563 E20.75879
G1 X103.179 Y157.504 E20.8051
G1 X101.265 Y157.19 E21.01153
G1 X100.143 Y156.966 E21.1333
G1 X98.892 Y156.689 E21.26968
G1 X97.961 Y156.454 E21.37187
G1 X96.583 Y156.077 E21.52393
G1 X95.488 Y155.742 E21.6458
G1 X94.344 Y155.365 E21.774
G1 X93.226 Y154.961 E21.90052
G1 X92.081 Y154.519 E22.03115
G1 X91.02 Y154.076 E22.15353
G1 X89.849 Y153.556 E22.28989
G1 X89.017 Y153.158 E22.38806
G1 X87.702 Y152.497 E22.5447
G1 X86.743 Y151.977 E22.66081
G1 X85.628 Y151.342 E22.79738
G1 X84.66 Y150.753 E22.91798
G1 X83.613 Y150.087 E23.05005
G1 X82.858 Y149.576 E23.14708
G1 X81.591 Y148.679 E23.3123
G1 X80.694 Y148.001 E23.43198
G1 X79.752 Y147.259 E23.5596
G1 X78.868 Y146.521 E23.68217
G1 X77.944 Y145.713 E23.81281
G1 X77.107 Y144.941 E23.934
G1 X76.176 Y144.044 E24.0716
G1 X75.344 Y143.196 E24.19804
G1 X74.563 Y142.363 E24.31957
G1 X73.785 Y141.488 E24.44418
G1 X73.004 Y140.568 E24.57263
G1 X72.251 Y139.63 E24.70065
G1 X71.484 Y138.632 E24.83461
G1 X70.834 Y137.731 E24.95286
G1 X70.109 Y136.682 E25.08858
G1 X69.51 Y135.759 E25.20569
G1 X68.824 Y134.651 E25.34439
G1 X68.228 Y133.623 E25.47086
G1 X67.666 Y132.605 E25.59462
G1 X67.138 Y131.58 E25.71734
G1 X66.576 Y130.435 E25.85309
G1 X66.09 Y129.359 E25.97875
G1 X65.618 Y128.259 E26.10615
G1 X65.199 Y127.198 E26.22756
G1 X64.747 Y125.98 E26.36584
G1 X64.394 Y124.936 E26.48313
G1 X64.02 Y123.751 E26.61539
G1 X63.709 Y122.652 E26.73695
G1 X63.378 Y121.384 E26.87643
G1 X63.128 Y120.292 E26.99566
G1 X62.879 Y119.104 E27.12485
G1 X62.68 Y117.981 E27.24623
G1 X62.487 Y116.755 E27.37833
G1 X62.366 Y115.819 E27.47878
G1 X62.206 Y114.352 E27.63584
G1 X62.119 Y113.228 E27.75583
G1 X62.063 Y112.299 E27.85488
G1 X62.021 Y110.975 E27.99587
G1 X62.01 Y109.619 E28.1402
G1 X62.038 Y108.41 E28.26891
G1 X62.091 Y107.193 E28.39856
G1 X62.177 Y106.014 E28.52438
G1 X62.29 Y104.813 E28.65277
G1 X62.427 Y103.692 E28.77297
G1 X62.615 Y102.398 E28.91213
G1 X62.811 Y101.281 E29.03284
G1 X63.056 Y100.034 E29.16809
G1 X63.261 Y99.122 E29.26758
G1 X63.594 Y97.768 E29.41599
G1 X63.848 Y96.849 E29.51747
G1 X64.254 Y95.492 E29.66822
G1 X64.638 Y94.338 E29.79766
G1 X65.036 Y93.224 E29.92357
G1 X65.389 Y92.311 E30.02775
G1 X65.929 Y91.003 E30.17836
G1 X66.419 Y89.909 E30.30595
G1 X66.796 Y89.106 E30.40036
G1 X67.474 Y87.761 E30.56067
G1 X68.057 Y86.677 E30.69167
G1 X68.635 Y85.671 E30.81516
G1 X69.261 Y84.634 E30.94408
G1 X69.863 Y83.693 E31.06298
G1 X70.397 Y82.893 E31.16535
G1 X71.229 Y81.719 E31.3185
G1 X72.021 Y80.662 E31.45907
G1 X72.72 Y79.783 E31.5786
G1 X73.494 Y78.848 E31.70779
G1 X74.279 Y77.955 E31.83433
G1 X75.117 Y77.04 E31.96639
G1 X75.938 Y76.194 E32.09186
G0 F6000 X76.499 Y76.764
G1 F900 X77.31 Y75.965 E32.21303
G1 X78.148 Y75.181 E32.33517
G1 X79.118 Y74.316 E32.4735
G1 X79.974 Y73.595 E32.59261
G1 X80.886 Y72.859 E32.71735
G1 X81.783 Y72.177 E32.83728
G1 X82.787 Y71.445 E32.96952
G1 X83.674 Y70.838 E33.08391
G1 X84.763 Y70.124 E33.22251
G1 X85.71 Y69.542 E33.34082
G1 X86.743 Y68.937 E33.46823
G1 X87.597 Y68.467 E33.57198
G1 X88.503 Y67.99 E33.68095
G1 X89.825 Y67.342 E33.83765
G1 X90.968 Y66.818 E33.97148
G1 X91.992 Y66.383 E34.08989
G1 X92.847 Y66.036 E34.1881
G1 X94.032 Y65.595 E34.32267
G1 X95.304 Y65.156 E34.46589
G1 X96.434 Y64.803 E34.59189
G1 X97.263 Y64.56 E34.68384
G1 X98.669 Y64.192 E34.83852
G1 X99.911 Y63.9 E34.97431
G1 X100.976 Y63.682 E35.09002
G1 X102.174 Y63.462 E35.21965
G1 X103.28 Y63.292 E35.33875
G1 X104.54 Y63.126 E35.47401
G1 X105.68 Y63.01 E35.59597
G1 X106.846 Y62.915 E35.72048
G1 X107.983 Y62.854 E35.84167
G1 X109.218 Y62.815 E35.97318
G1 X110.159 Y62.811 E36.07334
G1 X111.562 Y62.835 E36.22268
G1 X112.697 Y62.889 E36.34362
G1 X113.952 Y62.975 E36.47751
G1 X114.849 Y63.062 E36.57342
G1 X116.282 Y63.231 E36.727
G1 X116.73 Y63.293 E36.77513
G1 X118.27 Y63.54 E36.94114
G1 X118.688 Y63.615 E36.98633
G1 X119.709 Y63.821 E37.09719
G1 X120.895 Y64.084 E37.22649
G1 X121.989 Y64.36 E37.34657
G1 X123.188 Y64.689 E37.4789
G1 X124.262 Y65.018 E37.59845
G1 X125.385 Y65.388 E37.7243
G1 X126.486 Y65.785 E37.84886
G1 X127.611 Y66.219 E37.9772
G1 X128.655 Y66.655 E38.09762
G1 X129.806 Y67.166 E38.23165
G1 X130.624 Y67.557 E38.32815
G1 X131.917 Y68.207 E38.48218
G1 X132.861 Y68.718 E38.59642
G1 X133.935 Y69.328 E38.72788
G1 X134.744 Y69.818 E38.82855
G1 X135.938 Y70.576 E38.97908
G1 X136.824 Y71.176 E39.09296
G1 X137.925 Y71.957 E39.23663
G1 X138.809 Y72.624 E39.3545
G1 X139.479 Y73.148 E39.44503
G1 X140.597 Y74.075 E39.5996
G1 X141.506 Y74.866 E39.72785
G1 X142.298 Y75.596 E39.84249
G1 X143.253 Y76.516 E39.98362
G1 X144.066 Y77.345 E40.1072
G1 X144.846 Y78.174 E40.22835
G1 X145.59 Y79.013 E40.3477
G1 X146.385 Y79.948 E40.47833
G1 X147.099 Y80.838 E40.59977
G1 X147.867 Y81.837 E40.73388
G1 X148.497 Y82.709 E40.84838
G1 X149.22 Y83.754 E40.98362
G1 X149.81 Y84.663 E41.09896
G1 X150.484 Y85.75 E41.23509
G1 X151.05 Y86.726 E41.35517
G1 X151.622 Y87.759 E41.48085
G1 X152.129 Y88.739 E41.59828
G1 X152.694 Y89.891 E41.73485
G1 X153.164 Y90.927 E41.85593
G1 X153.635 Y92.028 E41.98338
G1 X154.047 Y93.069 E42.10254
G1 X154.495 Y94.275 E42.23947
G1 X154.841 Y95.298 E42.35441
G1 X155.207 Y96.461 E42.48417
G1 X155.513 Y97.536 E42.60313
G1 X155.842 Y98.796 E42.74173
G1 X156.083 Y99.844 E42.85618
G1 X156.327 Y101.005 E42.98245
G1 X156.527 Y102.121 E43.10312
G1 X156.721 Y103.347 E43.23523
G1 X156.861 Y104.44 E43.35251
G1 X156.995 Y105.7 E43.48738
G1 X157.082 Y106.82 E43.60694
G1 X157.152 Y108.064 E43.73955
G1 X157.182 Y109.122 E43.8522
G1 X157.191 Y110.196 E43.96651
G1 X157.165 Y111.491 E44.10437
G1 X157.109 Y112.793 E44.24307
G1 X157.058 Y113.503 E44.31884
G1 X156.882 Y115.38 E44.51949
G1 X156.777 Y116.228 E44.61043
G1 X156.603 Y117.428 E44.73948
G1 X156.408 Y118.545 E44.86017
G1 X156.169 Y119.77 E44.99301
G1 X155.935 Y120.812 E45.10667
G1 X155.64 Y122.002 E45.23716
G1 X155.334 Y123.099 E45.35837
G1 X154.966 Y124.319 E45.494
G1 X154.616 Y125.37 E45.6119
G1 X154.215 Y126.492 E45.73871
G1 X153.796 Y127.571 E45.86191
G1 X153.332 Y128.69 E45.99084
G1 X152.94 Y129.57 E46.09337
G1 X152.343 Y130.834 E46.24215
G1 X151.84 Y131.822 E46.36015
G1 X151.244 Y132.933 E46.49434
G1 X150.701 Y133.878 E46.61034
G1 X150.061 Y134.942 E46.74249
G1 X149.479 Y135.849 E46.85719
G1 X148.761 Y136.919 E46.99434
G1 X148.137 Y137.792 E47.10855
G1 X147.562 Y138.568 E47.21134
G1 X146.78 Y139.564 E47.34612
G1 X145.902 Y140.629 E47.49302
G1 X145.252 Y141.37 E47.59793
G1 X144.307 Y142.406 E47.74718
G1 X143.652 Y143.081 E47.84728
G1 X142.689 Y144.035 E47.99155
G1 X141.859 Y144.811 E48.11249
G1 X140.879 Y145.687 E48.25239
G1 X140.18 Y146.277 E48.34974
G1 X139.115 Y147.14 E48.49564
G1 X138.212 Y147.828 E48.61646
G1 X137.222 Y148.549 E48.74681
G1 X136.34 Y149.154 E48.86065
G1 X135.239 Y149.875 E49.00072
G1 X134.297 Y150.454 E49.11841
G1 X133.251 Y151.066 E49.24739
G1 X132.23 Y151.625 E49.37128
G1 X131.21 Y152.156 E49.49367
G1 X130.179 Y152.656 E49.61562
G1 X129.031 Y153.184 E49.75011
G1 X128.009 Y153.617 E49.86825
G1 X126.836 Y154.085 E50.00266
G1 X125.806 Y154.463 E50.11944
G1 X124.696 Y154.844 E50.24434
G1 X123.566 Y155.197 E50.37034
G1 X122.737 Y155.44 E50.46229
G1 X121.331 Y155.808 E50.61697
G1 X120.089 Y156.1 E50.75276
G1 X119.024 Y156.318 E50.86847
G1 X117.826 Y156.538 E50.9981
G1 X116.72 Y156.708 E51.1172
G1 X115.46 Y156.874 E51.25246
G1 X114.32 Y156.99 E51.37442
G1 X113.154 Y157.085 E51.49894
G1 X112.017 Y157.146 E51.62012
G1 X110.781 Y157.185 E51.75174
G1 X109.649 Y157.188 E51.87222
G1 X108.446 Y157.165 E52.00028
G1 X107.315 Y157.112 E52.12079
G1 X106.035 Y157.024 E52.25734
G1 X105.151 Y156.938 E52.35187
G1 X103.719 Y156.77 E52.50533
G1 X103.288 Y156.711 E52.55163
G1 X101.421 Y156.405 E52.75299
G1 X100.316 Y156.185 E52.87291
G1 X99.088 Y155.913 E53.00678
G1 X98.172 Y155.682 E53.10732
G1 X96.817 Y155.312 E53.25682
G1 X95.738 Y154.982 E53.37691
G1 X94.615 Y154.612 E53.50275
G1 X93.514 Y154.215 E53.62732
G1 X92.389 Y153.781 E53.75566
G1 X91.345 Y153.345 E53.87607
G1 X90.194 Y152.834 E54.01011
G1 X89.376 Y152.443 E54.1066
G1 X88.083 Y151.793 E54.26063
G1 X87.139 Y151.282 E54.37488
G1 X86.044 Y150.659 E54.50896
G1 X85.089 Y150.078 E54.62794
G1 X84.061 Y149.424 E54.75762
G1 X83.32 Y148.923 E54.85282
G1 X82.073 Y148.041 E55.01538
G1 X81.189 Y147.373 E55.13331
G1 X80.265 Y146.645 E55.25851
G1 X79.394 Y145.918 E55.37926
G1 X78.486 Y145.125 E55.50757
G1 X77.662 Y144.365 E55.62688
G1 X76.747 Y143.484 E55.76207
G1 X75.927 Y142.648 E55.8867
G1 X75.161 Y141.832 E56.00582
G1 X74.395 Y140.97 E56.12855
G1 X73.628 Y140.067 E56.25465
G1 X72.885 Y139.142 E56.38093
G1 X72.133 Y138.164 E56.51224
G1 X71.492 Y137.276 E56.6288
G1 X70.78 Y136.246 E56.76207
G1 X70.19 Y135.337 E56.87741
G1 X69.516 Y134.25 E57.01353
G1 X68.928 Y133.236 E57.13829
G1 X68.377 Y132.238 E57.25962
G1 X67.856 Y131.228 E57.38058
G1 X67.305 Y130.105 E57.51371
G1 X66.825 Y129.044 E57.63766
G1 X66.362 Y127.965 E57.76262
G1 X65.949 Y126.92 E57.88222
G1 X65.505 Y125.724 E58.018
G1 X65.157 Y124.695 E58.13361
G1 X64.79 Y123.533 E58.26331
G1 X64.483 Y122.45 E58.38311
G1 X64.158 Y121.205 E58.52006
G1 X63.911 Y120.128 E58.63767
G1 X63.667 Y118.964 E58.76425
G1 X63.47 Y117.856 E58.88402
G1 X63.28 Y116.652 E59.01375
G1 X63.161 Y115.732 E59.11249
G1 X63.004 Y114.29 E59.26687
G1 X62.918 Y113.18 E59.38536
G1 X62.863 Y112.273 E59.48208
G1 X62.821 Y110.968 E59.62104
G1 X62.81 Y109.637 E59.76271
G1 X62.837 Y108.445 E59.88961
G1 X62.889 Y107.251 E60.01681
G1 X62.973 Y106.089 E60.14081
G1 X63.084 Y104.91 E60.26685
G1 X63.219 Y103.807 E60.38512
G1 X63.403 Y102.536 E60.5218
G1 X63.596 Y101.435 E60.64077
G1 X63.836 Y100.21 E60.77363
G1 X64.038 Y99.313 E60.87149
G1 X64.365 Y97.981 E61.01747
G1 X64.614 Y97.078 E61.11716
G1 X65.013 Y95.744 E61.26536
G1 X65.391 Y94.607 E61.39288
G1 X65.782 Y93.513 E61.51654
G1 X66.129 Y92.616 E61.6189
G1 X66.659 Y91.33 E61.76694
G1 X67.143 Y90.249 E61.893
G1 X67.51 Y89.466 E61.98504
G1 X68.179 Y88.14 E62.14311
G1 X68.751 Y87.075 E62.27177
G1 X69.32 Y86.084 E62.3934
G1 X69.935 Y85.065 E62.52007
G1 X70.529 Y84.137 E62.63734
G1 X71.05 Y83.355 E62.73736
G1 X71.869 Y82.199 E62.88814
G1 X72.647 Y81.16 E63.02629
