;FLAVOR:Marlin
;TIME:7057
;Filament used: 18.5718m
;Layer height: 0.32
;MINX:61.157
;MINY:61.893
;MINZ:0.32
;MAXX:157.37
;MAXY:158.106
;MAXZ:66.88
;TARGET_MACHINE.NAME:Creality Ender-3 Pro
;Generated with Cura_SteamEngine 5.5.0
M82 ;absolute extrusion mode
; Ender 3 Custom Start G-code
G92 E0 ; Reset Extruder
G28 ; Home all axes
G1 Z5.0 F3000 ; Move Z Axis up a bit during heating to not damage bed
M104 S120 ; Start heating up the nozzle most of the way
M190 S70 ; Start heating the bed, wait until target temperature reached
M109 S235 ; Finish heating the nozzle
G1 Z2.0 F3000 ; Move Z Axis up little to prevent scratching of Heat Bed
G1 X0.1 Y20 Z0.3 F5000.0 ; Move to start position
G1 X0.1 Y200.0 Z0.3 F1500.0 E15 ; Draw the first line
G1 X0.4 Y200.0 Z0.3 F5000.0 ; Move to side a little
G1 X0.4 Y20 Z0.3 F1500.0 E30 ; Draw the second line
G92 E0 ; Reset Extruder
G1 Z2.0 F3000 ; Move Z Axis up little to prevent scratching of Heat Bed
G1 X5 Y20 Z0.3 F5000.0 ; Move over to prevent blob squish
G92 E0
G92 E0
G1 F1500 E-6.5
;LAYER_COUNT:209
;LAYER:0
M107
G0 F6000 X75.062 Y76.171 Z0.32
;TYPE:SKIRT
G1 F1500 E0
G1 F900 X75.928 Y75.313 E0.12975
G1 X76.674 Y74.614 E0.23855
G1 X77.56 Y73.818 E0.36532
G1 X78.645 Y72.895 E0.51693
G1 X79.57 Y72.148 E0.64348
G1 X80.405 Y71.511 E0.75526
G1 X81.321 Y70.842 E0.87598
G1 X82.452 Y70.057 E1.02251
G1 X83.431 Y69.416 E1.14706
G1 X84.371 Y68.834 E1.26473
G1 X85.093 Y68.406 E1.35406
G1 X86.365 Y67.695 E1.50915
G1 X87.707 Y66.99 E1.6705
G1 X88.448 Y66.63 E1.75818
G1 X89.613 Y66.09 E1.89484
G1 X90.908 Y65.533 E2.04488
G1 X91.784 Y65.178 E2.14548
G1 X92.734 Y64.822 E2.25346
G1 X94.227 Y64.304 E2.42165
G1 X95.06 Y64.037 E2.51476
G1 X96.24 Y63.686 E2.64578
G1 X97.542 Y63.345 E2.78903
G1 X98.857 Y63.033 E2.93288
G1 X100.039 Y62.786 E3.0614
G1 X101.26 Y62.562 E3.19352
G1 X102.211 Y62.413 E3.29597
G1 X103.605 Y62.228 E3.44564
G1 X104.614 Y62.119 E3.55366
G1 X106.035 Y61.998 E3.70544
G1 X106.797 Y61.955 E3.78667
G1 X108.316 Y61.903 E3.94844
G1 X109.379 Y61.893 E4.06158
G1 X110.544 Y61.908 E4.18559
G1 X111.763 Y61.96 E4.31545
G1 X113.162 Y62.052 E4.46467
G1 X114.206 Y62.147 E4.57624
G1 X115.566 Y62.304 E4.72195
G1 X116.584 Y62.454 E4.83147
G1 X117.869 Y62.67 E4.97015
G1 X119.178 Y62.926 E5.11211
G1 X120.935 Y63.328 E5.30395
G1 X122.455 Y63.737 E5.47148
G1 X123.582 Y64.074 E5.59667
G1 X124.931 Y64.513 E5.74766
G1 X125.734 Y64.801 E5.83846
G1 X127.048 Y65.303 E5.98817
G1 X128.297 Y65.819 E6.132
G1 X129.375 Y66.297 E6.25751
G1 X130.307 Y66.741 E6.36739
G1 X131.149 Y67.16 E6.46748
G1 X132.384 Y67.813 E6.61617
G1 X133.598 Y68.498 E6.76453
G1 X134.279 Y68.907 E6.84908
G1 X135.538 Y69.702 E7.00756
G1 X136.677 Y70.466 E7.15353
G1 X137.661 Y71.165 E7.28199
G1 X138.47 Y71.774 E7.38977
G1 X139.354 Y72.465 E7.50919
G1 X140.24 Y73.191 E7.6311
G1 X141.345 Y74.15 E7.78682
G1 X142.097 Y74.84 E7.89545
G1 X142.976 Y75.682 E8.025
G1 X143.955 Y76.669 E8.17296
G1 X144.769 Y77.535 E8.29945
G1 X145.442 Y78.292 E8.40726
G1 X146.215 Y79.197 E8.53393
G1 X147.109 Y80.297 E8.6848
G1 X147.821 Y81.226 E8.80937
G1 X148.444 Y82.086 E8.9224
G1 X149.043 Y82.949 E9.03421
G1 X149.754 Y84.024 E9.17138
G1 X150.525 Y85.257 E9.32616
G1 X151.038 Y86.14 E9.43485
G1 X151.609 Y87.171 E9.56029
G1 X152.209 Y88.319 E9.69815
G1 X152.787 Y89.497 E9.83781
G1 X153.202 Y90.41 E9.94455
G1 X153.659 Y91.471 E10.0675
G1 X154.172 Y92.746 E10.21378
G1 X154.615 Y93.937 E10.34902
G1 X154.91 Y94.809 E10.447
G1 X155.333 Y96.146 E10.59625
G1 X155.661 Y97.286 E10.72251
G1 X155.972 Y98.471 E10.8529
G1 X156.181 Y99.364 E10.95051
G1 X156.483 Y100.789 E11.10555
G1 X156.659 Y101.748 E11.20932
G1 X156.891 Y103.205 E11.36635
G1 X157.011 Y104.129 E11.46552
G1 X157.166 Y105.563 E11.61903
G1 X157.246 Y106.524 E11.72166
G1 X157.334 Y108.021 E11.88127
G1 X157.359 Y108.936 E11.97869
G1 X157.37 Y110.312 E12.12515
G1 X157.344 Y111.612 E12.26354
G1 X157.295 Y112.742 E12.38392
G1 X157.227 Y113.732 E12.48953
G1 X157.109 Y115.023 E12.62751
G1 X156.985 Y116.079 E12.74068
G1 X156.776 Y117.561 E12.89997
G1 X156.612 Y118.507 E13.00216
G1 X156.359 Y119.812 E13.14364
G1 X156.091 Y121.03 E13.27637
G1 X155.805 Y122.193 E13.40384
G1 X155.512 Y123.242 E13.51976
G1 X155.269 Y124.061 E13.61069
G1 X154.734 Y125.714 E13.79561
G1 X154.354 Y126.778 E13.91585
G1 X154.001 Y127.691 E14.02004
G1 X153.471 Y128.975 E14.16788
G1 X152.976 Y130.091 E14.29782
G1 X152.458 Y131.185 E14.42665
G1 X151.995 Y132.098 E14.5356
G1 X151.469 Y133.086 E14.65473
G1 X150.748 Y134.361 E14.81063
G1 X150.111 Y135.419 E14.94207
G1 X149.592 Y136.23 E15.04455
G1 X148.884 Y137.287 E15.17995
G1 X148.27 Y138.157 E15.29329
G1 X147.417 Y139.308 E15.44576
G1 X146.757 Y140.142 E15.55896
G1 X146.024 Y141.032 E15.68168
G1 X145.25 Y141.928 E15.80769
G1 X144.528 Y142.727 E15.92231
G1 X143.575 Y143.719 E16.06872
G1 X142.915 Y144.378 E16.16798
G1 X141.754 Y145.478 E16.33821
G1 X140.792 Y146.339 E16.47561
G1 X140.014 Y146.997 E16.58406
G1 X139.324 Y147.559 E16.67878
G1 X138.057 Y148.538 E16.84919
G1 X137.024 Y149.292 E16.98531
G1 X136.38 Y149.735 E17.06851
G1 X135.26 Y150.477 E17.2115
G1 X134.248 Y151.111 E17.3386
G1 X133.019 Y151.836 E17.49047
G1 X132.097 Y152.343 E17.60246
G1 X131.048 Y152.891 E17.72842
G1 X130.031 Y153.393 E17.84913
G1 X128.716 Y154.002 E18.00337
G1 X127.822 Y154.383 E18.1068
G1 X126.581 Y154.883 E18.2492
G1 X125.731 Y155.202 E18.34583
G1 X124.212 Y155.729 E18.51695
G1 X123.314 Y156.009 E18.61707
G1 X122.266 Y156.316 E18.7333
G1 X121.102 Y156.627 E18.86153
G1 X119.587 Y156.987 E19.02726
G1 X118.625 Y157.187 E19.13184
G1 X117.355 Y157.421 E19.26929
G1 X116.304 Y157.589 E19.38257
G1 X114.858 Y157.784 E19.53786
G1 X113.916 Y157.88 E19.63864
G1 X112.603 Y157.991 E19.77888
G1 X111.555 Y158.053 E19.89062
G1 X110.096 Y158.102 E20.04599
G1 X109.115 Y158.106 E20.1504
G1 X107.755 Y158.082 E20.29517
G1 X106.691 Y158.037 E20.40852
G1 X105.334 Y157.948 E20.55326
G1 X104.353 Y157.856 E20.65813
G1 X103.051 Y157.703 E20.79766
G1 X102.032 Y157.56 E20.90717
G1 X100.515 Y157.308 E21.07084
G1 X99.608 Y157.128 E21.16926
G1 X98.38 Y156.859 E21.30306
G1 X97.317 Y156.599 E21.41953
G1 X95.838 Y156.198 E21.58263
G1 X94.871 Y155.902 E21.69026
G1 X93.73 Y155.528 E21.81806
G1 X92.72 Y155.172 E21.93204
G1 X91.32 Y154.638 E22.09151
G1 X90.45 Y154.275 E22.19185
G1 X89.266 Y153.752 E22.32961
G1 X88.059 Y153.18 E22.47177
G1 X86.963 Y152.628 E22.60238
G1 X86.111 Y152.168 E22.70543
G1 X85.038 Y151.562 E22.83659
G1 X84.129 Y151.019 E22.94928
G1 X82.877 Y150.229 E23.10685
G1 X82.163 Y149.747 E23.19853
G1 X81.231 Y149.094 E23.31965
G1 X79.95 Y148.144 E23.48939
G1 X78.981 Y147.383 E23.62053
G1 X78.165 Y146.701 E23.73372
G1 X77.265 Y145.92 E23.86055
G1 X76.266 Y145.006 E24.00466
G1 X75.43 Y144.202 E24.12811
G1 X74.822 Y143.585 E24.2203
G1 X73.883 Y142.594 E24.3656
G1 X72.94 Y141.54 E24.51613
G1 X72.094 Y140.542 E24.65538
G1 X70.901 Y139.025 E24.86078
G1 X69.991 Y137.783 E25.02466
G1 X69.314 Y136.803 E25.15143
G1 X68.722 Y135.894 E25.26688
G1 X68.134 Y134.949 E25.38534
G1 X67.396 Y133.692 E25.54048
G1 X66.874 Y132.752 E25.65492
G1 X66.559 Y132.149 E25.72733
G1 X65.836 Y130.687 E25.90092
G1 X65.279 Y129.481 E26.04231
G1 X64.778 Y128.312 E26.17767
G1 X64.438 Y127.457 E26.2756
G1 X64.066 Y126.474 E26.38747
G1 X63.609 Y125.156 E26.53594
G1 X63.178 Y123.802 E26.68717
G1 X62.932 Y122.941 E26.78248
G1 X62.547 Y121.474 E26.9439
G1 X62.286 Y120.356 E27.06609
G1 X62.039 Y119.178 E27.19419
G1 X61.865 Y118.212 E27.29866
G1 X61.648 Y116.841 E27.4464
G1 X61.489 Y115.623 E27.57713
G1 X61.363 Y114.452 E27.70248
G1 X61.286 Y113.509 E27.80318
G1 X61.203 Y112.078 E27.95575
G1 X61.165 Y110.799 E28.09193
G1 X61.157 Y109.586 E28.22104
G1 X61.178 Y108.671 E28.31845
G1 X61.234 Y107.312 E28.46321
G1 X61.302 Y106.279 E28.5734
G1 X61.437 Y104.809 E28.73051
G1 X61.555 Y103.836 E28.83483
G1 X61.735 Y102.574 E28.9705
G1 X61.961 Y101.246 E29.11388
G1 X62.179 Y100.123 E29.23563
G1 X62.403 Y99.126 E29.34439
G1 X62.618 Y98.242 E29.44122
G1 X63.054 Y96.629 E29.61906
G1 X63.398 Y95.485 E29.7462
G1 X63.715 Y94.529 E29.8534
G1 X64.147 Y93.31 E29.99105
G1 X64.528 Y92.312 E30.10474
G1 X65.092 Y90.941 E30.26253
G1 X65.498 Y90.033 E30.36839
G1 X65.853 Y89.274 E30.45757
G1 X66.594 Y87.783 E30.63478
G1 X67.069 Y86.89 E30.74243
G1 X67.599 Y85.954 E30.85691
G1 X68.329 Y84.732 E31.00842
G1 X68.921 Y83.796 E31.12629
G1 X69.723 Y82.595 E31.27999
G1 X70.279 Y81.818 E31.38168
G1 X71.098 Y80.716 E31.52782
G1 X71.893 Y79.707 E31.66454
G1 X72.589 Y78.864 E31.78089
G1 X73.055 Y78.327 E31.85656
G1 X73.934 Y77.351 E31.99636
G1 X75.062 Y76.171 E32.1701
G0 F6000 X75.625 Y76.739
G1 F900 X76.475 Y75.897 E32.29744
G1 X77.209 Y75.209 E32.40451
G1 X78.079 Y74.427 E32.52902
G1 X79.148 Y73.517 E32.67844
G1 X80.055 Y72.784 E32.80255
G1 X80.877 Y72.157 E32.91259
G1 X81.777 Y71.499 E33.03125
G1 X82.89 Y70.726 E33.17547
G1 X83.852 Y70.096 E33.29786
G1 X84.779 Y69.522 E33.41391
G1 X85.484 Y69.104 E33.50114
G1 X86.737 Y68.403 E33.65395
G1 X88.056 Y67.71 E33.81253
G1 X88.785 Y67.356 E33.89879
G1 X89.93 Y66.825 E34.03312
G1 X91.209 Y66.274 E34.18134
G1 X92.065 Y65.927 E34.27965
G1 X92.996 Y65.578 E34.38547
G1 X94.471 Y65.066 E34.55165
G1 X95.289 Y64.804 E34.64307
G1 X96.443 Y64.46 E34.77123
G1 X97.727 Y64.123 E34.91252
G1 X99.021 Y63.816 E35.05406
G1 X100.184 Y63.573 E35.18052
G1 X101.384 Y63.352 E35.31039
G1 X102.317 Y63.206 E35.4109
G1 X103.691 Y63.023 E35.55843
G1 X104.682 Y62.916 E35.66451
G1 X106.08 Y62.797 E35.81384
G1 X106.825 Y62.755 E35.89326
G1 X108.324 Y62.703 E36.0529
G1 X109.369 Y62.693 E36.16413
G1 X110.51 Y62.707 E36.28558
G1 X111.71 Y62.758 E36.41341
G1 X113.09 Y62.849 E36.5606
G1 X114.114 Y62.942 E36.67004
G1 X115.474 Y63.099 E36.81575
G1 X116.452 Y63.243 E36.92096
G1 X117.715 Y63.455 E37.05727
G1 X119.003 Y63.707 E37.19695
G1 X120.3 Y63.997 E37.3384
G1 X120.727 Y64.101 E37.38518
G1 X122.226 Y64.504 E37.55039
G1 X123.334 Y64.835 E37.67346
G1 X124.683 Y65.274 E37.82445
G1 X125.449 Y65.548 E37.91104
G1 X126.743 Y66.042 E38.05846
G1 X127.973 Y66.55 E38.20009
G1 X129.031 Y67.019 E38.32327
G1 X129.951 Y67.457 E38.43172
G1 X130.775 Y67.867 E38.52967
G1 X131.991 Y68.51 E38.67607
G1 X133.186 Y69.184 E38.8221
G1 X133.852 Y69.584 E38.90478
G1 X135.093 Y70.367 E39.06096
G1 X136.214 Y71.118 E39.20457
G1 X137.18 Y71.804 E39.33067
G1 X137.977 Y72.404 E39.43685
G1 X138.847 Y73.084 E39.55437
G1 X139.716 Y73.796 E39.67394
G1 X140.804 Y74.739 E39.82718
G1 X141.544 Y75.418 E39.93407
G1 X142.408 Y76.245 E40.06137
G1 X143.372 Y77.217 E40.20707
G1 X144.171 Y78.066 E40.33115
G1 X144.834 Y78.812 E40.43738
G1 X145.594 Y79.701 E40.56186
G1 X146.474 Y80.784 E40.71038
G1 X147.173 Y81.696 E40.83268
G1 X147.787 Y82.543 E40.94402
G1 X148.376 Y83.39 E41.05382
G1 X149.076 Y84.448 E41.18884
G1 X149.833 Y85.659 E41.34084
G1 X150.338 Y86.528 E41.44782
G1 X150.9 Y87.542 E41.57121
G1 X151.491 Y88.672 E41.70693
G1 X152.059 Y89.828 E41.84402
G1 X152.467 Y90.727 E41.94909
G1 X152.917 Y91.77 E42.06999
G1 X153.422 Y93.025 E42.21397
G1 X153.857 Y94.194 E42.34673
G1 X154.147 Y95.05 E42.44292
G1 X154.564 Y96.367 E42.58995
G1 X154.887 Y97.489 E42.71422
G1 X155.193 Y98.653 E42.84232
G1 X155.398 Y99.53 E42.93817
G1 X155.696 Y100.934 E43.09093
G1 X155.869 Y101.874 E43.19266
G1 X156.098 Y103.308 E43.34722
G1 X156.216 Y104.215 E43.44457
G1 X156.369 Y105.629 E43.59594
G1 X156.447 Y106.571 E43.69654
G1 X156.534 Y108.043 E43.85348
G1 X156.559 Y108.942 E43.9492
G1 X156.57 Y110.296 E44.09332
G1 X156.545 Y111.577 E44.22968
G1 X156.497 Y112.687 E44.34793
G1 X156.43 Y113.659 E44.45163
G1 X156.314 Y114.93 E44.58747
G1 X156.193 Y115.968 E44.69869
G1 X155.988 Y117.425 E44.85529
G1 X155.827 Y118.355 E44.95575
G1 X155.578 Y119.64 E45.09506
G1 X155.314 Y120.839 E45.22573
G1 X155.028 Y122.002 E45.3532
G1 X154.745 Y123.015 E45.46514
G1 X154.508 Y123.815 E45.55394
G1 X153.981 Y125.445 E45.73627
G1 X153.608 Y126.489 E45.85427
G1 X153.261 Y127.386 E45.95663
G1 X152.739 Y128.651 E46.10228
G1 X152.253 Y129.749 E46.23008
G1 X151.745 Y130.823 E46.35653
G1 X151.289 Y131.722 E46.46382
G1 X150.772 Y132.693 E46.5809
G1 X150.063 Y133.948 E46.73431
G1 X149.437 Y134.988 E46.86351
G1 X148.927 Y135.785 E46.96421
G1 X148.23 Y136.826 E47.09755
G1 X147.627 Y137.681 E47.20891
G1 X146.789 Y138.812 E47.35872
G1 X146.139 Y139.634 E47.47026
G1 X145.419 Y140.509 E47.59086
G1 X144.656 Y141.392 E47.71507
G1 X143.951 Y142.173 E47.82705
G1 X143.01 Y143.153 E47.97165
G1 X142.365 Y143.797 E48.06866
G1 X141.22 Y144.882 E48.23655
G1 X140.276 Y145.728 E48.37146
G1 X139.508 Y146.377 E48.47848
G1 X138.835 Y146.926 E48.57092
G1 X137.585 Y147.892 E48.73906
G1 X136.57 Y148.633 E48.87281
G1 X135.938 Y149.068 E48.95447
G1 X134.835 Y149.799 E49.09531
G1 X133.841 Y150.422 E49.22016
G1 X132.633 Y151.135 E49.36946
G1 X131.726 Y151.634 E49.47964
G1 X130.694 Y152.174 E49.6036
G1 X129.695 Y152.667 E49.72217
G1 X128.402 Y153.266 E49.87384
G1 X127.523 Y153.641 E49.97555
G1 X126.3 Y154.134 E50.1159
G1 X125.468 Y154.446 E50.21047
G1 X123.974 Y154.965 E50.3788
G1 X123.089 Y155.241 E50.47747
G1 X122.059 Y155.543 E50.59171
G1 X120.917 Y155.849 E50.71754
G1 X119.425 Y156.204 E50.88077
G1 X118.48 Y156.4 E50.98349
G1 X117.229 Y156.631 E51.11889
G1 X116.197 Y156.796 E51.23012
G1 X114.777 Y156.988 E51.38263
G1 X113.849 Y157.083 E51.48192
G1 X112.556 Y157.192 E51.62002
G1 X111.528 Y157.253 E51.72963
G1 X110.093 Y157.302 E51.88245
G1 X109.129 Y157.306 E51.98505
G1 X107.789 Y157.283 E52.12769
G1 X106.743 Y157.239 E52.23912
G1 X105.409 Y157.152 E52.3814
G1 X104.446 Y157.061 E52.48435
G1 X103.162 Y156.911 E52.62194
G1 X102.163 Y156.771 E52.7293
G1 X100.671 Y156.523 E52.89028
G1 X99.779 Y156.346 E52.98707
G1 X98.57 Y156.082 E53.11878
G1 X97.526 Y155.827 E53.23316
G1 X96.072 Y155.433 E53.39349
G1 X95.12 Y155.142 E53.49945
G1 X93.996 Y154.774 E53.62532
G1 X93.005 Y154.424 E53.73718
G1 X91.628 Y153.899 E53.89403
G1 X90.773 Y153.543 E53.9926
G1 X89.608 Y153.029 E54.12813
G1 X88.419 Y152.466 E54.26815
G1 X87.343 Y151.924 E54.39638
G1 X86.504 Y151.471 E54.49786
G1 X85.448 Y150.875 E54.62692
G1 X84.556 Y150.342 E54.73751
G1 X83.304 Y149.552 E54.89508
G1 X82.622 Y149.092 E54.98263
G1 X81.708 Y148.451 E55.10145
G1 X80.427 Y147.501 E55.27119
G1 X79.494 Y146.769 E55.39741
G1 X78.689 Y146.097 E55.50901
G1 X77.805 Y145.33 E55.63358
G1 X76.82 Y144.429 E55.77566
G1 X76 Y143.641 E55.8967
G1 X75.403 Y143.035 E55.98724
G1 X74.479 Y142.06 E56.1302
G1 X73.55 Y141.023 E56.27839
G1 X72.723 Y140.047 E56.41454
G1 X71.53 Y138.53 E56.61995
G1 X70.649 Y137.328 E56.77856
G1 X69.984 Y136.366 E56.90303
G1 X69.401 Y135.472 E57.01663
G1 X68.824 Y134.544 E57.13293
G1 X68.095 Y133.303 E57.28612
G1 X67.583 Y132.382 E57.39827
G1 X67.276 Y131.794 E57.46887
G1 X66.562 Y130.351 E57.64022
G1 X66.014 Y129.165 E57.77928
G1 X65.521 Y128.017 E57.91225
G1 X65.186 Y127.174 E58.0088
G1 X64.822 Y126.211 E58.11837
G1 X64.371 Y124.913 E58.26462
G1 X63.947 Y123.582 E58.4133
G1 X63.706 Y122.738 E58.50672
G1 X63.326 Y121.292 E58.66584
G1 X63.069 Y120.191 E58.78617
G1 X62.826 Y119.036 E58.9118
G1 X62.655 Y118.087 E59.01443
G1 X62.441 Y116.737 E59.1599
G1 X62.284 Y115.537 E59.28871
G1 X62.16 Y114.387 E59.41182
G1 X62.085 Y113.462 E59.51059
G1 X62.003 Y112.054 E59.6607
G1 X61.965 Y110.794 E59.79487
G1 X61.957 Y109.604 E59.92153
G1 X61.977 Y108.704 E60.01734
G1 X62.032 Y107.365 E60.15997
G1 X62.099 Y106.352 E60.26802
G1 X62.231 Y104.905 E60.42267
G1 X62.347 Y103.949 E60.52517
G1 X62.524 Y102.708 E60.65859
G1 X62.746 Y101.399 E60.79989
G1 X62.96 Y100.298 E60.91927
G1 X63.181 Y99.314 E61.02661
G1 X63.39 Y98.451 E61.12111
G1 X63.82 Y96.859 E61.29663
G1 X64.157 Y95.737 E61.42131
G1 X64.469 Y94.796 E61.52683
G1 X64.894 Y93.595 E61.66242
G1 X65.268 Y92.616 E61.77396
G1 X65.822 Y91.268 E61.92908
G1 X66.223 Y90.372 E62.03356
G1 X66.57 Y89.63 E62.12074
G1 X67.301 Y88.158 E62.29566
G1 X67.765 Y87.284 E62.40098
G1 X68.286 Y86.364 E62.51351
G1 X69.005 Y85.159 E62.66286
G1 X69.586 Y84.24 E62.77857
G1 X70.374 Y83.06 E62.92959
G1 X70.921 Y82.295 E63.02969
G1 X71.726 Y81.211 E63.17339
G1 X72.51 Y80.216 E63.30822
G1 X73.193 Y79.388 E63.42246
G1 X73.649 Y78.862 E63.49655
G1 X74.512 Y77.904 E63.63378
