;FLAVOR:Marlin
;TIME:6263
;Filament used: 6.45232m
;Layer height: 0.32
;MINX:4.41
;MINY:30.271
;MINZ:0.32
;MAXX:215.579
;MAXY:189.717
;MAXZ:25.16
;TARGET_MACHINE.NAME:Creality Ender-3 Pro
;Generated with Cura_SteamEngine 5.5.0
M82 ;absolute extrusion mode
; Ender 3 Custom Start G-code
G92 E0 ; Reset Extruder
G28 ; Home all axes
G1 Z5.0 F3000 ; Move Z Axis up a bit during heating to not damage bed
M104 S120 ; Start heating up the nozzle most of the way
M190 S70 ; Start heating the bed, wait until target temperature reached
M109 S235.0 ; Finish heating the nozzle
G1 Z2.0 F3000 ; Move Z Axis up little to prevent scratching of Heat Bed
G1 X0.1 Y20 Z0.3 F5000.0 ; Move to start position
G1 X0.1 Y200.0 Z0.3 F1500.0 E15 ; Draw the first line
G1 X0.4 Y200.0 Z0.3 F5000.0 ; Move to side a little
G1 X0.4 Y20 Z0.3 F1500.0 E30 ; Draw the second line
G92 E0 ; Reset Extruder
G1 Z2.0 F3000 ; Move Z Axis up little to prevent scratching of Heat Bed
G1 X5 Y20 Z0.3 F5000.0 ; Move over to prevent blob squish
G92 E0
G92 E0
G1 F1500 E-6.5
;LAYER_COUNT:78
;LAYER:0
M107
G1 F300 Z0.52
G0 F6000 X33.698 Y32.512 Z0.52
;TYPE:SKIRT
G1 F300 Z0.32
G1 F1500 E0
G1 F900 X34.24 Y31.95 E0.0831
G1 X34.986 Y31.412 E0.18099
G1 X35.791 Y30.934 E0.28064
G1 X36.366 Y30.647 E0.34903
G1 X37.119 Y30.405 E0.43322
G1 X38.1 Y30.284 E0.53842
G1 X38.554 Y30.271 E0.58676
G1 X93.928 Y30.271 E6.48035
G1 X94.755 Y30.287 E6.56838
G1 X95.384 Y30.345 E6.63561
G1 X96.152 Y30.536 E6.71984
G1 X96.795 Y30.813 E6.79436
G1 X97.32 Y31.093 E6.85769
G1 X97.888 Y31.436 E6.92831
G1 X98.415 Y31.807 E6.9969
G1 X98.975 Y32.347 E7.0797
G1 X99.422 Y32.953 E7.15985
G1 X100.554 Y34.812 E7.3915
G1 X101.992 Y37.111 E7.68011
G1 X103.464 Y39.324 E7.96299
G1 X105.023 Y41.528 E8.25032
G1 X106.636 Y43.679 E8.53648
G1 X108.319 Y45.794 E8.82416
G1 X110.03 Y47.822 E9.10656
G1 X111.864 Y49.877 E9.39971
G1 X113.652 Y51.77 E9.67685
G1 X115.623 Y53.74 E9.97345
G1 X117.505 Y55.521 E10.24923
G1 X119.535 Y57.333 E10.53884
G1 X121.606 Y59.079 E10.82714
G1 X123.692 Y60.741 E11.11101
G1 X125.856 Y62.365 E11.39898
G1 X128.041 Y63.912 E11.68392
G1 X130.281 Y65.403 E11.97031
G1 X132.518 Y66.803 E12.25118
G1 X134.922 Y68.214 E12.54786
G1 X137.183 Y69.457 E12.82248
G1 X139.631 Y70.714 E13.11536
G1 X142.048 Y71.87 E13.40052
G1 X144.482 Y72.95 E13.68393
G1 X146.996 Y73.983 E13.97321
G1 X149.483 Y74.922 E14.25615
G1 X152.055 Y75.812 E14.54582
G1 X154.567 Y76.602 E14.82609
G1 X157.182 Y77.344 E15.11539
G1 X159.808 Y78.007 E15.40366
G1 X162.427 Y78.593 E15.68929
G1 X165.039 Y79.099 E15.97246
G1 X167.692 Y79.536 E16.25863
G1 X170.368 Y79.899 E16.54606
G1 X173.006 Y80.181 E16.82842
G1 X175.746 Y80.397 E17.12095
G1 X178.388 Y80.529 E17.4025
G1 X180.484 Y80.582 E17.62565
G1 X181.931 Y80.608 E17.77969
G1 X182.57 Y80.667 E17.84799
G1 X183.327 Y80.857 E17.93105
G1 X184.035 Y81.165 E18.01323
G1 X184.496 Y81.415 E18.06905
G1 X185.058 Y81.754 E18.1389
G1 X185.584 Y82.125 E18.20741
G1 X186.147 Y82.666 E18.29051
G1 X186.639 Y83.34 E18.37933
G1 X187.264 Y84.37 E18.50755
G1 X214.605 Y131.724 E24.32731
G1 X214.945 Y132.337 E24.40191
G1 X215.268 Y133.031 E24.48339
G1 X215.481 Y133.781 E24.56637
G1 X215.571 Y134.633 E24.65755
G1 X215.579 Y135.086 E24.70577
G1 X215.567 Y135.693 E24.77039
G1 X215.502 Y136.398 E24.84574
G1 X215.313 Y137.152 E24.92848
G1 X215.002 Y137.86 E25.01078
G1 X214.719 Y138.387 E25.07445
G1 X187.069 Y186.277 E30.96005
G1 X186.656 Y186.958 E31.04482
G1 X186.285 Y187.483 E31.11324
G1 X185.735 Y188.05 E31.19731
G1 X185.006 Y188.574 E31.29287
G1 X184.306 Y188.994 E31.37975
G1 X183.625 Y189.341 E31.4611
G1 X182.864 Y189.585 E31.54615
G1 X181.877 Y189.706 E31.65199
G1 X181.488 Y189.716 E31.6934
G1 X126.053 Y189.717 E37.59349
G1 X125.231 Y189.7 E37.68099
G1 X124.59 Y189.641 E37.7495
G1 X123.842 Y189.452 E37.83162
G1 X123.149 Y189.152 E37.91199
G1 X122.671 Y188.896 E37.9697
G1 X122.101 Y188.552 E38.04056
G1 X121.574 Y188.181 E38.10916
G1 X121.014 Y187.641 E38.19195
G1 X120.567 Y187.035 E38.2721
G1 X119.421 Y185.153 E38.50662
G1 X117.997 Y182.877 E38.79237
G1 X116.509 Y180.641 E39.07823
G1 X114.954 Y178.444 E39.3647
G1 X113.325 Y176.273 E39.65358
G1 X111.692 Y174.222 E39.93262
G1 X109.913 Y172.113 E40.22628
G1 X108.137 Y170.125 E40.51
G1 X106.336 Y168.217 E40.78925
G1 X104.383 Y166.265 E41.08314
G1 X102.466 Y164.451 E41.36404
G1 X100.454 Y162.655 E41.65108
G1 X98.382 Y160.908 E41.93954
G1 X96.297 Y159.247 E42.22326
G1 X94.121 Y157.613 E42.51288
G1 X91.948 Y156.076 E42.79617
G1 X89.702 Y154.581 E43.08333
G1 X87.471 Y153.185 E43.36343
G1 X85.067 Y151.774 E43.66011
G1 X82.806 Y150.531 E43.93473
G1 X80.358 Y149.274 E44.22761
G1 X77.941 Y148.118 E44.51277
G1 X75.507 Y147.038 E44.79618
G1 X72.989 Y146.003 E45.08594
G1 X70.506 Y145.066 E45.3684
G1 X67.928 Y144.174 E45.65874
G1 X65.422 Y143.386 E45.93834
G1 X62.807 Y142.644 E46.22764
G1 X60.168 Y141.977 E46.51735
G1 X57.563 Y141.395 E46.80144
G1 X54.95 Y140.889 E47.08472
G1 X52.297 Y140.452 E47.37089
G1 X49.621 Y140.089 E47.65831
G1 X46.983 Y139.807 E47.94068
G1 X44.243 Y139.591 E48.23321
G1 X41.601 Y139.459 E48.51475
G1 X39.503 Y139.406 E48.73812
G1 X38.119 Y139.382 E48.88544
G1 X37.42 Y139.319 E48.96014
G1 X36.656 Y139.128 E49.04396
G1 X35.98 Y138.835 E49.12237
G1 X35.5 Y138.577 E49.18037
G1 X34.931 Y138.234 E49.25109
G1 X34.405 Y137.863 E49.31959
G1 X33.842 Y137.322 E49.4027
G1 X33.35 Y136.648 E49.49151
G1 X32.725 Y135.618 E49.61974
G1 X5.364 Y88.229 E55.44378
G1 X5.044 Y87.652 E55.51401
G1 X4.721 Y86.958 E55.59548
G1 X4.508 Y86.208 E55.67846
G1 X4.418 Y85.352 E55.77007
G1 X4.41 Y84.895 E55.81872
G1 X4.424 Y84.239 E55.88855
G1 X4.483 Y83.598 E55.95706
G1 X4.672 Y82.848 E56.03938
G1 X4.982 Y82.134 E56.12223
G1 X5.237 Y81.658 E56.1797
G1 X32.89 Y33.761 E62.06611
G1 X33.295 Y33.087 E62.1498
G1 X33.698 Y32.512 E62.22453
G0 F6000 X34.318 Y33.021
G1 F900 X34.767 Y32.556 E62.29333
G1 X35.396 Y32.099 E62.37608
G1 X36.148 Y31.65 E62.4693
G1 X36.667 Y31.391 E62.53104
G1 X37.292 Y31.19 E62.60091
G1 X38.123 Y31.084 E62.69007
G1 X38.577 Y31.071 E62.73841
G1 X93.914 Y31.071 E68.62806
G1 X94.681 Y31.084 E68.70971
G1 X95.255 Y31.137 E68.77106
G1 X95.891 Y31.295 E68.84081
G1 X96.478 Y31.548 E68.90884
G1 X96.94 Y31.797 E68.9647
G1 X97.427 Y32.09 E69.02519
G1 X97.905 Y32.427 E69.08744
G1 X98.37 Y32.875 E69.15616
G1 X98.778 Y33.428 E69.2293
G1 X99.87 Y35.227 E69.45329
G1 X101.326 Y37.554 E69.74544
G1 X102.811 Y39.786 E70.03078
G1 X104.383 Y42.008 E70.32047
G1 X106.01 Y44.177 E70.60905
G1 X107.696 Y46.296 E70.89726
G1 X109.433 Y48.355 E71.18397
G1 X111.269 Y50.412 E71.47742
G1 X113.086 Y52.336 E71.75908
G1 X115.057 Y54.306 E72.05568
G1 X116.972 Y56.118 E72.33628
G1 X119.019 Y57.945 E72.6283
G1 X121.09 Y59.691 E72.9166
G1 X123.212 Y61.381 E73.20533
G1 X125.382 Y63.01 E73.49412
G1 X127.587 Y64.571 E73.78166
G1 X129.841 Y66.071 E74.06983
G1 X132.113 Y67.493 E74.3551
G1 X134.517 Y68.904 E74.65178
G1 X136.818 Y70.169 E74.93125
G1 X139.278 Y71.432 E75.22556
G1 X141.703 Y72.592 E75.51167
G1 X144.178 Y73.69 E75.79985
G1 X146.694 Y74.724 E76.08937
G1 X149.221 Y75.678 E76.37685
G1 X151.796 Y76.569 E76.66686
G1 X154.349 Y77.372 E76.9517
G1 X156.978 Y78.118 E77.24256
G1 X159.622 Y78.786 E77.53281
G1 X162.252 Y79.374 E77.81964
G1 X164.9 Y79.887 E78.10671
G1 X167.584 Y80.329 E78.39622
G1 X170.26 Y80.692 E78.68364
G1 X172.943 Y80.979 E78.97083
G1 X175.683 Y81.195 E79.26336
G1 X178.368 Y81.329 E79.54949
G1 X180.464 Y81.382 E79.77264
G1 X181.858 Y81.405 E79.92103
G1 X182.436 Y81.458 E79.9828
G1 X183.067 Y81.617 E80.05206
G1 X183.716 Y81.899 E80.12738
G1 X184.085 Y82.101 E80.17215
G1 X184.597 Y82.408 E80.23569
G1 X185.071 Y82.742 E80.2974
G1 X185.544 Y83.197 E80.36726
G1 X185.993 Y83.812 E80.4483
G1 X186.571 Y84.77 E80.56738
G1 X213.905 Y132.112 E86.38566
G1 X214.245 Y132.725 E86.46027
G1 X214.515 Y133.309 E86.52874
G1 X214.693 Y133.936 E86.59812
G1 X214.771 Y134.648 E86.67435
G1 X214.779 Y135.073 E86.71959
G1 X214.77 Y135.62 E86.77782
G1 X214.711 Y136.265 E86.84675
G1 X214.554 Y136.891 E86.91544
G1 X214.297 Y137.482 E86.98403
G1 X214.026 Y137.987 E87.04503
G1 X186.384 Y185.864 E92.92901
G1 X186.003 Y186.496 E93.00755
G1 X185.667 Y186.971 E93.06948
G1 X185.211 Y187.442 E93.13925
G1 X184.594 Y187.888 E93.22028
G1 X183.894 Y188.308 E93.30717
G1 X183.321 Y188.599 E93.37557
G1 X182.695 Y188.799 E93.44551
G1 X181.855 Y188.906 E93.53564
G1 X181.488 Y188.916 E93.57471
G1 X126.068 Y188.917 E99.4732
G1 X125.304 Y188.903 E99.55452
G1 X124.726 Y188.85 E99.6163
G1 X124.096 Y188.691 E99.68546
G1 X123.527 Y188.447 E99.75135
G1 X123.049 Y188.191 E99.80906
G1 X122.562 Y187.898 E99.86955
G1 X122.084 Y187.561 E99.9318
G1 X121.619 Y187.113 E100.00052
G1 X121.211 Y186.56 E100.07366
G1 X120.105 Y184.738 E100.30052
G1 X118.663 Y182.434 E100.5898
G1 X117.175 Y180.198 E100.87567
G1 X115.594 Y177.964 E101.16696
G1 X113.965 Y175.793 E101.45583
G1 X112.304 Y173.706 E101.73972
G1 X110.525 Y171.597 E102.03338
G1 X108.734 Y169.592 E102.31952
G1 X106.902 Y167.651 E102.60359
G1 X104.949 Y165.699 E102.89748
G1 X102.999 Y163.854 E103.18319
G1 X100.97 Y162.043 E103.47265
G1 X98.898 Y160.296 E103.76111
G1 X96.777 Y158.607 E104.04968
G1 X94.601 Y156.973 E104.33931
G1 X92.402 Y155.417 E104.62602
G1 X90.145 Y153.915 E104.91457
G1 X87.876 Y152.495 E105.19945
G1 X85.472 Y151.084 E105.49613
G1 X83.171 Y149.819 E105.7756
G1 X80.711 Y148.556 E106.06992
G1 X78.286 Y147.396 E106.35603
G1 X75.811 Y146.298 E106.64421
G1 X73.293 Y145.263 E106.93396
G1 X70.768 Y144.31 E107.22121
G1 X68.19 Y143.418 E107.51155
G1 X65.64 Y142.616 E107.79606
G1 X63.011 Y141.87 E108.08692
G1 X60.364 Y141.201 E108.3775
G1 X57.737 Y140.614 E108.664
G1 X55.089 Y140.101 E108.95107
G1 X52.405 Y139.659 E109.24058
G1 X49.729 Y139.296 E109.528
G1 X47.046 Y139.009 E109.81519
G1 X44.306 Y138.793 E110.10772
G1 X41.621 Y138.659 E110.39385
G1 X39.523 Y138.606 E110.61721
G1 X38.191 Y138.585 E110.759
G1 X37.551 Y138.527 E110.82739
G1 X36.918 Y138.369 E110.89683
G1 X36.359 Y138.13 E110.96154
G1 X35.879 Y137.872 E111.01954
G1 X35.392 Y137.58 E111.07997
G1 X34.918 Y137.246 E111.14169
G1 X34.445 Y136.791 E111.21154
G1 X33.996 Y136.176 E111.29259
G1 X33.418 Y135.218 E111.41167
G1 X6.064 Y87.841 E117.23424
G1 X5.744 Y87.264 E117.30446
G1 X5.474 Y86.68 E117.37294
G1 X5.296 Y86.053 E117.44231
G1 X5.218 Y85.337 E117.51896
G1 X5.21 Y84.91 E117.56442
G1 X5.221 Y84.312 E117.62808
G1 X5.274 Y83.734 E117.68985
G1 X5.433 Y83.105 E117.7589
G1 X5.688 Y82.511 E117.8277
G1 X5.93 Y82.058 E117.88237
G1 X33.576 Y34.173 E123.76729
G1 X33.981 Y33.499 E123.85098
G1 X34.318 Y33.021 E123.91323
G0 F6000 X34.935 Y33.534
G1 F900 X35.297 Y33.159 E123.96871
G1 X35.807 Y32.785 E124.03602
G1 X36.506 Y32.366 E124.12276
G1 X36.972 Y32.133 E124.17821
G1 X37.468 Y31.974 E124.23365
G1 X38.146 Y31.884 E124.30644
G1 X38.6 Y31.871 E124.35478
G1 X93.903 Y31.871 E130.24081
G1 X94.607 Y31.881 E130.31575
G1 X95.126 Y31.929 E130.37122
G1 X95.632 Y32.055 E130.42672
G1 X96.162 Y32.283 E130.48813
G1 X96.53 Y32.484 E130.53276
G1 X96.966 Y32.744 E130.58679
G1 X97.392 Y33.044 E130.64224
G1 X97.767 Y33.406 E130.69772
G1 X98.134 Y33.903 E130.76347
G1 X99.192 Y35.651 E130.98094
G1 X100.66 Y37.997 E131.27549
G1 X102.158 Y40.248 E131.56327
G1 X103.743 Y42.488 E131.85532
G1 X105.384 Y44.675 E132.14633
G1 X107.073 Y46.798 E132.43507
G1 X108.836 Y48.888 E132.72609
G1 X110.674 Y50.947 E133.01984
G1 X112.52 Y52.902 E133.30602
G1 X114.491 Y54.872 E133.60262
G1 X116.439 Y56.715 E133.88803
G1 X118.503 Y58.557 E134.18247
G1 X120.574 Y60.303 E134.47077
G1 X122.732 Y62.021 E134.76435
G1 X124.908 Y63.655 E135.05398
G1 X127.133 Y65.23 E135.34411
G1 X129.401 Y66.739 E135.63405
G1 X131.708 Y68.183 E135.92372
G1 X134.112 Y69.594 E136.2204
G1 X136.453 Y70.881 E136.50473
G1 X138.925 Y72.15 E136.80047
G1 X141.358 Y73.314 E137.08753
G1 X143.874 Y74.43 E137.38048
G1 X146.392 Y75.465 E137.67023
G1 X148.959 Y76.434 E137.96226
G1 X151.537 Y77.326 E138.2526
G1 X154.131 Y78.142 E138.54203
G1 X156.774 Y78.892 E138.83444
G1 X159.429 Y79.563 E139.1259
G1 X162.078 Y80.155 E139.41479
G1 X164.761 Y80.675 E139.70566
G1 X167.476 Y81.122 E139.99852
G1 X170.152 Y81.485 E140.28594
G1 X172.88 Y81.777 E140.57795
G1 X175.62 Y81.993 E140.87048
G1 X178.348 Y82.129 E141.16118
G1 X180.444 Y82.182 E141.38434
G1 X181.784 Y82.202 E141.52697
G1 X182.303 Y82.25 E141.58245
G1 X182.808 Y82.377 E141.63787
G1 X183.332 Y82.601 E141.69852
G1 X183.701 Y82.803 E141.7433
G1 X184.136 Y83.062 E141.79718
G1 X184.562 Y83.362 E141.85263
G1 X184.938 Y83.724 E141.90819
G1 X185.308 Y84.226 E141.97456
G1 X185.878 Y85.17 E142.09193
G1 X213.205 Y132.5 E147.90872
G1 X213.545 Y133.113 E147.98333
G1 X213.762 Y133.587 E148.03881
G1 X213.905 Y134.088 E148.09427
G1 X213.971 Y134.664 E148.15597
G1 X213.979 Y135.06 E148.19813
G1 X213.97 Y135.607 E148.25635
G1 X213.921 Y136.126 E148.31184
G1 X213.794 Y136.631 E148.36726
G1 X213.563 Y137.163 E148.42899
G1 X213.333 Y137.587 E148.48033
G1 X185.698 Y185.453 E154.36292
G1 X185.35 Y186.034 E154.435
G1 X185.049 Y186.459 E154.49043
G1 X184.686 Y186.834 E154.54598
G1 X184.182 Y187.202 E154.6124
G1 X183.482 Y187.622 E154.69928
G1 X183.016 Y187.856 E154.75478
G1 X182.52 Y188.015 E154.81022
G1 X181.832 Y188.106 E154.88408
G1 X181.488 Y188.116 E154.92071
G1 X126.081 Y188.117 E160.81781
G1 X125.378 Y188.106 E160.89264
G1 X124.859 Y188.058 E160.94812
G1 X124.353 Y187.931 E161.00364
G1 X123.843 Y187.712 E161.06272
G1 X123.459 Y187.504 E161.1092
G1 X123.023 Y187.244 E161.16323
G1 X122.597 Y186.944 E161.21868
G1 X122.222 Y186.582 E161.27416
G1 X121.855 Y186.085 E161.33991
G1 X120.789 Y184.324 E161.559
G1 X119.329 Y181.991 E161.85193
G1 X117.841 Y179.755 E162.13779
G1 X116.234 Y177.484 E162.43389
G1 X114.605 Y175.313 E162.72277
G1 X112.916 Y173.19 E163.01151
G1 X111.137 Y171.081 E163.30517
G1 X109.331 Y169.059 E163.59372
G1 X107.468 Y167.085 E163.88261
G1 X105.515 Y165.133 E164.1765
G1 X103.532 Y163.257 E164.46703
G1 X101.486 Y161.431 E164.75891
G1 X99.414 Y159.684 E165.04736
G1 X97.257 Y157.967 E165.34079
G1 X95.081 Y156.333 E165.63041
G1 X92.856 Y154.758 E165.92055
G1 X90.588 Y153.249 E166.21049
G1 X88.281 Y151.805 E166.50016
G1 X85.877 Y150.394 E166.79684
G1 X83.536 Y149.107 E167.08117
G1 X81.064 Y147.838 E167.37691
G1 X78.631 Y146.674 E167.66397
G1 X76.115 Y145.558 E167.95691
G1 X73.597 Y144.523 E168.24667
G1 X71.03 Y143.554 E168.5387
G1 X68.452 Y142.662 E168.82904
G1 X65.858 Y141.846 E169.11846
G1 X63.215 Y141.096 E169.41087
G1 X60.56 Y140.425 E169.70233
G1 X57.911 Y139.833 E169.99123
G1 X55.228 Y139.313 E170.2821
G1 X52.513 Y138.866 E170.57496
G1 X49.837 Y138.503 E170.86238
G1 X47.109 Y138.211 E171.15438
G1 X44.369 Y137.995 E171.44691
G1 X41.641 Y137.859 E171.73762
G1 X39.543 Y137.806 E171.96099
G1 X38.204 Y137.785 E172.10352
G1 X37.685 Y137.736 E172.159
G1 X37.179 Y137.61 E172.2145
G1 X36.674 Y137.394 E172.27296
G1 X36.288 Y137.185 E172.31968
G1 X35.853 Y136.926 E172.37356
G1 X35.427 Y136.626 E172.42902
G1 X35.051 Y136.264 E172.48457
G1 X34.681 Y135.762 E172.55094
G1 X34.111 Y134.818 E172.66831
G1 X6.764 Y87.453 E178.4894
G1 X6.444 Y86.876 E178.55962
G1 X6.227 Y86.402 E178.6151
G1 X6.084 Y85.901 E178.67056
G1 X6.018 Y85.321 E178.73269
G1 X6.01 Y84.922 E178.77516
G1 X6.018 Y84.386 E178.83221
G1 X6.066 Y83.867 E178.88769
G1 X6.193 Y83.362 E178.94311
G1 X6.423 Y82.827 E179.00509
G1 X6.623 Y82.458 E179.04976
G1 X34.263 Y34.583 E184.93345
G1 X34.635 Y33.96 E185.01068
G1 X34.935 Y33.534 E185.06613
G1 F1500 E178.56613
G1 F300 Z0.52
;MESH:MatratzenAbstandshalter-K??rper.stl(1)
G0 F6000 X38.416 Y35.94 Z0.52
;TYPE:WALL-OUTER
G1 F300 Z0.32
G1 F1500 E185.06613
G1 F624.5 X38.45 Y36.224 E185.11001
G1 F807.2 X38.563 Y36.606 E185.15728
G1 F902.3 X65.697 Y83.6 E190.9184
G0 F6000 X66.531 Y84.694
;TYPE:WALL-INNER
G1 F555.6 X66.371 Y84.694 E190.94599
G1 X66.289 Y84.834 E190.97396
G1 X66.37 Y84.974 E191.00185
G1 X66.531 Y84.974 E191.02961
G1 X66.613 Y84.834 E191.05758
G0 F6000 X67.119 Y86.068
;TYPE:WALL-OUTER
G1 F902.3 X67.072 Y85.799 E191.08658
G1 X67.112 Y85.681 E191.0998
G1 F901.1 X67.357 Y85.402 E191.13927
G1 X67.538 Y84.99 E191.18711
G1 F898.9 X67.822 Y84.834 E191.22164
