;FLAVOR:Marlin
;TIME:16447
;Filament used: 7.02629m
;Layer height: 0.2
;MINX:30.301
;MINY:0
;MINZ:0.2
;MAXX:192.069
;MAXY:220
;MAXZ:25
;TARGET_MACHINE.NAME:Creality Ender-3 Pro
;Generated with Cura_SteamEngine 5.5.0
M82 ;absolute extrusion mode
; Ender 3 Custom Start G-code
G92 E0 ; Reset Extruder
G28 ; Home all axes
G1 Z5.0 F3000 ; Move Z Axis up a bit during heating to not damage bed
M104 S120 ; Start heating up the nozzle most of the way
M190 S70 ; Start heating the bed, wait until target temperature reached
M109 S215 ; Finish heating the nozzle
G1 Z2.0 F3000 ; Move Z Axis up little to prevent scratching of Heat Bed
G1 X0.1 Y20 Z0.3 F5000.0 ; Move to start position
G1 X0.1 Y200.0 Z0.3 F1500.0 E15 ; Draw the first line
G1 X0.4 Y200.0 Z0.3 F5000.0 ; Move to side a little
G1 X0.4 Y20 Z0.3 F1500.0 E30 ; Draw the second line
G92 E0 ; Reset Extruder
G1 Z2.0 F3000 ; Move Z Axis up little to prevent scratching of Heat Bed
G1 X5 Y20 Z0.3 F5000.0 ; Move over to prevent blob squish
G92 E0
G92 E0
G1 F1500 E-6.5
;LAYER_COUNT:125
;LAYER:0
M107
G0 F6000 X45.837 Y0.00 Z0.2
;TYPE:SKIRT
G1 F1500 E0
G1 F900 X45.339 Y0.239 E0.01837
G1 X44.785 Y0.529 E0.03917
G1 X44.016 Y1.002 E0.0692
G1 X43.423 Y1.404 E0.09303
G1 X42.395 Y2.123 E0.13475
G1 X41.555 Y2.731 E0.16924
G1 X40.997 Y3.165 E0.19275
G1 X40.305 Y3.79 E0.22377
G1 X38.994 Y5.088 E0.28513
G1 X38.295 Y5.805 E0.31843
G1 X37.792 Y6.36 E0.34334
G1 X37.237 Y7.073 E0.3734
G1 X36.219 Y8.511 E0.432
G1 X35.568 Y9.467 E0.47046
G1 X35.186 Y10.074 E0.49432
G1 X34.749 Y10.899 E0.52537
G1 X33.982 Y12.52 E0.58502
G1 X33.539 Y13.508 E0.62103
G1 X33.258 Y14.201 E0.6459
G1 X32.982 Y15.061 E0.67594
G1 X32.519 Y16.752 E0.73425
G1 X32.242 Y17.849 E0.77189
G1 X32.111 Y18.44 E0.79202
G1 X31.974 Y19.362 E0.82302
G1 X31.907 Y20.01 E0.84469
G1 X31.78 Y21.469 E0.8934
G1 X31.718 Y22.349 E0.92274
G1 X31.691 Y23.023 E0.94518
G1 X31.725 Y23.986 E0.97723
G1 X31.873 Y25.801 E1.03779
G1 X31.981 Y26.856 E1.07307
G1 X32.082 Y27.582 E1.09745
G1 X32.271 Y28.465 E1.12748
G1 X32.716 Y30.171 E1.18612
G1 X33.022 Y31.256 E1.22361
G1 X33.242 Y31.941 E1.24754
G1 X33.594 Y32.807 E1.27864
G1 X34.347 Y34.443 E1.33854
G1 X35.905 Y37.971 E1.46681
G1 X36.819 Y40.249 E1.54845
G1 X37.684 Y42.597 E1.63167
G1 X38.49 Y44.993 E1.71575
G1 X39.236 Y47.436 E1.80071
G1 X39.897 Y49.839 E1.8836
G1 X40.5 Y52.309 E1.96817
G1 X41.018 Y54.709 E2.04983
G1 X41.481 Y57.212 E2.1345
G1 X41.87 Y59.702 E2.21832
G1 X41.992 Y60.662 E2.2505
G1 X42.131 Y61.642 E2.28343
G1 X42.331 Y62.663 E2.31803
G1 X42.605 Y63.601 E2.35053
G1 X42.961 Y64.508 E2.38294
G1 X43.394 Y65.38 E2.41532
G1 X44.004 Y66.473 E2.45695
G1 X45.559 Y69.378 E2.56654
G1 X46.69 Y71.664 E2.65137
G1 X47.73 Y73.92 E2.734
G1 X48.72 Y76.245 E2.81805
G1 X49.628 Y78.552 E2.90051
G1 X50.485 Y80.927 E2.98448
G1 X51.283 Y83.354 E3.06946
G1 X51.993 Y85.731 E3.15197
G1 X52.648 Y88.177 E3.23619
G1 X53.234 Y90.646 E3.32059
G1 X53.74 Y93.083 E3.40337
G1 X54.182 Y95.556 E3.48693
G1 X54.56 Y98.085 E3.57198
G1 X54.857 Y100.539 E3.65419
G1 X55.087 Y103.032 E3.73746
G1 X55.247 Y105.571 E3.82208
G1 X55.337 Y108.088 E3.90585
G1 X55.354 Y110.596 E3.98927
G1 X55.299 Y113.146 E4.0741
G1 X55.178 Y115.607 E4.15605
G1 X54.98 Y118.144 E4.24069
G1 X54.713 Y120.657 E4.32474
G1 X54.373 Y123.164 E4.40889
G1 X53.969 Y125.626 E4.49187
G1 X53.493 Y128.086 E4.57521
G1 X52.944 Y130.549 E4.65914
G1 X52.323 Y133.008 E4.74349
G1 X51.649 Y135.394 E4.82596
G1 X50.873 Y137.862 E4.91201
G1 X50.061 Y140.211 E4.99467
G1 X49.183 Y142.541 E5.07749
G1 X48.231 Y144.861 E5.16089
G1 X47.185 Y147.222 E5.24678
G1 X46.124 Y149.443 E5.32865
G1 X44.966 Y151.7 E5.41302
G1 X43.37 Y154.603 E5.5232
G1 X42.813 Y155.779 E5.56648
G1 X42.485 Y156.708 E5.59925
G1 X42.243 Y157.653 E5.6317
G1 X41.421 Y161.65 E5.76742
G1 X40.833 Y164.074 E5.85038
G1 X40.171 Y166.499 E5.93399
G1 X39.443 Y168.898 E6.01737
G1 X38.644 Y171.289 E6.10122
G1 X37.785 Y173.631 E6.18419
G1 X36.827 Y176.034 E6.27023
G1 X35.855 Y178.285 E6.35178
G1 X34.779 Y180.593 E6.43648
G1 X33.483 Y183.174 E6.53254
G1 X32.619 Y184.992 E6.59948
G1 X32.15 Y186.036 E6.63755
G1 X31.867 Y186.734 E6.6626
G1 X31.591 Y187.594 E6.69264
G1 X31.063 Y189.532 E6.75945
G1 X30.855 Y190.36 E6.78785
G1 X30.71 Y191.029 E6.81061
G1 X30.576 Y191.982 E6.84262
G1 X30.413 Y193.724 E6.90081
G1 X30.328 Y194.876 E6.93923
G1 X30.301 Y195.552 E6.96174
G1 X30.335 Y196.516 E6.99382
G1 X30.48 Y198.296 E7.05322
G1 X30.592 Y199.39 E7.08979
G1 X30.694 Y200.116 E7.11418
G1 X30.884 Y200.999 E7.14422
G1 X31.33 Y202.706 E7.2029
G1 X31.633 Y203.782 E7.24008
G1 X31.846 Y204.45 E7.2634
G1 X32.209 Y205.344 E7.29549
G1 X32.95 Y206.955 E7.35447
G1 X33.437 Y207.961 E7.39164
G1 X33.696 Y208.459 E7.41031
G1 X34.197 Y209.277 E7.44222
G1 X34.598 Y209.869 E7.466
G1 X35.318 Y210.9 E7.50783
G1 X35.934 Y211.752 E7.54279
G1 X36.361 Y212.3 E7.5659
G1 X36.986 Y212.992 E7.59691
G1 X38.284 Y214.303 E7.65827
G1 X39 Y215.001 E7.69153
G1 X39.508 Y215.463 E7.71437
G1 X40.266 Y216.056 E7.74638
G1 X41.705 Y217.077 E7.80507
G1 X42.663 Y217.729 E7.84361
G1 X43.27 Y218.111 E7.86746
G1 X44.095 Y218.548 E7.89851
G1 X45.716 Y219.315 E7.95816
G1 X46.698 Y219.756 E7.99396
G1 X47.295 Y220 E8.01541
G1 F1500 E1.51541
G0 F6000 X44.815 Y197.645
G0 X44.637 Y195.62
G0 X46.027 Y23.092
G0 X46.762 Y0.00
G1 F1500 E8.01541
G1 F900 X45.514 Y0.599 E8.06146
G1 X44.995 Y0.87 E8.08093
G1 X44.226 Y1.343 E8.11096
G1 X43.648 Y1.735 E8.13419
G1 X42.624 Y2.451 E8.17574
G1 X41.79 Y3.055 E8.20999
G1 X41.243 Y3.481 E8.23305
G1 X40.573 Y4.087 E8.2631
G1 X39.275 Y5.372 E8.32385
G1 X38.581 Y6.084 E8.35692
G1 X38.108 Y6.606 E8.38035
G1 X37.553 Y7.319 E8.4104
G1 X36.545 Y8.742 E8.4684
G1 X35.899 Y9.692 E8.50661
G1 X35.525 Y10.287 E8.52999
G1 X35.103 Y11.086 E8.56004
G1 X34.344 Y12.691 E8.61909
G1 X33.904 Y13.672 E8.65485
G1 X33.639 Y14.323 E8.67823
G1 X33.363 Y15.183 E8.70827
G1 X32.905 Y16.858 E8.76602
G1 X32.63 Y17.947 E8.80338
G1 X32.502 Y18.526 E8.8231
G1 X32.37 Y19.42 E8.85316
G1 X32.305 Y20.051 E8.87426
G1 X32.179 Y21.504 E8.92277
G1 X32.117 Y22.377 E8.95188
G1 X32.091 Y23.039 E8.97391
G1 X32.125 Y23.971 E9.00493
G1 X32.272 Y25.768 E9.0649
G1 X32.379 Y26.815 E9.0999
G1 X32.473 Y27.498 E9.12283
G1 X32.662 Y28.381 E9.15287
G1 X33.103 Y30.07 E9.21093
G1 X33.407 Y31.147 E9.24815
G1 X33.613 Y31.79 E9.27061
G1 X33.965 Y32.656 E9.3017
G1 X34.712 Y34.281 E9.36118
G1 X36.271 Y37.809 E9.48947
G1 X37.194 Y40.111 E9.57196
G1 X38.063 Y42.47 E9.65558
G1 X38.872 Y44.876 E9.74
G1 X39.622 Y47.33 E9.82535
G1 X40.286 Y49.744 E9.90862
G1 X40.889 Y52.214 E9.99319
G1 X41.411 Y54.636 E10.07559
G1 X41.876 Y57.15 E10.16063
G1 X42.267 Y59.652 E10.24485
G1 X42.389 Y60.612 E10.27704
G1 X42.524 Y61.565 E10.30905
G1 X42.724 Y62.586 E10.34366
G1 X42.989 Y63.488 E10.37493
G1 X43.333 Y64.361 E10.40613
G1 X43.752 Y65.201 E10.43736
G1 X44.357 Y66.284 E10.47862
G1 X45.918 Y69.201 E10.58865
G1 X47.049 Y71.487 E10.67348
G1 X48.098 Y73.763 E10.75684
G1 X49.088 Y76.088 E10.84089
G1 X50.004 Y78.416 E10.92409
G1 X50.865 Y80.802 E11.00846
G1 X51.663 Y83.229 E11.09343
G1 X52.379 Y85.628 E11.1767
G1 X53.037 Y88.085 E11.2613
G1 X53.626 Y90.565 E11.34608
G1 X54.134 Y93.013 E11.42924
G1 X54.578 Y95.497 E11.51317
G1 X54.956 Y98.026 E11.59822
G1 X55.255 Y100.502 E11.68117
G1 X55.486 Y103.007 E11.76484
G1 X55.647 Y105.557 E11.84982
G1 X55.737 Y108.085 E11.93395
G1 X55.754 Y110.605 E12.01777
G1 X55.699 Y113.166 E12.10297
G1 X55.577 Y115.638 E12.18529
G1 X55.378 Y118.186 E12.27029
G1 X55.111 Y120.699 E12.35435
G1 X54.768 Y123.229 E12.43926
G1 X54.362 Y125.702 E12.52262
G1 X53.886 Y128.162 E12.60596
G1 X53.332 Y130.647 E12.69064
G1 X52.708 Y133.117 E12.77537
G1 X52.031 Y135.514 E12.85821
G1 X51.255 Y137.982 E12.94426
G1 X50.439 Y140.342 E13.02731
G1 X49.553 Y142.693 E13.11088
G1 X48.597 Y145.023 E13.19464
G1 X47.551 Y147.384 E13.28053
G1 X46.48 Y149.626 E13.36317
G1 X45.317 Y151.893 E13.44792
G1 X43.721 Y154.796 E13.5581
G1 X43.175 Y155.95 E13.60056
G1 X42.862 Y156.841 E13.63197
G1 X42.631 Y157.751 E13.6632
G1 X41.81 Y161.744 E13.79878
G1 X41.219 Y164.179 E13.88212
G1 X40.554 Y166.615 E13.96611
G1 X39.826 Y169.014 E14.0495
G1 X39.019 Y171.427 E14.13412
G1 X38.157 Y173.779 E14.21744
G1 X37.199 Y176.182 E14.30348
G1 X36.218 Y178.454 E14.38579
G1 X35.142 Y180.762 E14.47049
G1 X33.84 Y183.354 E14.56696
G1 X32.98 Y185.164 E14.63361
G1 X32.515 Y186.2 E14.67138
G1 X32.248 Y186.856 E14.69494
G1 X31.972 Y187.716 E14.72498
G1 X31.449 Y189.637 E14.7912
G1 X31.243 Y190.457 E14.81932
G1 X31.101 Y191.114 E14.84167
G1 X30.972 Y192.037 E14.87267
G1 X30.811 Y193.761 E14.93026
G1 X30.727 Y194.905 E14.96841
G1 X30.701 Y195.568 E14.99048
G1 X30.735 Y196.501 E15.02153
G1 X30.879 Y198.263 E15.08033
G1 X30.99 Y199.349 E15.11664
G1 X31.085 Y200.032 E15.13958
G1 X31.275 Y200.915 E15.16962
G1 X31.717 Y202.605 E15.22772
G1 X32.018 Y203.673 E15.26462
G1 X32.227 Y204.328 E15.28749
G1 X32.579 Y205.193 E15.31855
G1 X33.313 Y206.788 E15.37695
G1 X33.797 Y207.787 E15.41387
G1 X34.051 Y208.274 E15.43214
G1 X34.538 Y209.068 E15.46312
G1 X34.929 Y209.645 E15.4863
G1 X35.646 Y210.671 E15.52793
G1 X36.25 Y211.506 E15.56221
G1 X36.677 Y212.054 E15.58532
G1 X37.283 Y212.724 E15.61537
G1 X38.568 Y214.022 E15.67611
G1 X39.279 Y214.715 E15.70914
G1 X39.777 Y215.167 E15.73151
G1 X40.512 Y215.741 E15.76252
G1 X41.936 Y216.751 E15.82059
G1 X42.888 Y217.398 E15.85887
G1 X43.483 Y217.772 E15.88225
G1 X44.282 Y218.194 E15.9123
G1 X45.887 Y218.953 E15.97135
G1 X46.862 Y219.391 E16.0069
G1 X47.489 Y219.648 E16.02944
G1 X48.379 Y219.935 E16.06054
G1 X48.617 Y220 E16.06875
G1 F1500 E9.56875
G0 F6000 X44.815 Y197.645
G0 X44.637 Y195.62
G0 X46.027 Y23.092
G0 X47.723 Y0.00
G1 F1500 E16.06875
G1 F900 X46.672 Y0.482 E16.10721
G1 X45.688 Y0.959 E16.14358
G1 X45.205 Y1.211 E16.1617
G1 X44.436 Y1.684 E16.19172
G1 X43.873 Y2.066 E16.21435
G1 X42.853 Y2.779 E16.25575
G1 X42.025 Y3.379 E16.28976
G1 X41.511 Y3.778 E16.3114
G1 X40.841 Y4.384 E16.34144
G1 X39.556 Y5.656 E16.40158
G1 X38.868 Y6.363 E16.43439
G1 X38.424 Y6.852 E16.45636
G1 X37.869 Y7.565 E16.48641
G1 X36.871 Y8.973 E16.54381
G1 X36.23 Y9.917 E16.58177
G1 X35.879 Y10.474 E16.60366
G1 X35.457 Y11.273 E16.63372
G1 X34.706 Y12.862 E16.69217
G1 X34.269 Y13.836 E16.72768
G1 X34.02 Y14.445 E16.74956
G1 X33.744 Y15.305 E16.7796
G1 X33.291 Y16.963 E16.83677
G1 X33.018 Y18.045 E16.87389
G1 X32.898 Y18.584 E16.89225
G1 X32.766 Y19.478 E16.92231
G1 X32.703 Y20.092 E16.94284
G1 X32.577 Y21.539 E16.99115
G1 X32.516 Y22.405 E17.02002
G1 X32.491 Y23.054 E17.04162
G1 X32.525 Y23.956 E17.07165
G1 X32.671 Y25.735 E17.13101
G1 X32.777 Y26.774 E17.16575
G1 X32.864 Y27.414 E17.18723
G1 X33.053 Y28.297 E17.21727
G1 X33.49 Y29.969 E17.27475
G1 X33.792 Y31.038 E17.31169
G1 X33.994 Y31.668 E17.3337
G1 X34.335 Y32.505 E17.36376
G1 X35.077 Y34.119 E17.42284
G1 X36.637 Y37.647 E17.55114
G1 X37.569 Y39.973 E17.63448
G1 X38.442 Y42.342 E17.71846
G1 X39.255 Y44.759 E17.80327
G1 X40.008 Y47.224 E17.889
G1 X40.675 Y49.649 E17.97265
G1 X41.278 Y52.119 E18.05722
G1 X41.804 Y54.563 E18.14036
G1 X42.271 Y57.088 E18.22577
G1 X42.664 Y59.602 E18.3104
G1 X42.786 Y60.562 E18.34259
G1 X42.917 Y61.488 E18.37369
G1 X43.117 Y62.509 E18.4083
G1 X43.373 Y63.375 E18.43833
G1 X43.705 Y64.214 E18.46834
G1 X44.11 Y65.022 E18.49841
G1 X44.709 Y66.095 E18.53928
G1 X46.277 Y69.024 E18.64978
G1 X47.408 Y71.31 E18.73461
G1 X48.466 Y73.606 E18.81869
G1 X49.456 Y75.931 E18.90274
G1 X50.38 Y78.28 E18.98669
G1 X51.245 Y80.677 E19.07145
G1 X52.043 Y83.104 E19.15642
G1 X52.765 Y85.525 E19.24045
G1 X53.426 Y87.993 E19.32543
G1 X54.018 Y90.484 E19.41059
G1 X54.528 Y92.943 E19.49412
G1 X54.974 Y95.438 E19.57842
G1 X55.352 Y97.967 E19.66347
G1 X55.653 Y100.465 E19.74715
G1 X55.885 Y102.982 E19.83122
G1 X56.047 Y105.543 E19.91657
G1 X56.137 Y108.082 E20.00107
G1 X56.154 Y110.614 E20.08529
G1 X56.099 Y113.186 E20.17085
G1 X55.976 Y115.669 E20.25354
G1 X55.776 Y118.228 E20.33891
G1 X55.509 Y120.741 E20.42296
G1 X55.163 Y123.294 E20.50865
G1 X54.755 Y125.778 E20.59238
G1 X54.279 Y128.238 E20.67572
G1 X53.72 Y130.745 E20.76115
G1 X53.093 Y133.226 E20.84626
G1 X52.413 Y135.634 E20.92948
G1 X51.637 Y138.102 E21.01553
G1 X50.817 Y140.473 E21.09897
G1 X49.923 Y142.845 E21.18328
G1 X48.963 Y145.185 E21.26741
G1 X47.917 Y147.546 E21.3533
G1 X46.836 Y149.809 E21.43671
G1 X45.668 Y152.086 E21.52183
G1 X44.072 Y154.989 E21.63201
G1 X43.537 Y156.121 E21.67365
G1 X43.24 Y156.973 E21.70366
G1 X43.019 Y157.849 E21.73371
G1 X42.199 Y161.838 E21.86916
G1 X41.605 Y164.284 E21.95288
G1 X40.937 Y166.731 E22.03725
G1 X40.209 Y169.13 E22.12063
G1 X39.394 Y171.565 E22.20603
G1 X38.529 Y173.927 E22.2897
G1 X37.571 Y176.33 E22.37574
G1 X36.581 Y178.623 E22.45881
G1 X35.505 Y180.931 E22.54351
G1 X34.197 Y183.534 E22.6404
G1 X33.341 Y185.336 E22.70675
G1 X32.88 Y186.364 E22.74422
G1 X32.629 Y186.978 E22.76628
G1 X32.353 Y187.838 E22.79633
G1 X31.835 Y189.742 E22.86195
G1 X31.631 Y190.554 E22.8898
G1 X31.492 Y191.198 E22.91171
G1 X31.368 Y192.092 E22.94173
G1 X31.209 Y193.798 E22.99872
G1 X31.126 Y194.934 E23.03661
G1 X31.101 Y195.583 E23.05821
G1 X31.135 Y196.486 E23.08826
G1 X31.278 Y198.23 E23.14646
G1 X31.388 Y199.308 E23.1825
G1 X31.476 Y199.948 E23.20399
G1 X31.666 Y200.831 E23.23403
G1 X32.104 Y202.504 E23.29155
G1 X32.403 Y203.565 E23.32821
G1 X32.608 Y204.206 E23.3506
G1 X32.949 Y205.042 E23.38063
G1 X33.676 Y206.621 E23.43844
G1 X34.157 Y207.612 E23.47508
G1 X34.406 Y208.089 E23.49298
G1 X34.879 Y208.859 E23.52303
G1 X35.26 Y209.421 E23.54562
G1 X35.974 Y210.442 E23.58706
G1 X36.574 Y211.271 E23.62109
G1 X36.974 Y211.786 E23.64278
G1 X37.58 Y212.456 E23.67283
G1 X38.852 Y213.741 E23.73297
G1 X39.558 Y214.428 E23.76573
G1 X40.046 Y214.871 E23.78765
G1 X40.758 Y215.426 E23.81768
G1 X42.167 Y216.425 E23.87513
G1 X43.113 Y217.067 E23.91315
G1 X43.67 Y217.418 E23.93505
G1 X44.469 Y217.84 E23.9651
G1 X46.058 Y218.591 E24.02356
G1 X47.026 Y219.026 E24.05885
G1 X47.641 Y219.278 E24.08096
G1 X48.501 Y219.554 E24.111
G1 X50.134 Y220 E24.1673
G1 F1500 E17.6673
G0 F6000 X64.611 Y220
G1 F1500 E24.1673
G1 F900 X66.284 Y219.858 E24.22315
G1 X68.845 Y219.713 E24.30846
G1 X71.379 Y219.641 E24.39278
G1 X73.911 Y219.641 E24.47699
G1 X76.445 Y219.713 E24.56131
G1 X78.996 Y219.857 E24.64629
G1 X80.749 Y220 E24.70479
G1 F1500 E18.20479
G0 F6000 X142.93 Y220
G1 F1500 E24.70479
G1 F900 X145.377 Y219.414 E24.78848
G1 X147.805 Y218.921 E24.87088
G1 X150.288 Y218.489 E24.95471
G1 X152.759 Y218.13 E25.03776
G1 X155.288 Y217.835 E25.12244
G1 X157.792 Y217.615 E25.20605
G1 X160.279 Y217.469 E25.28891
G1 X162.818 Y217.39 E25.37339
G1 X165.426 Y217.383 E25.46014
G1 X165.935 Y217.389 E25.47707
G1 X166.919 Y217.356 E25.50981
G1 X168.992 Y217.186 E25.57899
G1 X169.839 Y217.098 E25.60732
G1 X170.574 Y216.995 E25.632
G1 X171.457 Y216.806 E25.66204
G1 X173.203 Y216.35 E25.72206
G1 X174.247 Y216.055 E25.75814
G1 X174.952 Y215.828 E25.78277
G1 X175.789 Y215.488 E25.81282
G1 X177.449 Y214.724 E25.8736
G1 X178.418 Y214.255 E25.9094
G1 X178.965 Y213.968 E25.92995
G1 X179.734 Y213.495 E25.95998
G1 X180.487 Y212.984 E25.99025
G1 X181.371 Y212.365 E26.02614
G1 X182.193 Y211.77 E26.05989
G1 X182.782 Y211.311 E26.08473
G1 X183.452 Y210.705 E26.11477
G1 X184.723 Y209.447 E26.17425
G1 X185.475 Y208.676 E26.21007
G1 X185.956 Y208.145 E26.2339
G1 X186.53 Y207.408 E26.26497
G1 X187.568 Y205.942 E26.32472
G1 X188.189 Y205.03 E26.36142
G1 X188.586 Y204.398 E26.38624
G1 X189.007 Y203.6 E26.41625
G1 X189.871 Y201.769 E26.48359
G1 X190.217 Y200.992 E26.51188
G1 X190.497 Y200.304 E26.53658
G1 X190.774 Y199.444 E26.56663
G1 X191.245 Y197.726 E26.62588
G1 X191.517 Y196.65 E26.6628
G1 X191.663 Y195.98 E26.6856
G1 X191.796 Y195.024 E26.71771
G1 X191.963 Y193.228 E26.7777
G1 X192.042 Y192.143 E26.81388
G1 X192.069 Y191.474 E26.83615
G1 X192.035 Y190.509 E26.86827
G1 X191.886 Y188.678 E26.92937
G1 X191.779 Y187.632 E26.96434
G1 X191.676 Y186.895 E26.98909
G1 X191.486 Y186.012 E27.01913
G1 X191.045 Y184.328 E27.07703
G1 X190.735 Y183.233 E27.11488
G1 X190.509 Y182.53 E27.13944
G1 X190.169 Y181.694 E27.16946
G1 X189.42 Y180.06 E27.22924
G1 X188.935 Y179.061 E27.26618
