;FLAVOR:Marlin
;TIME:9383
;Filament used: 9.58184m
;Layer height: 0.32
;MINX:0
;MINY:3.923
;MINZ:0.32
;MAXX:220
;MAXY:216.079
;MAXZ:25.16
;TARGET_MACHINE.NAME:Creality Ender-3 Pro
;Generated with Cura_SteamEngine 5.5.0
M82 ;absolute extrusion mode
; Ender 3 Custom Start G-code
G92 E0 ; Reset Extruder
G28 ; Home all axes
G1 Z5.0 F3000 ; Move Z Axis up a bit during heating to not damage bed
M104 S120 ; Start heating up the nozzle most of the way
M190 S70 ; Start heating the bed, wait until target temperature reached
M109 S235.0 ; Finish heating the nozzle
G1 Z2.0 F3000 ; Move Z Axis up little to prevent scratching of Heat Bed
G1 X0.1 Y20 Z0.3 F5000.0 ; Move to start position
G1 X0.1 Y200.0 Z0.3 F1500.0 E15 ; Draw the first line
G1 X0.4 Y200.0 Z0.3 F5000.0 ; Move to side a little
G1 X0.4 Y20 Z0.3 F1500.0 E30 ; Draw the second line
G92 E0 ; Reset Extruder
G1 Z2.0 F3000 ; Move Z Axis up little to prevent scratching of Heat Bed
G1 X5 Y20 Z0.3 F5000.0 ; Move over to prevent blob squish
G92 E0
G92 E0
G1 F1500 E-6.5
;LAYER_COUNT:78
;LAYER:0
M107
G1 F300 Z0.52
G0 F6000 X0.00 Y54.507 Z0.52
;TYPE:SKIRT
G1 F300 Z0.32
G1 F1500 E0
G1 F900 X27.214 Y7.372 E5.79281
G1 X27.594 Y6.739 E5.87139
G1 X27.997 Y6.164 E5.94612
G1 X28.539 Y5.602 E6.02922
G1 X29.29 Y5.06 E6.12779
G1 X30.045 Y4.611 E6.22129
G1 X30.672 Y4.297 E6.29592
G1 X31.434 Y4.054 E6.38105
G1 X32.413 Y3.934 E6.48602
G1 X32.8 Y3.924 E6.52723
G1 X88.227 Y3.923 E12.42646
G1 X89.054 Y3.939 E12.51449
G1 X89.683 Y3.997 E12.58172
G1 X90.451 Y4.189 E12.66598
G1 X91.165 Y4.5 E12.74887
G1 X91.661 Y4.769 E12.80892
G1 X92.116 Y5.042 E12.8654
G1 X92.71 Y5.463 E12.94289
G1 X93.027 Y5.744 E12.98797
G1 X95.504 Y8.197 E13.359
G1 X97.481 Y10.041 E13.64674
G1 X99.49 Y11.81 E13.93165
G1 X101.571 Y13.541 E14.21974
G1 X103.68 Y15.196 E14.50507
G1 X105.797 Y16.764 E14.78546
G1 X108.024 Y18.318 E15.07449
G1 X110.294 Y19.807 E15.36343
G1 X112.553 Y21.2 E15.64589
G1 X114.907 Y22.56 E15.93524
G1 X117.296 Y23.852 E16.22431
G1 X119.656 Y25.044 E16.50572
G1 X122.109 Y26.196 E16.79415
G1 X124.532 Y27.251 E17.07542
G1 X127.051 Y28.265 E17.36443
G1 X129.566 Y29.196 E17.64986
G1 X132.094 Y30.051 E17.93389
G1 X134.71 Y30.854 E18.22514
G1 X137.236 Y31.552 E18.50407
G1 X139.922 Y32.212 E18.79845
G1 X142.536 Y32.778 E19.08311
G1 X145.124 Y33.262 E19.36333
G1 X147.83 Y33.687 E19.65487
G1 X150.451 Y34.025 E19.93614
G1 X153.146 Y34.295 E20.22441
G1 X155.829 Y34.487 E20.5107
G1 X158.479 Y34.602 E20.79301
G1 X161.341 Y34.643 E21.09765
G1 X186.78 Y34.643 E23.80519
G1 X187.605 Y34.66 E23.89301
G1 X188.244 Y34.719 E23.96131
G1 X188.994 Y34.907 E24.0436
G1 X189.772 Y35.249 E24.13406
G1 X190.168 Y35.467 E24.18217
G1 X190.73 Y35.806 E24.25202
G1 X191.256 Y36.177 E24.32053
G1 X191.819 Y36.718 E24.40363
G1 X192.311 Y37.392 E24.49245
G1 X192.936 Y38.422 E24.62068
G1 X220 Y85.298 E30.38163
G1 F1500 E23.88163
G1 F300 Z0.52
G0 F6000 X0.00 Y56.139 Z0.52
G1 F300 Z0.32
G1 F1500 E30.38163
G1 F900 X0.261 Y55.655 E30.44016
G1 X27.9 Y7.784 E36.32342
G1 X28.28 Y7.151 E36.402
G1 X28.617 Y6.673 E36.46425
G1 X29.066 Y6.208 E36.53305
G1 X29.7 Y5.747 E36.61648
G1 X30.403 Y5.327 E36.70364
G1 X30.979 Y5.039 E36.77218
G1 X31.603 Y4.84 E36.84189
G1 X32.435 Y4.734 E36.93115
G1 X32.8 Y4.724 E36.97002
G1 X88.213 Y4.723 E42.86776
G1 X88.98 Y4.736 E42.9494
G1 X89.554 Y4.789 E43.01075
G1 X90.192 Y4.948 E43.08073
G1 X90.845 Y5.233 E43.15657
G1 X91.249 Y5.455 E43.20563
G1 X91.704 Y5.728 E43.2621
G1 X92.179 Y6.062 E43.32391
G1 X92.496 Y6.343 E43.36899
G1 X94.958 Y8.782 E43.73784
G1 X96.936 Y10.627 E44.02573
G1 X98.978 Y12.425 E44.31531
G1 X101.059 Y14.156 E44.6034
G1 X103.204 Y15.839 E44.89359
G1 X105.339 Y17.42 E45.17634
G1 X107.585 Y18.987 E45.46782
G1 X109.862 Y20.481 E45.75767
G1 X112.145 Y21.888 E46.0431
G1 X114.526 Y23.264 E46.33579
G1 X116.915 Y24.556 E46.62486
G1 X119.299 Y25.76 E46.90911
G1 X121.769 Y26.92 E47.19955
G1 X124.233 Y27.993 E47.48559
G1 X126.759 Y29.01 E47.77541
G1 X129.31 Y29.954 E48.06491
G1 X131.859 Y30.816 E48.3513
G1 X134.475 Y31.619 E48.64255
G1 X137.045 Y32.329 E48.92632
G1 X139.739 Y32.991 E49.22158
G1 X142.367 Y33.56 E49.50777
G1 X144.99 Y34.05 E49.79177
G1 X147.712 Y34.478 E50.08504
G1 X150.371 Y34.821 E50.37039
G1 X153.078 Y35.092 E50.65994
G1 X155.774 Y35.285 E50.94762
G1 X158.467 Y35.402 E51.23451
G1 X161.33 Y35.443 E51.53926
G1 X186.765 Y35.443 E54.24637
G1 X187.532 Y35.457 E54.32801
G1 X188.11 Y35.51 E54.38979
G1 X188.738 Y35.668 E54.45871
G1 X189.388 Y35.951 E54.53416
G1 X189.757 Y36.153 E54.57894
G1 X190.269 Y36.46 E54.64248
G1 X190.743 Y36.794 E54.70419
G1 X191.216 Y37.249 E54.77405
G1 X191.665 Y37.864 E54.85509
G1 X192.243 Y38.822 E54.97417
G1 X219.569 Y86.15 E60.79073
G1 X219.935 Y86.809 E60.87096
G1 X220 Y86.949 E60.88739
G1 F1500 E54.38739
G1 F300 Z0.52
G0 F6000 X28.587 Y8.194 Z0.52
G1 F300 Z0.32
G1 F1500 E60.88739
G1 F900 X28.934 Y7.612 E60.95951
G1 X29.234 Y7.186 E61.01496
G1 X29.596 Y6.811 E61.07044
G1 X30.11 Y6.434 E61.13828
G1 X30.813 Y6.014 E61.22544
G1 X31.28 Y5.782 E61.28094
G1 X31.776 Y5.624 E61.33634
G1 X32.458 Y5.534 E61.40956
G1 X32.8 Y5.524 E61.44598
G1 X88.202 Y5.523 E67.34255
G1 X88.906 Y5.533 E67.41748
G1 X89.425 Y5.581 E67.47296
G1 X89.931 Y5.707 E67.52845
G1 X90.461 Y5.935 E67.58986
G1 X90.837 Y6.141 E67.63549
G1 X91.292 Y6.414 E67.69197
G1 X91.717 Y6.715 E67.7474
G1 X91.957 Y6.934 E67.78198
G1 X92.455 Y7.436 E67.85724
G1 X94.412 Y9.367 E68.14985
G1 X96.391 Y11.213 E68.43789
G1 X98.466 Y13.04 E68.73214
G1 X100.547 Y14.771 E69.02024
G1 X102.728 Y16.482 E69.31528
G1 X104.881 Y18.076 E69.60039
G1 X107.146 Y19.656 E69.89432
G1 X109.43 Y21.155 E70.18509
G1 X111.737 Y22.576 E70.47347
G1 X114.145 Y23.968 E70.7695
G1 X116.534 Y25.26 E71.05857
G1 X118.959 Y26.484 E71.34768
G1 X121.429 Y27.644 E71.63812
G1 X123.934 Y28.735 E71.92892
G1 X126.467 Y29.755 E72.21955
G1 X129.054 Y30.712 E72.51313
G1 X131.624 Y31.581 E72.80187
G1 X134.24 Y32.384 E73.09312
G1 X136.854 Y33.106 E73.38175
G1 X139.556 Y33.77 E73.67789
G1 X142.198 Y34.342 E73.9656
G1 X144.856 Y34.838 E74.25338
G1 X147.594 Y35.269 E74.54838
G1 X150.291 Y35.617 E74.83781
G1 X153.01 Y35.889 E75.12864
G1 X155.719 Y36.083 E75.41771
G1 X158.454 Y36.202 E75.70907
G1 X161.319 Y36.243 E76.01403
G1 X186.753 Y36.243 E78.72104
G1 X187.458 Y36.254 E78.79608
G1 X187.977 Y36.302 E78.85156
G1 X188.482 Y36.429 E78.90698
G1 X189.004 Y36.653 E78.96743
G1 X189.373 Y36.855 E79.01221
G1 X189.808 Y37.114 E79.06609
G1 X190.234 Y37.414 E79.12155
G1 X190.61 Y37.776 E79.1771
G1 X190.98 Y38.278 E79.24347
G1 X191.55 Y39.222 E79.36084
G1 X218.871 Y86.541 E85.1763
G1 X219.209 Y87.145 E85.24997
G1 X219.428 Y87.618 E85.30544
G1 X219.572 Y88.118 E85.36082
G1 X219.64 Y88.685 E85.4216
G1 X219.651 Y89.116 E85.46749
G1 X219.642 Y89.659 E85.52529
G1 X219.593 Y90.178 E85.58077
G1 X219.466 Y90.684 E85.6363
G1 X219.235 Y91.215 E85.69793
G1 X219.005 Y91.639 E85.74927
G1 X191.37 Y139.505 E91.63186
G1 X191.022 Y140.086 E91.70394
G1 X190.721 Y140.511 E91.75937
G1 X190.358 Y140.886 E91.81492
G1 X189.848 Y141.258 E91.88211
G1 X189.138 Y141.682 E91.97012
G1 X188.672 Y141.914 E92.02553
G1 X188.388 Y142.015 E92.05761
G1 X185.388 Y142.931 E92.39146
G1 X182.834 Y143.796 E92.67846
G1 X180.258 Y144.749 E92.97079
G1 X177.687 Y145.785 E93.2658
G1 X175.226 Y146.859 E93.55159
G1 X172.754 Y148.021 E93.84231
G1 X170.288 Y149.267 E94.13637
G1 X167.915 Y150.551 E94.42354
G1 X165.537 Y151.927 E94.71595
G1 X163.208 Y153.363 E95.00716
G1 X160.915 Y154.868 E95.29909
G1 X158.684 Y156.427 E95.58877
G1 X156.5 Y158.043 E95.87793
G1 X154.335 Y159.744 E96.17097
G1 X152.251 Y161.479 E96.45958
G1 X150.203 Y163.285 E96.7502
G1 X148.179 Y165.172 E97.04472
G1 X146.259 Y167.065 E97.33169
G1 X144.36 Y169.05 E97.62407
G1 X142.537 Y171.065 E97.91327
G1 X140.745 Y173.163 E98.20693
G1 X139.035 Y175.281 E98.49666
G1 X137.377 Y177.463 E98.78833
G1 X135.796 Y179.667 E99.07702
G1 X134.256 Y181.948 E99.36994
G1 X132.823 Y184.205 E99.65449
G1 X131.399 Y186.594 E99.9505
G1 X116.843 Y211.806 E103.04898
G1 X116.496 Y212.389 E103.12119
G1 X116.196 Y212.815 E103.17665
G1 X115.834 Y213.19 E103.23212
G1 X115.32 Y213.567 E103.29997
G1 X114.62 Y213.986 E103.3868
G1 X114.154 Y214.219 E103.44225
G1 X113.657 Y214.378 E103.49779
G1 X112.973 Y214.468 E103.57121
G1 X112.628 Y214.478 E103.60795
G1 X57.226 Y214.479 E109.50452
G1 X56.522 Y214.469 E109.57945
G1 X56.003 Y214.421 E109.63493
G1 X55.497 Y214.295 E109.69043
G1 X54.967 Y214.067 E109.75183
G1 X54.601 Y213.867 E109.79623
G1 X54.166 Y213.608 E109.85011
G1 X53.74 Y213.308 E109.90556
G1 X53.364 Y212.946 E109.96111
G1 X52.994 Y212.444 E110.02749
G1 X52.418 Y211.49 E110.1461
G1 X25.09 Y164.158 E115.96313
G1 X24.763 Y163.573 E116.03446
G1 X24.545 Y163.1 E116.08989
G1 X24.401 Y162.599 E116.14537
G1 X24.333 Y162.022 E116.20721
G1 X24.324 Y161.595 E116.25267
G1 X24.335 Y161.04 E116.31175
G1 X24.385 Y160.521 E116.36724
G1 X24.454 Y160.21 E116.40115
G1 X24.661 Y159.453 E116.48468
G1 X25.349 Y156.804 E116.77597
G1 X25.96 Y154.141 E117.06676
G1 X26.496 Y151.467 E117.35703
G1 X26.962 Y148.738 E117.65168
G1 X27.342 Y146.06 E117.93956
G1 X27.646 Y143.368 E118.2279
G1 X27.878 Y140.631 E118.52025
G1 X28.031 Y137.897 E118.81169
G1 X28.108 Y135.155 E119.10365
G1 X28.106 Y132.447 E119.39187
G1 X28.027 Y129.673 E119.68723
G1 X27.876 Y127.025 E119.96952
G1 X27.636 Y124.231 E120.26799
G1 X27.331 Y121.549 E120.55528
G1 X26.943 Y118.832 E120.84739
G1 X26.479 Y116.132 E121.13897
G1 X25.94 Y113.457 E121.4294
G1 X25.338 Y110.843 E121.7149
G1 X24.632 Y108.137 E122.01254
G1 X23.875 Y105.54 E122.30045
G1 X23.04 Y102.946 E122.59049
G1 X22.12 Y100.344 E122.88423
G1 X21.139 Y97.802 E123.17422
G1 X20.089 Y95.296 E123.46341
G1 X18.958 Y92.793 E123.75574
G1 X17.769 Y90.352 E124.04473
G1 X16.499 Y87.918 E124.33693
G1 X15.151 Y85.508 E124.63083
G1 X1.083 Y61.14 E127.62555
G1 X0.743 Y60.527 E127.70016
G1 X0.526 Y60.053 E127.75564
G1 X0.383 Y59.552 E127.81109
G1 X0.317 Y58.975 E127.87291
G1 X0.309 Y58.582 E127.91474
G1 X0.317 Y58.039 E127.97254
G1 X0.365 Y57.52 E128.02802
G1 X0.491 Y57.014 E128.08351
G1 X0.728 Y56.469 E128.14677
G1 X0.954 Y56.055 E128.19697
G1 X28.587 Y8.194 E134.07899
G1 F1500 E127.57899
G1 F300 Z0.52
G0 F6000 X0.00 Y62.465 Z0.52
G1 F300 Z0.32
G1 F1500 E134.07899
G1 F900 X13.755 Y86.29 E137.00701
G1 X15.103 Y88.7 E137.30091
G1 X16.331 Y91.052 E137.5833
G1 X17.5 Y93.451 E137.86734
G1 X18.613 Y95.914 E138.155
G1 X19.663 Y98.42 E138.44419
G1 X20.612 Y100.878 E138.72462
G1 X21.516 Y103.436 E139.01337
G1 X22.351 Y106.03 E139.30341
G1 X23.084 Y108.541 E139.58182
G1 X23.778 Y111.203 E139.87461
G1 X24.38 Y113.817 E140.16011
G1 X24.911 Y116.448 E140.44578
G1 X25.359 Y119.058 E140.72763
G1 X25.741 Y121.729 E141.0148
G1 X26.046 Y124.411 E141.30209
G1 X26.278 Y127.117 E141.59116
G1 X26.427 Y129.719 E141.86855
G1 X26.506 Y132.493 E142.16391
G1 X26.508 Y135.111 E142.44255
G1 X26.433 Y137.807 E142.7296
G1 X26.281 Y140.526 E143.01945
G1 X26.056 Y143.188 E143.30378
G1 X25.752 Y145.872 E143.59127
G1 X25.384 Y148.468 E143.87033
G1 X24.918 Y151.197 E144.16499
G1 X24.4 Y153.783 E144.44569
G1 X23.789 Y156.446 E144.73649
G1 X23.119 Y159.03 E145.0206
G1 X22.911 Y159.787 E145.10416
G1 X22.806 Y160.28 E145.1578
G1 X22.738 Y160.95 E145.22948
G1 X22.724 Y161.563 E145.29474
G1 X22.743 Y162.209 E145.36353
G1 X22.825 Y162.912 E145.43886
G1 X23.041 Y163.661 E145.52182
G1 X23.31 Y164.244 E145.59016
G1 X23.693 Y164.937 E145.67443
G1 X51.032 Y212.29 E151.49399
G1 X51.706 Y213.394 E151.63165
G1 X52.157 Y214.005 E151.71248
G1 X52.718 Y214.545 E151.79536
G1 X53.244 Y214.916 E151.86387
G1 X53.833 Y215.271 E151.93706
G1 X54.199 Y215.471 E151.98145
G1 X54.975 Y215.813 E152.07171
G1 X55.745 Y216.005 E152.15617
G1 X56.374 Y216.063 E152.2234
G1 X57.201 Y216.079 E152.31144
G1 X112.628 Y216.078 E158.21067
G1 X113.018 Y216.068 E158.25219
G1 X114.006 Y215.947 E158.35813
G1 X114.76 Y215.705 E158.44241
G1 X115.335 Y215.418 E158.51081
G1 X116.141 Y214.94 E158.61055
G1 X116.89 Y214.399 E158.70888
G1 X117.433 Y213.838 E158.79198
G1 X117.804 Y213.311 E158.86058
G1 X118.216 Y212.626 E158.94565
G1 X132.773 Y187.414 E162.04419
G1 X134.197 Y185.025 E162.3402
G1 X135.582 Y182.844 E162.61518
G1 X137.122 Y180.563 E162.9081
G1 X138.651 Y178.431 E163.18734
G1 X140.309 Y176.249 E163.47901
G1 X141.961 Y174.203 E163.7589
G1 X143.723 Y172.139 E164.04773
G1 X145.546 Y170.124 E164.33694
G1 X147.383 Y168.205 E164.61968
G1 X149.303 Y166.312 E164.90665
G1 X151.295 Y164.455 E165.1965
G1 X153.275 Y162.709 E165.47747
G1 X155.359 Y160.974 E165.76608
G1 X157.452 Y159.329 E166.04941
G1 X159.6 Y157.739 E166.33385
G1 X161.793 Y156.206 E166.61863
G1 X164.086 Y154.701 E166.91055
G1 X166.377 Y153.289 E167.19698
G1 X168.677 Y151.959 E167.47975
G1 X171.05 Y150.675 E167.76692
G1 X173.476 Y149.449 E168.05622
G1 X175.89 Y148.315 E168.34009
G1 X178.285 Y147.269 E168.61824
G1 X180.842 Y146.239 E168.91164
G1 X183.348 Y145.312 E169.19602
G1 X185.902 Y144.447 E169.48302
G1 X188.888 Y143.535 E169.81532
G1 X189.206 Y143.423 E169.8512
G1 X189.845 Y143.117 E169.92661
G1 X190.666 Y142.633 E170.02804
G1 X191.409 Y142.1 E170.12537
G1 X191.957 Y141.535 E170.20914
G1 X192.328 Y141.01 E170.27756
G1 X192.741 Y140.329 E170.36233
G1 X220 Y93.116 E176.16472
G1 F1500 E169.66472
G1 F300 Z0.52
G0 F6000 X0.00 Y60.822 Z0.52
G1 F300 Z0.32
G1 F1500 E176.16472
G1 F900 X0.043 Y60.915 E176.17563
G1 X0.383 Y61.528 E176.25023
G1 X14.453 Y85.899 E179.24534
G1 X15.801 Y88.309 E179.53924
G1 X17.05 Y90.702 E179.82654
G1 X18.229 Y93.122 E180.11304
G1 X19.351 Y95.605 E180.40304
G1 X20.401 Y98.111 E180.69223
G1 X21.366 Y100.611 E180.97745
G1 X22.278 Y103.191 E181.26869
G1 X23.113 Y105.785 E181.55873
G1 X23.858 Y108.339 E181.84189
G1 X24.558 Y111.023 E182.13711
G1 X25.16 Y113.637 E182.4226
G1 X25.695 Y116.29 E182.71065
G1 X26.151 Y118.945 E182.99737
G1 X26.536 Y121.639 E183.28701
G1 X26.841 Y124.321 E183.5743
G1 X27.077 Y127.071 E183.86807
G1 X27.227 Y129.696 E184.14791
G1 X27.306 Y132.47 E184.44327
G1 X27.308 Y135.133 E184.7267
G1 X27.232 Y137.852 E185.0162
G1 X27.08 Y140.571 E185.30605
G1 X26.851 Y143.278 E185.59519
G1 X26.547 Y145.966 E185.8831
G1 X26.173 Y148.603 E186.16657
G1 X25.707 Y151.332 E186.46123
G1 X25.18 Y153.962 E186.74671
G1 X24.569 Y156.625 E187.03751
G1 X23.89 Y159.242 E187.32526
G1 X23.682 Y159.999 E187.40882
G1 X23.589 Y160.444 E187.4572
G1 X23.535 Y161.024 E187.5192
G1 X23.524 Y161.579 E187.57828
G1 X23.538 Y162.116 E187.63546
G1 X23.613 Y162.755 E187.70393
G1 X23.793 Y163.382 E187.77336
G1 X24.036 Y163.908 E187.83503
G1 X24.392 Y164.548 E187.91298
G1 X51.725 Y211.89 E193.7312
G1 X52.35 Y212.919 E193.85934
G1 X52.759 Y213.474 E193.93271
G1 X53.231 Y213.928 E194.00242
G1 X53.705 Y214.262 E194.06413
G1 X54.217 Y214.569 E194.12767
G1 X54.583 Y214.769 E194.17206
G1 X55.236 Y215.054 E194.24789
G1 X55.874 Y215.213 E194.31788
G1 X56.448 Y215.266 E194.37923
G1 X57.215 Y215.279 E194.46087
G1 X112.628 Y215.278 E200.35861
G1 X112.996 Y215.268 E200.39779
G1 X113.833 Y215.162 E200.48759
G1 X114.459 Y214.961 E200.55757
G1 X114.978 Y214.702 E200.6193
G1 X115.731 Y214.253 E200.71261
G1 X116.364 Y213.793 E200.79589
G1 X116.813 Y213.328 E200.86469
G1 X117.15 Y212.85 E200.92694
G1 X117.53 Y212.215 E201.0057
G1 X132.086 Y187.004 E204.10409
G1 X133.51 Y184.615 E204.4001
G1 X134.919 Y182.396 E204.67987
G1 X136.459 Y180.115 E204.97279
G1 X138.014 Y177.947 E205.25675
G1 X139.672 Y175.765 E205.54842
G1 X141.353 Y173.683 E205.83323
G1 X143.13 Y171.602 E206.12448
G1 X144.953 Y169.587 E206.41368
G1 X146.821 Y167.635 E206.70124
G1 X148.741 Y165.742 E206.98821
G1 X150.749 Y163.87 E207.2804
G1 X152.763 Y162.094 E207.56619
G1 X154.847 Y160.359 E207.8548
G1 X156.976 Y158.686 E208.14299
G1 X159.142 Y157.083 E208.42979
G1 X161.354 Y155.537 E208.71702
G1 X163.647 Y154.032 E209.00894
G1 X165.957 Y152.608 E209.29776
G1 X168.296 Y151.255 E209.58535
G1 X170.669 Y149.971 E209.87252
G1 X173.115 Y148.735 E210.1642
G1 X175.558 Y147.587 E210.4515
G1 X177.986 Y146.527 E210.73347
G1 X180.55 Y145.494 E211.02767
G1 X183.091 Y144.554 E211.31603
G1 X185.645 Y143.689 E211.60303
G1 X188.622 Y142.78 E211.93432
G1 X188.94 Y142.668 E211.9702
