;FLAVOR:Marlin
;TIME:3693
;Filament used: 7.16522m
;Layer height: 0.32
;MINX:45.119
;MINY:80.12
;MINZ:0.4
;MAXX:174.88
;MAXY:139.881
;MAXZ:4.4
;TARGET_MACHINE.NAME:Creality Ender-3 Pro
;Generated with Cura_SteamEngine 5.5.0
M82 ;absolute extrusion mode
; Ender 3 Custom Start G-code
G92 E0 ; Reset Extruder
G28 ; Home all axes
G1 Z5.0 F3000 ; Move Z Axis up a bit during heating to not damage bed
M104 S120 ; Start heating up the nozzle most of the way
M190 S90 ; Start heating the bed, wait until target temperature reached
M109 S235.0 ; Finish heating the nozzle
G1 Z2.0 F3000 ; Move Z Axis up little to prevent scratching of Heat Bed
G1 X0.1 Y20 Z0.3 F5000.0 ; Move to start position
G1 X0.1 Y200.0 Z0.3 F1500.0 E15 ; Draw the first line
G1 X0.4 Y200.0 Z0.3 F5000.0 ; Move to side a little
G1 X0.4 Y20 Z0.3 F1500.0 E30 ; Draw the second line
G92 E0 ; Reset Extruder
G1 Z2.0 F3000 ; Move Z Axis up little to prevent scratching of Heat Bed
G1 X5 Y20 Z0.3 F5000.0 ; Move over to prevent blob squish
G92 E0
G92 E0
G1 F1500 E-6.5
;LAYER_COUNT:11
;LAYER:0
M107
G1 F300 Z1.2
G0 F6000 X47.811 Y80.695 Z1.2
;TYPE:SKIRT
G1 F300 Z0.4
G1 F1500 E0
G1 F900 X48.52 Y80.391 E0.10263
G1 X49.255 Y80.202 E0.2036
G1 X49.98 Y80.132 E0.3005
G1 X50.408 Y80.12 E0.35746
G1 X169.247 Y80.12 E16.16787
G1 X170.067 Y80.136 E16.27698
G1 X170.702 Y80.194 E16.36181
G1 X171.453 Y80.382 E16.46481
G1 X172.158 Y80.679 E16.56659
G1 X172.809 Y81.079 E16.66824
G1 X173.399 Y81.579 E16.77113
G1 X173.898 Y82.159 E16.87292
G1 X174.302 Y82.804 E16.97418
G1 X174.608 Y83.513 E17.07691
G1 X174.799 Y84.257 E17.1791
G1 X174.87 Y84.989 E17.27695
G1 X174.879 Y85.347 E17.32459
G1 X174.88 Y134.208 E23.82508
G1 X174.865 Y135.058 E23.93819
G1 X174.806 Y135.699 E24.02382
G1 X174.626 Y136.432 E24.12424
G1 X174.326 Y137.152 E24.22801
G1 X173.925 Y137.805 E24.32996
G1 X173.433 Y138.386 E24.43125
G1 X172.849 Y138.895 E24.53431
G1 X172.199 Y139.302 E24.63634
G1 X171.501 Y139.602 E24.73742
G1 X170.752 Y139.798 E24.84042
G1 X170.009 Y139.87 E24.93973
G1 X169.645 Y139.879 E24.98818
G1 X50.753 Y139.881 E40.80563
G1 X49.932 Y139.865 E40.91488
G1 X49.297 Y139.807 E40.99971
G1 X48.546 Y139.619 E41.10271
G1 X47.841 Y139.322 E41.20448
G1 X47.19 Y138.922 E41.30614
G1 X46.604 Y138.426 E41.40828
G1 X46.1 Y137.84 E41.51111
G1 X45.695 Y137.195 E41.61243
G1 X45.39 Y136.488 E41.71487
G1 X45.2 Y135.745 E41.8169
G1 X45.129 Y134.992 E41.91752
G1 X45.119 Y134.514 E41.98113
G1 X45.12 Y85.717 E48.47311
G1 X45.136 Y84.932 E48.57757
G1 X45.195 Y84.293 E48.66294
G1 X45.382 Y83.55 E48.76488
G1 X45.68 Y82.842 E48.86707
G1 X46.084 Y82.184 E48.9698
G1 X46.586 Y81.596 E49.07265
G1 X47.158 Y81.102 E49.17321
G1 X47.811 Y80.695 E49.27557
G0 F6000 X48.179 Y81.408
G1 F900 X48.78 Y81.151 E49.36254
G1 X49.397 Y80.992 E49.4473
G1 X50.002 Y80.932 E49.52819
G1 X50.43 Y80.92 E49.58515
G1 X169.233 Y80.92 E65.39077
G1 X169.994 Y80.933 E65.49203
G1 X170.57 Y80.986 E65.56898
G1 X171.201 Y81.144 E65.65552
G1 X171.786 Y81.39 E65.73995
G1 X172.343 Y81.732 E65.82691
G1 X172.829 Y82.144 E65.91167
G1 X173.253 Y82.637 E65.99818
G1 X173.594 Y83.181 E66.0836
G1 X173.848 Y83.769 E66.16881
G1 X174.009 Y84.397 E66.25507
G1 X174.07 Y85.01 E66.33702
G1 X174.079 Y85.347 E66.38187
G1 X174.08 Y134.196 E72.88077
G1 X174.068 Y134.985 E72.98575
G1 X174.015 Y135.566 E73.06337
G1 X173.862 Y136.185 E73.1482
G1 X173.612 Y136.785 E73.23468
G1 X173.274 Y137.336 E73.32067
G1 X172.864 Y137.82 E73.40506
G1 X172.371 Y138.25 E73.4921
G1 X171.825 Y138.592 E73.57781
G1 X171.24 Y138.844 E73.66255
G1 X170.611 Y139.008 E73.74903
G1 X169.988 Y139.07 E73.83233
G1 X169.645 Y139.079 E73.87797
G1 X50.767 Y139.081 E89.69357
G1 X50.005 Y139.068 E89.79496
G1 X49.429 Y139.015 E89.87191
G1 X48.798 Y138.857 E89.95846
G1 X48.213 Y138.611 E90.04289
G1 X47.656 Y138.269 E90.12984
G1 X47.17 Y137.857 E90.21461
G1 X46.747 Y137.366 E90.30083
G1 X46.405 Y136.821 E90.38643
G1 X46.15 Y136.229 E90.47219
G1 X45.99 Y135.605 E90.55789
G1 X45.929 Y134.975 E90.6421
G1 X45.919 Y134.514 E90.70344
G1 X45.92 Y85.731 E97.19356
G1 X45.933 Y85.005 E97.29016
G1 X45.986 Y84.427 E97.36738
G1 X46.143 Y83.803 E97.45299
G1 X46.394 Y83.207 E97.53902
G1 X46.731 Y82.659 E97.62461
G1 X47.154 Y82.163 E97.71134
G1 X47.637 Y81.746 E97.79623
G1 X48.179 Y81.408 E97.88121
G0 F6000 X48.555 Y82.117
G1 F900 X49.034 Y81.912 E97.95053
G1 X49.538 Y81.782 E98.01978
G1 X50.024 Y81.732 E98.08478
G1 X50.452 Y81.72 E98.14174
G1 X169.222 Y81.72 E113.94296
G1 X169.92 Y81.73 E114.03584
G1 X170.439 Y81.778 E114.10518
G1 X170.944 Y81.904 E114.17442
G1 X171.425 Y82.106 E114.24383
G1 X171.869 Y82.379 E114.31317
G1 X172.266 Y82.716 E114.38245
G1 X172.606 Y83.111 E114.45179
G1 X172.883 Y83.553 E114.52119
G1 X173.089 Y84.031 E114.59044
G1 X173.219 Y84.536 E114.65981
G1 X173.27 Y85.033 E114.72628
G1 X173.279 Y85.347 E114.76807
G1 X173.28 Y134.186 E121.26564
G1 X173.271 Y134.913 E121.36237
G1 X173.224 Y135.432 E121.4317
G1 X173.099 Y135.938 E121.50104
G1 X172.898 Y136.419 E121.57039
G1 X172.626 Y136.863 E121.63967
G1 X172.289 Y137.261 E121.70905
G1 X171.896 Y137.603 E121.77836
G1 X171.454 Y137.88 E121.84776
G1 X170.976 Y138.086 E121.91701
G1 X170.471 Y138.218 E121.98645
G1 X169.966 Y138.27 E122.05399
G1 X169.645 Y138.279 E122.09671
G1 X50.778 Y138.281 E137.91084
G1 X50.079 Y138.271 E138.00385
G1 X49.56 Y138.223 E138.07319
G1 X49.055 Y138.097 E138.14243
G1 X48.574 Y137.895 E138.21184
G1 X48.13 Y137.622 E138.28118
G1 X47.733 Y137.285 E138.35046
G1 X47.393 Y136.89 E138.4198
G1 X47.116 Y136.449 E138.48909
G1 X46.91 Y135.97 E138.55846
G1 X46.78 Y135.465 E138.62783
G1 X46.729 Y134.957 E138.69576
G1 X46.719 Y134.514 E138.75471
G1 X46.72 Y85.743 E145.24323
G1 X46.73 Y85.079 E145.33158
G1 X46.778 Y84.56 E145.40092
G1 X46.905 Y84.054 E145.47033
G1 X47.107 Y83.574 E145.53961
G1 X47.38 Y83.13 E145.60895
G1 X47.718 Y82.734 E145.67822
G1 X48.113 Y82.393 E145.74764
G1 X48.555 Y82.117 E145.81697
G1 F1500 E139.31697
G1 F300 Z1.2
;MESH:2025-05-06_SchalterPanel-Deckel.stl
G0 F6000 X77.528 Y92.842 Z1.2
;TYPE:WALL-OUTER
G1 F300 Z0.4
G1 F1500 E145.81697
G1 F849.1 X76.392 Y92.838 E145.97717
G1 F851.1 X76.136 Y92.759 E146.01487
G1 X76.045 Y92.636 E146.03639
G1 X76.005 Y92.369 E146.07438
G1 X76.065 Y92.161 E146.10483
G1 X76.149 Y92.071 E146.12215
G1 X76.349 Y91.993 E146.15235
G1 F849.1 X77.526 Y91.989 E146.31834
G1 F847.1 X77.528 Y92.842 E146.43892
G1 F1500 E139.93892
G1 F300 Z1.2
G0 F6000 X141.825 Y91.323 Z1.2
G1 F300 Z0.4
G1 F1500 E146.43892
G1 F694.3 X141.571 Y91.281 E146.48331
G1 X141.453 Y91.2 E146.508
G1 X141.333 Y91.03 E146.54388
G1 X141.274 Y90.749 E146.5934
G1 F695 X141.247 Y90.27 E146.67606
G1 F696.3 X141.315 Y89.954 E146.73164
G1 X141.416 Y89.743 E146.77186
G1 X141.596 Y89.606 E146.81076
G1 X141.788 Y89.576 E146.84417
G1 X141.957 Y89.634 E146.8749
G1 X142.169 Y89.849 E146.92682
G1 X142.284 Y90.203 E146.99082
G1 F695.7 X142.301 Y90.641 E147.06627
G1 F694.3 X142.25 Y90.896 E147.11112
G1 X142.157 Y91.139 E147.15599
G1 X142.068 Y91.237 E147.17882
G1 X141.825 Y91.323 E147.22327
G1 F1500 E140.72327
G1 F300 Z1.2
G0 F6000 X146.867 Y91.383 Z1.2
G1 F300 Z0.4
G1 F1500 E147.22327
G1 F789.5 X146.497 Y91.381 E147.27939
G1 F1500 E140.77939
G1 F300 Z1.2
G0 F6000 X160.263 Y91.169 Z1.2
G1 F300 Z0.4
G1 F1500 E147.27939
G1 F642.9 X160.192 Y91.29 E147.30552
G1 X160.053 Y91.29 E147.33141
G1 X159.983 Y91.169 E147.35744
G1 X160.054 Y91.048 E147.38357
G1 X160.192 Y91.048 E147.40928
G1 F1500 E140.90928
G1 F300 Z1.2
G0 F6000 X159.915 Y88.355 Z1.2
;TYPE:WALL-INNER
G1 F300 Z0.4
G1 F1500 E147.40928
G1 F743 X160.346 Y88.356 E147.47873
G1 X160.506 Y87.89 E147.55813
G1 X160.805 Y87.508 E147.6363
G1 F754.7 X161.471 Y87.114 E147.75907
G1 F772.5 X161.717 Y87.062 E147.79804
G1 F760.3 X160.611 Y87.085 E147.97225
G1 F743 X159.335 Y87.083 E148.17788
G1 F770.1 X158.524 Y87.052 E148.30407
G1 X159.28 Y87.256 E148.42583
G1 F743 X159.705 Y87.77 E148.5333
G1 X159.915 Y88.355 E148.63346
G1 F1500 E142.13346
G1 F300 Z1.2
G0 F6000 X158.524 Y87.052 Z1.2
G1 F300 Z0.4
G1 F1500 E148.63346
G1 F794.7 X157.78 Y87.055 E148.74556
G1 F799.1 X157.159 Y87.045 E148.83862
G1 F796.5 X156.9 Y87.059 E148.87762
G1 F787.7 X155.397 Y87.045 E149.10608
G1 F738.5 X154.942 Y87.121 E149.18088
G1 F745.3 X154.33 Y87.048 E149.27989
G1 F800 X153.018 Y87.051 E149.47626
G1 F721.4 X152.501 Y87.145 E149.56347
G1 F727.3 X151.794 Y87.045 E149.68103
G1 F809 X150.611 Y87.045 E149.85612
G1 F800.9 X150.395 Y87.054 E149.88844
G1 F1500 E143.38844
G1 F300 Z1.2
G0 F6000 X149.391 Y88.259 Z1.2
G1 F300 Z0.4
G1 F1500 E149.88844
G1 F851.1 X149.449 Y87.903 E149.93919
G1 X149.56 Y87.662 E149.97652
G1 F840.1 X149.962 Y87.239 E150.05969
G1 F810.8 X150.395 Y87.054 E150.12922
G1 X149.904 Y87.034 E150.20179
G1 F840.1 X149.197 Y87.023 E150.30256
G1 F857.1 X147.194 Y87.018 E150.58237
G1 F861.2 X147.759 Y87.127 E150.66237
G1 F855.1 X148.242 Y87.32 E150.7352
G1 F851.1 X148.487 Y87.451 E150.77429
G1 X148.86 Y87.71 E150.83817
G1 X149.154 Y87.979 E150.89424
G1 X149.391 Y88.259 E150.94585
G1 F1500 E144.44585
G1 F300 Z1.2
G0 F6000 X147.194 Y87.018 Z1.2
G1 F300 Z0.4
G1 F1500 E150.94585
G1 F882.4 X146.639 Y86.998 E151.02121
G1 F892.2 X146.287 Y87.008 E151.06847
G1 F847.1 X145.839 Y87.042 E151.13198
G1 F1500 E144.63198
G1 F300 Z1.2
G0 F6000 X142.562 Y87.006 Z1.2
G1 F300 Z0.4
G1 F1500 E151.13198
G1 F910.2 X142.081 Y86.986 E151.19531
G1 F900 X141.405 Y87.013 E151.28531
G1 F808.1 X141.003 Y87.078 E151.34565
G1 F782.6 X140.588 Y87.044 E151.40936
G1 F811.7 X139.595 Y87.045 E151.55584
G1 F801.8 X139.382 Y87.053 E151.58767
G1 F1500 E145.08767
G1 F300 Z1.2
G0 F6000 X142.562 Y87.006 Z1.2
G1 F300 Z0.4
G1 F1500 E151.58767
G1 F893.3 X142.82 Y87.062 E151.62305
G1 F901.1 X143.283 Y87.217 E151.68793
G1 F907.9 X143.734 Y87.462 E151.75562
G1 F911.4 X143.979 Y87.638 E151.79525
G1 X144.291 Y87.935 E151.85184
G1 X144.561 Y87.689 E151.89983
G1 X144.769 Y87.54 E151.93344
G1 F898.9 X145.279 Y87.259 E152.01101
G1 F868.5 X145.794 Y87.04 E152.08816
G1 F880.2 X145.004 Y86.995 E152.1958
G1 F910.2 X143.205 Y86.996 E152.43245
G1 F898.9 X142.562 Y87.006 E152.51811
G1 F1500 E146.01811
G1 F300 Z1.2
G0 F6000 X151.919 Y96.302 Z1.2
G1 F300 Z0.4
G1 F1500 E152.51811
G1 F728 X152.319 Y96.335 E152.58412
G1 F747.7 X153.219 Y96.371 E152.72837
G1 F1500 E146.22837
G1 F300 Z1.2
G0 F6000 X163.02 Y133 Z1.2
G1 F300 Z0.4
G1 F1500 E152.72837
G1 F900 X162.817 Y132.694 E152.77723
G1 X162.544 Y132.03 E152.87274
G1 X162.458 Y131.682 E152.92043
G1 X162.393 Y130.965 E153.01621
G1 X162.414 Y130.607 E153.06392
G1 X162.563 Y129.901 E153.15992
G1 X162.926 Y129.079 E153.27947
G1 X163.521 Y128.381 E153.40149
G1 X164.074 Y127.957 E153.4942
G1 X164.861 Y127.553 E153.61189
G1 X165.674 Y127.413 E153.72164
G1 X166.19 Y127.399 E153.79032
G1 X166.503 Y127.431 E153.83218
G1 X167.186 Y127.594 E153.92559
G1 X167.52 Y127.729 E153.97352
G1 X168 Y128.013 E154.04772
G1 X168 Y91.988 E158.84051
G1 X167.446 Y92.304 E158.92536
G1 X167.111 Y92.43 E158.97298
G1 X166.436 Y92.577 E159.06488
G1 X166.145 Y92.603 E159.10375
G1 X165.538 Y92.585 E159.18454
G1 X164.758 Y92.402 E159.29113
G1 X164.015 Y92.011 E159.40283
G1 X163.763 Y91.834 E159.4438
G1 X163.198 Y91.277 E159.54936
G1 X162.9 Y92.045 E159.65895
G1 X162.565 Y92.961 E159.78871
G1 X162.353 Y93.491 E159.86466
G1 X162.112 Y94.151 E159.95813
G1 X161.831 Y94.865 E160.06022
G1 X161.591 Y95.184 E160.11333
G1 X161.215 Y95.403 E160.17122
G1 X160.882 Y95.487 E160.21691
G1 X159.238 Y95.498 E160.43563
G1 X158.796 Y95.316 E160.49922
G1 X158.581 Y95.145 E160.53577
G1 X158.312 Y94.73 E160.60157
G1 X157.933 Y93.742 E160.74235
G1 X157.934 Y94.285 E160.81459
G1 X157.851 Y94.728 E160.87455
G1 X157.579 Y95.14 E160.94024
G1 X157.362 Y95.309 E160.97683
G1 X157.066 Y95.44 E161.01989
G1 X156.85 Y95.481 E161.04914
G1 X155.55 Y95.483 E161.22209
G1 X155.3 Y95.457 E161.25553
G1 X155.017 Y95.357 E161.29547
G1 X154.691 Y95.119 E161.34917
G1 X154.593 Y95.002 E161.36947
G1 X154.062 Y95.27 E161.4486
G1 X153.482 Y95.465 E161.53001
G1 X153.221 Y95.486 E161.56485
G1 X152.557 Y95.485 E161.65319
G1 X152.067 Y95.404 E161.71926
G1 X151.69 Y95.274 E161.77231
G1 X151.396 Y95.051 E161.82141
G1 X151.204 Y94.787 E161.86484
G1 X151.069 Y94.456 E161.91239
G1 X151.065 Y93.831 E161.99555
G1 X150.555 Y93.82 E162.06341
G1 X150.269 Y93.747 E162.10268
G1 X149.859 Y93.876 E162.15987
G1 X149.563 Y93.934 E162.19999
G1 X148.955 Y93.908 E162.28096
G1 X148.623 Y93.846 E162.32589
G1 X148.417 Y93.755 E162.35585
G1 X148.198 Y93.592 E162.39217
G1 X147.819 Y93.766 E162.44765
G1 X147.165 Y93.918 E162.53698
G1 X146.735 Y93.944 E162.59429
G1 X146.107 Y93.904 E162.67801
G1 X145.634 Y93.789 E162.74277
G1 X145.143 Y93.593 E162.81311
G1 X144.596 Y93.256 E162.89858
G1 X144.313 Y92.975 E162.95164
G1 X143.986 Y93.313 E163.01421
G1 X143.46 Y93.625 E163.09557
G1 X143.016 Y93.804 E163.15926
G1 X142.479 Y93.917 E163.23227
G1 X141.977 Y93.934 E163.2991
G1 X141.976 Y94.441 E163.36655
G1 X141.87 Y94.823 E163.41929
G1 X141.547 Y95.206 E163.48594
G1 X141.225 Y95.401 E163.53603
G1 X140.919 Y95.487 E163.57831
G1 X139.541 Y95.481 E163.76165
G1 X139.146 Y95.395 E163.81543
G1 X138.875 Y95.241 E163.8569
G1 X138.709 Y95.09 E163.88675
G1 X138.546 Y94.861 E163.92415
G1 X138.401 Y94.48 E163.97838
G1 X138.398 Y88.289 E164.80204
G1 X138.49 Y87.827 E164.86471
G1 F887.8 X138.87 Y87.32 E164.95016
G1 F832.4 X139.382 Y87.053 E165.03323
G1 X138.767 Y87.01 E165.12191
G1 F887.8 X137.938 Y87 E165.23373
G1 F900 X120.755 Y87 E167.51976
G1 F852.1 X119.93 Y87.045 E167.63587
G1 X120.642 Y87.334 E167.74385
G1 F900 X121.024 Y87.83 E167.82714
G1 X121.115 Y88.289 E167.88939
G1 X121.117 Y94.48 E168.71305
G1 X120.972 Y94.861 E168.76728
G1 X120.795 Y95.105 E168.80738
G1 X120.583 Y95.283 E168.84421
G1 X120.282 Y95.427 E168.8886
G1 X120.043 Y95.482 E168.92123
G1 X115.709 Y95.484 E169.49783
G1 X115.429 Y95.452 E169.53532
G1 X115.103 Y95.322 E169.58202
G1 F901.1 X114.826 Y95.098 E169.62935
G1 X114.586 Y94.757 E169.68476
G1 F900 X114.512 Y94.384 E169.73535
G1 X114.508 Y93.714 E169.82449
G1 X113.994 Y93.864 E169.89572
G1 X113.483 Y93.939 E169.96443
G1 X112.704 Y93.941 E170.06807
G1 X112.338 Y93.908 E170.11696
G1 X111.857 Y93.826 E170.18188
G1 X111.55 Y93.73 E170.22467
G1 X111.042 Y93.487 E170.29959
G1 X110.52 Y93.026 E170.39224
G1 X110.339 Y93.187 E170.42447
G1 X109.954 Y93.456 E170.48696
G1 X109.438 Y93.715 E170.56377
G1 X109.134 Y93.819 E170.60651
G1 X108.468 Y93.95 E170.69682
G1 X107.814 Y93.938 E170.78384
G1 X107.463 Y93.897 E170.83086
G1 X107.012 Y93.8 E170.89223
G1 X106.563 Y93.63 E170.9561
G1 X106.581 Y94.371 E171.05471
G1 X106.487 Y94.767 E171.10886
G1 X106.263 Y95.087 E171.16083
G1 X105.955 Y95.33 E171.21302
G1 X105.764 Y95.413 E171.24073
G1 X105.38 Y95.477 E171.29252
G1 X104.125 Y95.479 E171.45949
G1 X103.915 Y95.448 E171.48773
G1 X103.581 Y95.313 E171.53566
G1 X103.297 Y95.079 E171.58461
G1 X103.166 Y94.901 E171.61402
G1 X102.994 Y94.519 E171.66975
G1 X102.993 Y93.943 E171.74638
G1 X102.447 Y93.921 E171.81908
G1 X101.957 Y93.843 E171.88509
G1 X101.193 Y93.501 E171.99646
G1 X100.716 Y93.03 E172.08564
G1 X100.541 Y92.784 E172.1258
G1 X100.259 Y92.191 E172.21316
G1 X100.141 Y91.646 E172.28735
G1 X100.099 Y91.135 E172.35556
G1 X100.105 Y88.876 E172.6561
G1 X100.09 Y88.319 E172.73023
G1 X100.172 Y87.85 E172.79358
G1 F888.9 X100.553 Y87.326 E172.88085
G1 F834.3 X101.074 Y87.052 E172.96533
G1 X100.446 Y87.01 E173.05566
G1 F888.9 X99.591 Y87 E173.17084
G1 F900 X80.081 Y87 E175.76646
G1 F853.1 X79.252 Y87.045 E175.88299
G1 X79.973 Y87.326 E175.9916
G1 F900 X80.362 Y87.824 E176.07567
G1 X80.455 Y88.286 E176.13837
G1 X80.463 Y94.386 E176.94992
G1 X80.396 Y94.691 E176.99146
G1 X80.303 Y94.89 E177.02069
G1 X80.084 Y95.179 E177.06893
G1 X79.705 Y95.416 E177.1284
G1 X79.308 Y95.482 E177.18194
G1 X75.755 Y95.479 E177.65463
G1 F901.1 X75.091 Y95.372 E177.744
G1 X74.836 Y95.269 E177.78054
G1 F900 X74.422 Y95.056 E177.84248
G1 X73.819 Y94.584 E177.94436
G1 X73.625 Y94.358 E177.98398
G1 X73.318 Y93.806 E178.06802
G1 X73.223 Y93.507 E178.10976
G1 X72.984 Y93.638 E178.14602
G1 X72.346 Y93.843 E178.23517
G1 X71.687 Y93.95 E178.32399
G1 X71.041 Y93.945 E178.40994
G1 X70.692 Y93.92 E178.45649
