;FLAVOR:Marlin
;TIME:9105
;Filament used: 17.0763m
;Layer height: 0.32
;MINX:45.119
;MINY:80.119
;MINZ:0.4
;MAXX:174.881
;MAXY:139.881
;MAXZ:33.84
;TARGET_MACHINE.NAME:Creality Ender-3 Pro
;Generated with Cura_SteamEngine 5.5.0
M82 ;absolute extrusion mode
; Ender 3 Custom Start G-code
G92 E0 ; Reset Extruder
G28 ; Home all axes
G1 Z5.0 F3000 ; Move Z Axis up a bit during heating to not damage bed
M104 S120 ; Start heating up the nozzle most of the way
M190 S90 ; Start heating the bed, wait until target temperature reached
M109 S235.0 ; Finish heating the nozzle
G1 Z2.0 F3000 ; Move Z Axis up little to prevent scratching of Heat Bed
G1 X0.1 Y20 Z0.3 F5000.0 ; Move to start position
G1 X0.1 Y200.0 Z0.3 F1500.0 E15 ; Draw the first line
G1 X0.4 Y200.0 Z0.3 F5000.0 ; Move to side a little
G1 X0.4 Y20 Z0.3 F1500.0 E30 ; Draw the second line
G92 E0 ; Reset Extruder
G1 Z2.0 F3000 ; Move Z Axis up little to prevent scratching of Heat Bed
G1 X5 Y20 Z0.3 F5000.0 ; Move over to prevent blob squish
G92 E0
G92 E0
G1 F1500 E-6.5
;LAYER_COUNT:103
;LAYER:0
M107
G1 F300 Z1.2
G0 F6000 X47.803 Y80.697 Z1.2
;TYPE:SKIRT
G1 F300 Z0.4
G1 F1500 E0
G1 F900 X48.502 Y80.397 E0.1012
G1 X49.254 Y80.202 E0.20455
G1 X50.008 Y80.13 E0.30532
G1 X50.53 Y80.119 E0.37479
G1 X169.248 Y80.12 E16.16909
G1 X170.067 Y80.136 E16.27807
G1 X170.702 Y80.194 E16.36291
G1 X171.453 Y80.382 E16.4659
G1 X172.158 Y80.679 E16.56768
G1 X172.809 Y81.079 E16.66933
G1 X173.399 Y81.579 E16.77222
G1 X173.898 Y82.159 E16.87401
G1 X174.302 Y82.804 E16.97527
G1 X174.608 Y83.513 E17.078
G1 X174.799 Y84.257 E17.18019
G1 X174.87 Y84.989 E17.27804
G1 X174.879 Y85.347 E17.32568
G1 X174.881 Y134.215 E23.82711
G1 X174.865 Y135.062 E23.93981
G1 X174.808 Y135.698 E24.02476
G1 X174.621 Y136.447 E24.12747
G1 X174.32 Y137.162 E24.23068
G1 X173.921 Y137.812 E24.33215
G1 X173.428 Y138.392 E24.43342
G1 X172.847 Y138.895 E24.53566
G1 X172.191 Y139.305 E24.63858
G1 X171.489 Y139.607 E24.74025
G1 X170.75 Y139.798 E24.8418
G1 X169.991 Y139.87 E24.94323
G1 X169.47 Y139.881 E25.01256
G1 X50.752 Y139.88 E40.80686
G1 X49.932 Y139.864 E40.91598
G1 X49.297 Y139.806 E41.00081
G1 X48.546 Y139.618 E41.10381
G1 X47.841 Y139.321 E41.20558
G1 X47.19 Y138.921 E41.30724
G1 X46.6 Y138.421 E41.41013
G1 X46.101 Y137.841 E41.51192
G1 X45.697 Y137.196 E41.61317
G1 X45.391 Y136.487 E41.71591
G1 X45.2 Y135.745 E41.81784
G1 X45.129 Y134.979 E41.92019
G1 X45.12 Y134.514 E41.98206
G1 X45.119 Y85.74 E48.47098
G1 X45.134 Y84.94 E48.57743
G1 X45.191 Y84.304 E48.66239
G1 X45.379 Y83.552 E48.76551
G1 X45.673 Y82.849 E48.86689
G1 X46.08 Y82.186 E48.97039
G1 X46.572 Y81.607 E49.07147
G1 X47.146 Y81.11 E49.17249
G1 X47.803 Y80.697 E49.27573
G0 F6000 X48.175 Y81.408
G1 F900 X48.764 Y81.155 E49.36101
G1 X49.392 Y80.992 E49.44733
G1 X50.025 Y80.93 E49.53195
G1 X50.53 Y80.919 E49.59915
G1 X169.234 Y80.92 E65.39159
G1 X169.994 Y80.933 E65.49272
G1 X170.57 Y80.986 E65.56968
G1 X171.201 Y81.144 E65.65622
G1 X171.786 Y81.39 E65.74065
G1 X172.343 Y81.732 E65.8276
G1 X172.829 Y82.144 E65.91237
G1 X173.253 Y82.637 E65.99888
G1 X173.594 Y83.181 E66.0843
G1 X173.848 Y83.769 E66.16951
G1 X174.009 Y84.397 E66.25576
G1 X174.07 Y85.01 E66.33772
G1 X174.079 Y85.347 E66.38257
G1 X174.081 Y134.202 E72.88226
G1 X174.068 Y134.99 E72.98711
G1 X174.016 Y135.567 E73.06419
G1 X173.859 Y136.196 E73.15044
G1 X173.609 Y136.79 E73.23618
G1 X173.27 Y137.342 E73.32236
G1 X172.856 Y137.83 E73.4075
G1 X172.37 Y138.25 E73.49296
G1 X171.823 Y138.592 E73.57878
G1 X171.229 Y138.848 E73.66484
G1 X170.608 Y139.008 E73.75015
G1 X169.974 Y139.07 E73.8349
G1 X169.47 Y139.081 E73.90197
G1 X50.766 Y139.08 E89.69442
G1 X50.005 Y139.067 E89.79567
G1 X49.429 Y139.014 E89.87263
G1 X48.798 Y138.856 E89.95917
G1 X48.213 Y138.61 E90.0436
G1 X47.656 Y138.268 E90.13056
G1 X47.17 Y137.856 E90.21532
G1 X46.746 Y137.363 E90.30183
G1 X46.405 Y136.819 E90.38725
G1 X46.151 Y136.231 E90.47246
G1 X45.99 Y135.604 E90.55859
G1 X45.929 Y134.963 E90.64425
G1 X45.92 Y134.514 E90.704
G1 X45.919 Y85.753 E97.19119
G1 X45.931 Y85.012 E97.28978
G1 X45.983 Y84.435 E97.36686
G1 X46.141 Y83.803 E97.45353
G1 X46.387 Y83.214 E97.53845
G1 X46.727 Y82.661 E97.62481
G1 X47.142 Y82.172 E97.71014
G1 X47.626 Y81.753 E97.79531
G1 X48.175 Y81.408 E97.88157
G0 F6000 X48.547 Y82.119
G1 F900 X49.026 Y81.913 E97.95094
G1 X49.53 Y81.782 E98.02022
G1 X50.043 Y81.73 E98.08882
G1 X50.53 Y81.719 E98.15363
G1 X169.223 Y81.72 E113.94461
G1 X169.92 Y81.73 E114.03735
G1 X170.439 Y81.778 E114.10669
G1 X170.944 Y81.904 E114.17594
G1 X171.425 Y82.106 E114.24534
G1 X171.869 Y82.379 E114.31469
G1 X172.266 Y82.716 E114.38397
G1 X172.606 Y83.111 E114.45331
G1 X172.883 Y83.553 E114.5227
G1 X173.089 Y84.031 E114.59195
G1 X173.219 Y84.536 E114.66133
G1 X173.27 Y85.033 E114.72779
G1 X173.279 Y85.347 E114.76959
G1 X173.281 Y134.191 E121.26782
G1 X173.271 Y134.918 E121.36455
G1 X173.224 Y135.437 E121.43388
G1 X173.098 Y135.943 E121.50325
G1 X172.896 Y136.423 E121.57254
G1 X172.623 Y136.867 E121.64188
G1 X172.286 Y137.264 E121.71116
G1 X171.892 Y137.605 E121.78048
G1 X171.45 Y137.882 E121.84988
G1 X170.971 Y138.088 E121.91925
G1 X170.467 Y138.218 E121.9885
G1 X169.956 Y138.27 E122.05683
G1 X169.47 Y138.281 E122.12151
G1 X50.777 Y138.28 E137.91249
G1 X50.079 Y138.27 E138.00536
G1 X49.56 Y138.222 E138.0747
G1 X49.055 Y138.096 E138.14395
G1 X48.574 Y137.894 E138.21335
G1 X48.13 Y137.621 E138.2827
G1 X47.733 Y137.284 E138.35198
G1 X47.393 Y136.889 E138.42131
G1 X47.116 Y136.447 E138.49071
G1 X46.91 Y135.969 E138.55996
G1 X46.78 Y135.464 E138.62934
G1 X46.729 Y134.946 E138.69858
G1 X46.72 Y134.514 E138.75607
G1 X46.719 Y85.764 E145.2418
G1 X46.728 Y85.084 E145.33227
G1 X46.775 Y84.565 E145.4016
G1 X46.901 Y84.059 E145.47098
G1 X47.102 Y83.579 E145.54021
G1 X47.375 Y83.134 E145.60966
G1 X47.712 Y82.737 E145.67895
G1 X48.106 Y82.396 E145.74827
G1 X48.547 Y82.119 E145.81755
G1 F1500 E139.31755
G1 F300 Z1.2
;MESH:2025-05-06_SchalterPanel-Geha??use.stl
G0 F6000 X91.187 Y125.908 Z1.2
;TYPE:WALL-INNER
G1 F300 Z0.4
G1 F1500 E145.81755
G1 F900 X90.859 Y125.987 E145.86244
G1 X90.385 Y126.071 E145.92648
G1 X90.06 Y126.107 E145.96999
G1 X89.456 Y126.064 E146.05055
G1 X89.106 Y126.006 E146.09774
G1 X88.779 Y125.892 E146.14382
G1 X88.38 Y125.712 E146.20205
G1 X88.038 Y125.515 E146.25456
G1 X87.672 Y125.253 E146.31444
G1 X87.468 Y125.085 E146.3496
G1 X87.241 Y124.844 E146.39365
G1 X86.874 Y124.274 E146.48384
G1 X86.724 Y124.009 E146.52435
G1 X86.485 Y123.35 E146.61761
G1 X86.414 Y122.94 E146.67297
G1 X86.412 Y122.079 E146.78752
G1 X86.477 Y121.671 E146.84249
G1 X86.774 Y120.861 E146.95726
G1 X86.985 Y120.497 E147.01324
G1 X87.532 Y119.871 E147.12384
G1 X87.752 Y119.69 E147.16174
G1 X88.312 Y119.312 E147.25163
G1 X88.913 Y119.06 E147.33833
G1 X89.535 Y118.933 E147.42279
G1 X89.841 Y118.904 E147.46368
G1 X90.456 Y118.92 E147.54553
G1 X91.054 Y119.058 E147.62718
G1 X91.325 Y119.156 E147.66551
G1 X91.698 Y119.325 E147.71999
G1 X91.914 Y119.451 E147.75326
G1 X92.382 Y119.788 E147.82999
G1 X92.599 Y119.982 E147.86871
G1 X92.779 Y120.195 E147.90582
G1 X93.236 Y120.898 E148.01737
G1 X93.438 Y121.438 E148.09407
G1 X93.524 Y121.774 E148.14021
G1 X93.597 Y122.492 E148.23623
G1 X93.589 Y122.778 E148.27429
G1 X93.491 Y123.4 E148.35807
G1 X93.23 Y124.132 E148.46146
G1 X93.065 Y124.418 E148.50539
G1 X92.907 Y124.626 E148.54014
G1 X92.472 Y125.126 E148.62831
G1 X92.231 Y125.322 E148.66963
G1 X91.967 Y125.512 E148.71291
G1 X91.623 Y125.711 E148.76578
G1 X91.187 Y125.908 E148.82943
G0 F6000 X90.873 Y125.172
G1 F900 X90.107 Y125.308 E148.93293
G1 X89.514 Y125.266 E149.01203
G1 X89.236 Y125.22 E149.04951
G1 X88.6 Y124.933 E149.14234
G1 X88.049 Y124.538 E149.23254
G1 X87.88 Y124.358 E149.26539
G1 X87.471 Y123.723 E149.36588
G1 X87.245 Y123.084 E149.45605
G1 X87.211 Y122.878 E149.48383
G1 X87.21 Y122.134 E149.58281
G1 X87.251 Y121.882 E149.61678
G1 X87.555 Y121.072 E149.73188
G1 X88.132 Y120.398 E149.84992
G1 X88.692 Y120.02 E149.9398
G1 X89.124 Y119.832 E150.00248
G1 X89.752 Y119.705 E150.08773
G1 X90.352 Y119.716 E150.16756
G1 X90.892 Y119.841 E150.2413
G1 X91.399 Y120.067 E150.31515
G1 X91.957 Y120.474 E150.40704
G1 X92.133 Y120.667 E150.44179
G1 X92.521 Y121.265 E150.53663
G1 X92.727 Y121.831 E150.61676
G1 X92.807 Y122.608 E150.72068
G1 X92.713 Y123.21 E150.80174
G1 X92.495 Y123.809 E150.88655
G1 X92.374 Y124.019 E150.91879
G1 X91.874 Y124.594 E151.02016
G1 X91.397 Y124.935 E151.09817
G1 X90.873 Y125.172 E151.17469
G1 F1500 E144.67469
G1 F300 Z1.2
G0 F6000 X110.06 Y126.107 Z1.2
G1 F300 Z0.4
G1 F1500 E151.17469
G1 F900 X109.456 Y126.064 E151.25525
G1 X109.106 Y126.006 E151.30244
G1 X108.779 Y125.892 E151.34852
G1 X108.38 Y125.712 E151.40675
G1 X108.038 Y125.515 E151.45926
G1 X107.672 Y125.253 E151.51914
G1 X107.468 Y125.085 E151.5543
G1 X107.241 Y124.844 E151.59835
G1 X106.792 Y124.147 E151.70865
G1 X106.676 Y123.875 E151.74799
G1 X106.47 Y123.301 E151.82913
G1 X106.412 Y122.913 E151.88132
G1 X106.408 Y122.158 E151.98177
G1 X106.449 Y121.756 E152.03553
G1 X106.765 Y120.893 E152.1578
G1 X106.952 Y120.538 E152.21118
G1 X107.488 Y119.922 E152.31981
G1 X107.752 Y119.69 E152.36657
G1 X108.293 Y119.322 E152.45362
G1 X108.855 Y119.077 E152.53518
G1 X109.535 Y118.933 E152.62766
G1 X109.841 Y118.904 E152.66855
G1 X110.456 Y118.92 E152.7504
G1 X111.054 Y119.058 E152.83205
G1 X111.325 Y119.156 E152.87038
G1 X111.698 Y119.325 E152.92486
G1 X111.914 Y119.451 E152.95813
G1 X112.517 Y119.891 E153.05744
G1 X112.769 Y120.174 E153.10786
G1 X113.168 Y120.792 E153.20572
G1 X113.296 Y121.05 E153.24404
G1 X113.463 Y121.516 E153.3099
G1 X113.529 Y121.772 E153.34507
G1 X113.607 Y122.626 E153.45916
G1 X113.499 Y123.387 E153.56142
G1 X113.252 Y124.065 E153.65742
G1 X113.056 Y124.434 E153.71301
G1 X112.902 Y124.631 E153.74627
G1 X112.413 Y125.188 E153.84488
G1 X111.816 Y125.624 E153.94323
G1 X111.244 Y125.88 E154.02661
G1 X110.974 Y125.963 E154.06419
G1 X110.385 Y126.071 E154.14385
G1 X110.06 Y126.107 E154.18736
G0 F6000 X110.109 Y125.308
G1 F900 X109.514 Y125.266 E154.26671
G1 X109.236 Y125.22 E154.3042
G1 X108.6 Y124.933 E154.39703
G1 X108.049 Y124.538 E154.48723
G1 X107.88 Y124.358 E154.52007
G1 X107.493 Y123.757 E154.61517
G1 X107.261 Y123.14 E154.70287
G1 X107.21 Y122.862 E154.74047
G1 X107.209 Y122.146 E154.83573
G1 X107.259 Y121.868 E154.87331
G1 X107.507 Y121.182 E154.97036
G1 X107.658 Y120.944 E155.00786
G1 X108.136 Y120.395 E155.1047
G1 X108.705 Y120.012 E155.19595
G1 X109.126 Y119.832 E155.25687
G1 X109.752 Y119.705 E155.34185
G1 X110.352 Y119.716 E155.42168
G1 X110.892 Y119.841 E155.49543
G1 X111.397 Y120.066 E155.56898
G1 X111.943 Y120.457 E155.65832
G1 X112.105 Y120.63 E155.68985
G1 X112.533 Y121.289 E155.7944
G1 X112.731 Y121.842 E155.87254
G1 X112.804 Y122.609 E155.97505
G1 X112.719 Y123.192 E156.05343
G1 X112.454 Y123.919 E156.15637
G1 X111.875 Y124.59 E156.27428
G1 X111.409 Y124.929 E156.35095
G1 X110.875 Y125.17 E156.42889
G1 X110.109 Y125.308 E156.53244
G1 F1500 E150.03244
G1 F300 Z1.2
G0 F6000 X114.913 Y132.2 Z1.2
G1 F300 Z0.4
G1 F1500 E156.53244
G1 F900 X114.589 Y131.602 E156.62293
G1 X114.468 Y131.333 E156.66217
G1 X114.267 Y130.782 E156.7402
G1 X114.11 Y130.171 E156.82413
G1 X114.025 Y129.584 E156.90304
G1 X114.005 Y129.296 E156.94145
G1 X114.006 Y128.736 E157.01595
G1 X114.065 Y128.121 E157.09814
G1 X114.18 Y127.532 E157.17799
G1 X114.361 Y126.944 E157.25984
G1 X114.603 Y126.375 E157.3421
G1 X114.847 Y125.926 E157.41008
G1 X115.213 Y125.374 E157.4982
G1 X115.6 Y124.919 E157.57767
G1 X116.001 Y124.525 E157.65246
G1 X116.484 Y124.137 E157.73488
G1 X116.992 Y123.804 E157.81569
G1 X117.511 Y123.54 E157.89316
G1 X118.124 Y123.299 E157.98079
G1 X118.65 Y123.153 E158.05342
G1 X119.418 Y123.017 E158.15718
G1 X120.143 Y123.002 E158.25366
G1 X120.721 Y123.042 E158.33074
G1 X121.318 Y123.147 E158.41138
G1 X121.851 Y123.292 E158.48487
G1 X122.447 Y123.518 E158.56967
G1 X122.994 Y123.798 E158.65142
G1 X123.414 Y124.069 E158.71792
G1 X123.943 Y124.472 E158.8064
G1 X124.341 Y124.859 E158.88025
G1 X124.772 Y125.356 E158.96777
G1 X125.075 Y125.795 E159.03874
G1 X125.471 Y126.514 E159.14794
G1 F897.8 X125.734 Y127.216 E159.24793
G1 F891.1 X125.906 Y127.909 E159.34387
G1 F879.1 X126.006 Y128.461 E159.42028
G1 F875.9 X126.075 Y128.012 E159.48238
G1 F891.1 X126.206 Y127.445 E159.56057
G1 F900 X126.352 Y126.958 E159.62821
G1 X126.607 Y126.367 E159.71385
G1 X126.872 Y125.878 E159.78784
G1 X127.213 Y125.379 E159.86825
G1 X127.467 Y125.075 E159.92095
G1 X127.24 Y124.843 E159.96413
G1 X126.763 Y124.096 E160.08205
G1 X126.471 Y123.318 E160.1926
G1 X126.408 Y122.936 E160.24411
G1 X126.409 Y122.003 E160.36824
G1 X126.517 Y121.563 E160.42852
G1 X126.763 Y120.897 E160.52297
G1 X126.954 Y120.534 E160.57754
G1 X127.52 Y119.889 E160.69171
G1 X127.752 Y119.69 E160.73237
G1 X128.293 Y119.322 E160.81942
G1 X128.855 Y119.077 E160.90099
G1 X129.535 Y118.933 E160.99346
G1 X129.841 Y118.904 E161.03435
G1 X130.456 Y118.92 E161.1162
G1 X131.054 Y119.058 E161.19785
G1 X131.325 Y119.156 E161.23619
G1 X131.783 Y119.363 E161.30305
G1 X132.447 Y119.84 E161.41182
G1 X132.699 Y120.08 E161.45812
G1 X133.139 Y120.744 E161.5641
G1 X133.3 Y121.06 E161.61128
G1 X133.458 Y121.498 E161.67323
G1 X133.528 Y121.772 E161.71085
G1 X133.594 Y122.443 E161.80055
G1 X133.595 Y122.717 E161.83701
G1 X133.526 Y123.202 E161.90218
G1 X133.892 Y123.302 E161.95266
G1 X134.422 Y123.51 E162.0284
G1 X135.008 Y123.807 E162.11581
G1 X135.487 Y124.118 E162.19179
G1 X135.959 Y124.491 E162.27182
G1 X136.39 Y124.91 E162.35179
G1 X136.772 Y125.362 E162.43053
G1 X137.075 Y125.795 E162.50084
G1 X137.471 Y126.514 E162.61004
G1 F897.8 X137.734 Y127.216 E162.71003
G1 F891.1 X137.906 Y127.909 E162.80597
G1 F879.1 X138.006 Y128.461 E162.88238
G1 F875.9 X138.075 Y128.012 E162.94448
G1 F891.1 X138.206 Y127.445 E163.02267
G1 F900 X138.352 Y126.958 E163.09031
G1 X138.607 Y126.367 E163.17594
G1 X138.873 Y125.877 E163.25012
G1 X139.226 Y125.362 E163.33319
G1 X139.601 Y124.919 E163.4104
G1 X140.035 Y124.494 E163.49122
G1 X140.495 Y124.13 E163.56926
G1 X141.023 Y123.79 E163.65281
G1 X141.512 Y123.54 E163.72587
G1 X142.121 Y123.3 E163.81296
G1 X142.609 Y123.162 E163.88043
G1 X143.404 Y123.017 E163.98794
G1 X144.14 Y123.002 E164.08588
G1 X144.692 Y123.039 E164.15948
G1 X145.327 Y123.149 E164.24522
G1 X145.884 Y123.303 E164.32211
G1 X146.491 Y123.542 E164.4089
G1 X146.996 Y123.8 E164.48434
G1 X147.487 Y124.118 E164.56217
G1 X147.959 Y124.491 E164.6422
G1 X148.39 Y124.91 E164.72218
G1 X148.772 Y125.362 E164.80091
G1 X149.075 Y125.795 E164.87122
G1 X149.471 Y126.514 E164.98042
G1 F897.8 X149.734 Y127.216 E165.08041
G1 F891.1 X149.906 Y127.909 E165.17635
G1 F879.1 X150.006 Y128.461 E165.25276
G1 F875.9 X150.075 Y128.012 E165.31486
G1 F891.1 X150.206 Y127.445 E165.39305
G1 F900 X150.352 Y126.958 E165.46069
G1 X150.607 Y126.367 E165.54632
G1 X150.873 Y125.877 E165.6205
G1 X151.226 Y125.362 E165.70357
G1 X151.601 Y124.919 E165.78078
G1 X152.035 Y124.494 E165.8616
G1 X152.495 Y124.13 E165.93964
G1 X153 Y123.803 E166.01968
G1 X153.484 Y123.553 E166.09215
G1 X154.08 Y123.311 E166.17773
G1 X154.653 Y123.152 E166.25685
G1 X155.434 Y123.014 E166.36236
G1 X156.231 Y123.006 E166.4684
G1 X156.723 Y123.04 E166.53401
G1 X157.326 Y123.146 E166.61547
G1 X157.907 Y123.308 E166.69571
G1 X158.446 Y123.519 E166.77272
G1 X158.996 Y123.797 E166.85471
G1 X159.414 Y124.068 E166.92098
G1 X159.949 Y124.479 E167.01074
G1 X160.386 Y124.903 E167.09174
G1 X160.71 Y125.285 E167.15838
G1 X161.101 Y125.831 E167.24773
G1 X161.405 Y126.386 E167.33192
G1 X161.533 Y126.667 E167.373
G1 X161.758 Y127.316 E167.46438
G1 X161.901 Y127.91 E167.54567
G1 X161.974 Y128.403 E167.61197
G1 X162 Y128.984 E167.68934
G1 X161.976 Y129.582 E167.76897
G1 X161.886 Y130.184 E167.84995
G1 X161.818 Y130.483 E167.89074
G1 X161.642 Y131.048 E167.96947
G1 X161.414 Y131.595 E168.04831
G1 X161.084 Y132.201 E168.14012
G1 X167.201 Y132.201 E168.95392
G1 X167.2 Y87.8 E174.86106
G1 X52.8 Y87.8 E190.0809
G1 X52.8 Y132.2 E195.9879
G1 X114.913 Y132.2 E204.25144
G1 F1500 E197.75144
G1 F300 Z1.2
G0 F6000 X116.659 Y133 Z1.2
