;FLAVOR:Marlin
;TIME:3000
;Filament used: 6.01328m
;Layer height: 0.32
;MINX:77.522
;MINY:56.005
;MINZ:0.4
;MAXX:156.362
;MAXY:144.977
;MAXZ:60.72
;TARGET_MACHINE.NAME:Creality Ender-3 Pro
;Generated with Cura_SteamEngine 5.5.0
M82 ;absolute extrusion mode
; Ender 3 Custom Start G-code
G92 E0 ; Reset Extruder
G28 ; Home all axes
G1 Z5.0 F3000 ; Move Z Axis up a bit during heating to not damage bed
M104 S120 ; Start heating up the nozzle most of the way
M190 S90 ; Start heating the bed, wait until target temperature reached
M109 S235.0 ; Finish heating the nozzle
G1 Z2.0 F3000 ; Move Z Axis up little to prevent scratching of Heat Bed
G1 X0.1 Y20 Z0.3 F5000.0 ; Move to start position
G1 X0.1 Y200.0 Z0.3 F1500.0 E15 ; Draw the first line
G1 X0.4 Y200.0 Z0.3 F5000.0 ; Move to side a little
G1 X0.4 Y20 Z0.3 F1500.0 E30 ; Draw the second line
G92 E0 ; Reset Extruder
G1 Z2.0 F3000 ; Move Z Axis up little to prevent scratching of Heat Bed
G1 X5 Y20 Z0.3 F5000.0 ; Move over to prevent blob squish
G92 E0
G92 E0
G1 F1500 E-6.5
;LAYER_COUNT:187
;LAYER:0
M107
G1 F300 Z1.2
G0 F6000 X81.924 Y63.476 Z1.2
;TYPE:SKIRT
G1 F300 Z0.4
G1 F1500 E0
G1 F900 X82.414 Y62.885 E0.10214
G1 X82.996 Y62.286 E0.21325
G1 X84.372 Y60.926 E0.47064
G1 X84.909 Y60.472 E0.56419
G1 X85.664 Y59.925 E0.68823
G1 X87.272 Y58.819 E0.94788
G1 X87.689 Y58.577 E1.01202
G1 X88.567 Y58.145 E1.1422
G1 X89.656 Y57.638 E1.30202
G1 X90.411 Y57.304 E1.41185
G1 X90.981 Y57.099 E1.49244
G1 X91.955 Y56.823 E1.62713
G1 X93.602 Y56.391 E1.85366
G1 X94.354 Y56.254 E1.95535
G1 X95.268 Y56.16 E2.07759
G1 X96.415 Y56.06 E2.23077
G1 X97.167 Y56.007 E2.33106
G1 X97.714 Y56.005 E2.40383
G1 X98.796 Y56.078 E2.54811
G1 X100.659 Y56.255 E2.79708
G1 X101.293 Y56.368 E2.88276
G1 X102.26 Y56.613 E3.01547
G1 X104.044 Y57.105 E3.26168
G1 X104.539 Y57.283 E3.33166
G1 X105.485 Y57.704 E3.46942
G1 X107.215 Y58.524 E3.72412
G1 X107.672 Y58.785 E3.79414
G1 X108.539 Y59.369 E3.93321
G1 X109.442 Y60.001 E4.07985
G1 X110.089 Y60.47 E4.18616
G1 X110.511 Y60.821 E4.25919
G1 X111.277 Y61.557 E4.40052
G1 X112.601 Y62.901 E4.65151
G1 X112.973 Y63.344 E4.72847
G1 X113.6 Y64.209 E4.87061
G1 X114.65 Y65.738 E5.11737
G1 X114.936 Y66.23 E5.19308
G1 X115.362 Y67.099 E5.32184
G1 X115.821 Y68.083 E5.46629
G1 X116.486 Y69.565 E5.6824
G1 X116.964 Y70.675 E5.84319
G1 X118.08 Y73.074 E6.19519
G1 X119.283 Y75.476 E6.5526
G1 X120.55 Y77.839 E6.90931
G1 X121.901 Y80.197 E7.27086
G1 X123.295 Y82.472 E7.62583
G1 X124.767 Y84.734 E7.98488
G1 X126.309 Y86.962 E8.34536
G1 X127.886 Y89.106 E8.69945
G1 X129.527 Y91.213 E9.05475
G1 X131.266 Y93.318 E9.41801
G1 X133.053 Y95.36 E9.77901
G1 X134.821 Y97.271 E10.12537
G1 X136.727 Y99.217 E10.48777
G1 X138.638 Y101.059 E10.84088
G1 X140.661 Y102.901 E11.20488
G1 X142.67 Y104.631 E11.5576
G1 X144.781 Y106.347 E11.91953
G1 X146.896 Y107.969 E12.27413
G1 X148.946 Y109.463 E12.61161
G1 X149.434 Y109.871 E12.69623
G1 X150.155 Y110.565 E12.82937
G1 X151.447 Y111.874 E13.07406
G1 X151.861 Y112.363 E13.1593
G1 X152.429 Y113.145 E13.28789
G1 X153.118 Y114.129 E13.4477
G1 X153.55 Y114.772 E13.55076
G1 X153.792 Y115.189 E13.61491
G1 X154.224 Y116.067 E13.74509
G1 X154.731 Y117.156 E13.9049
G1 X155.065 Y117.911 E14.01474
G1 X155.27 Y118.481 E14.09533
G1 X155.546 Y119.455 E14.23001
G1 X155.979 Y121.105 E14.45696
G1 X156.116 Y121.857 E14.55865
G1 X156.202 Y122.698 E14.67112
G1 X156.362 Y124.675 E14.935
G1 X156.362 Y125.315 E15.02015
G1 X156.297 Y126.234 E15.14272
G1 X156.113 Y128.165 E15.40078
G1 X156.026 Y128.675 E15.46962
G1 X155.763 Y129.735 E15.61491
G1 X155.264 Y131.544 E15.86457
G1 X155.087 Y132.036 E15.93414
G1 X154.665 Y132.985 E16.07231
G1 X153.845 Y134.715 E16.32702
G1 X153.584 Y135.172 E16.39703
G1 X153 Y136.039 E16.53611
G1 X152.368 Y136.942 E16.68274
G1 X151.899 Y137.589 E16.78906
G1 X151.548 Y138.011 E16.86208
G1 X150.812 Y138.777 E17.00341
G1 X149.467 Y140.102 E17.25459
G1 X149.071 Y140.437 E17.3236
G1 X148.177 Y141.089 E17.47081
G1 X146.644 Y142.144 E17.71839
G1 X146.149 Y142.431 E17.79451
G1 X145.216 Y142.887 E17.93267
G1 X144.233 Y143.346 E18.07701
G1 X143.47 Y143.684 E18.18803
G1 X143.012 Y143.851 E18.25289
G1 X141.983 Y144.147 E18.39534
G1 X140.144 Y144.623 E18.64806
G1 X139.577 Y144.724 E18.72468
G1 X138.716 Y144.814 E18.83986
G1 X136.697 Y144.977 E19.10934
G1 X136.051 Y144.976 E19.19528
G1 X135.098 Y144.907 E19.3224
G1 X133.279 Y144.736 E19.56547
G1 X132.58 Y144.614 E19.65987
G1 X131.693 Y144.39 E19.78158
G1 X129.965 Y143.918 E20.0199
G1 X129.234 Y143.656 E20.12321
G1 X125.882 Y142.152 E20.61199
G1 X123.367 Y141.107 E20.97432
G1 X120.929 Y140.173 E21.32167
G1 X118.357 Y139.27 E21.68432
G1 X115.838 Y138.466 E22.03611
G1 X113.227 Y137.713 E22.39763
G1 X110.613 Y137.038 E22.75681
G1 X108.007 Y136.444 E23.1124
G1 X105.346 Y135.916 E23.47333
G1 X102.72 Y135.472 E23.82765
G1 X100.046 Y135.097 E24.18688
G1 X98.411 Y134.9 E24.40598
G1 X97.77 Y134.765 E24.49313
G1 X97.178 Y134.583 E24.57552
G1 X96.48 Y134.294 E24.67603
G1 X95.907 Y133.985 E24.76264
G1 X95.28 Y133.563 E24.86319
G1 X94.847 Y133.212 E24.93735
G1 X94.303 Y132.698 E25.03692
G1 X93.931 Y132.227 E25.11677
G1 X93.614 Y131.77 E25.19076
G1 X93.136 Y130.898 E25.32306
G1 X92.954 Y130.465 E25.38555
G1 X92.711 Y129.749 E25.48614
G1 X92.598 Y129.11 E25.57247
G1 X92.527 Y128.473 E25.65775
G1 X92.327 Y125.393 E26.06837
G1 X92.079 Y122.768 E26.41916
G1 X91.746 Y120.05 E26.78347
G1 X91.342 Y117.391 E27.14128
G1 X90.867 Y114.765 E27.49632
G1 X90.331 Y112.21 E27.84363
G1 X89.687 Y109.525 E28.21098
G1 X88.988 Y106.932 E28.56827
G1 X88.21 Y104.342 E28.92805
G1 X87.384 Y101.853 E29.27695
G1 X86.44 Y99.257 E29.64445
G1 X85.456 Y96.769 E30.0004
G1 X84.417 Y94.347 E30.35102
G1 X83.256 Y91.839 E30.71871
G1 X82.076 Y89.465 E31.07141
G1 X80.075 Y85.766 E31.63092
G1 X79.613 Y84.816 E31.77146
G1 X79.155 Y83.835 E31.91549
G1 X78.838 Y83.124 E32.01906
G1 X78.63 Y82.553 E32.09991
G1 X78.345 Y81.552 E32.23838
G1 X77.877 Y79.744 E32.48684
G1 X77.776 Y79.177 E32.56346
G1 X77.675 Y78.208 E32.69308
G1 X77.522 Y76.294 E32.94853
G1 X77.524 Y75.653 E33.03381
G1 X77.593 Y74.698 E33.16119
G1 X77.764 Y72.879 E33.40426
G1 X77.886 Y72.18 E33.49866
G1 X78.11 Y71.293 E33.62038
G1 X78.582 Y69.566 E33.85856
G1 X78.817 Y68.904 E33.95202
G1 X79.233 Y67.968 E34.08829
G1 X80.044 Y66.265 E34.33924
G1 X80.332 Y65.764 E34.41612
G1 X80.915 Y64.901 E34.55468
G1 X81.924 Y63.476 E34.78697
G0 F6000 X82.577 Y63.938
G1 F900 X82.988 Y63.442 E34.87267
G1 X83.559 Y62.854 E34.98172
G1 X84.891 Y61.535 E35.23111
G1 X85.378 Y61.12 E35.31623
G1 X86.118 Y60.584 E35.4378
G1 X87.674 Y59.511 E35.68926
G1 X88.091 Y59.269 E35.7534
G1 X88.905 Y58.87 E35.874
G1 X89.981 Y58.369 E36.03191
G1 X90.684 Y58.056 E36.13429
G1 X91.199 Y57.869 E36.20718
G1 X92.158 Y57.597 E36.3398
G1 X93.805 Y57.165 E36.56633
G1 X94.436 Y57.05 E36.65166
G1 X95.338 Y56.957 E36.7723
G1 X96.473 Y56.858 E36.92388
G1 X97.17 Y56.807 E37.01685
G1 X97.717 Y56.805 E37.08963
G1 X98.721 Y56.874 E37.22352
G1 X100.521 Y57.043 E37.46404
G1 X101.097 Y57.144 E37.54184
G1 X102.048 Y57.384 E37.67233
G1 X103.773 Y57.858 E37.91033
G1 X104.268 Y58.036 E37.98032
G1 X105.143 Y58.427 E38.10782
G1 X106.818 Y59.219 E38.35432
G1 X107.275 Y59.48 E38.42433
G1 X108.08 Y60.024 E38.55359
G1 X108.974 Y60.65 E38.69879
G1 X109.577 Y61.085 E38.79771
G1 X109.999 Y61.436 E38.87074
G1 X110.708 Y62.119 E39.00171
G1 X111.99 Y63.418 E39.24452
G1 X112.325 Y63.814 E39.31353
G1 X112.941 Y64.663 E39.45308
G1 X113.958 Y66.14 E39.69165
G1 X114.244 Y66.632 E39.76737
G1 X114.637 Y67.437 E39.88655
G1 X115.091 Y68.41 E40.02939
G1 X115.751 Y69.882 E40.24401
G1 X116.23 Y70.992 E40.40485
G1 X117.365 Y73.432 E40.76287
G1 X118.578 Y75.854 E41.12325
G1 X119.856 Y78.237 E41.483
G1 X121.211 Y80.601 E41.84551
G1 X122.624 Y82.908 E42.20542
G1 X124.098 Y85.174 E42.56506
G1 X125.651 Y87.417 E42.92802
G1 X127.255 Y89.598 E43.2882
G1 X128.91 Y91.723 E43.64654
G1 X130.649 Y93.828 E44.0098
G1 X132.451 Y95.887 E44.37382
G1 X134.249 Y97.831 E44.72611
G1 X136.155 Y99.777 E45.0885
G1 X138.099 Y101.651 E45.44774
G1 X140.122 Y103.493 E45.81173
G1 X142.165 Y105.252 E46.1704
G1 X144.28 Y106.971 E46.53299
G1 X146.425 Y108.616 E46.89262
G1 X148.475 Y110.11 E47.2301
G1 X148.879 Y110.447 E47.30009
G1 X149.586 Y111.128 E47.43069
G1 X150.836 Y112.391 E47.6671
G1 X151.25 Y112.88 E47.75234
G1 X151.774 Y113.604 E47.87124
G1 X152.455 Y114.577 E48.02925
G1 X152.858 Y115.174 E48.12508
G1 X153.1 Y115.591 E48.18922
G1 X153.499 Y116.405 E48.30982
G1 X154 Y117.481 E48.46773
G1 X154.313 Y118.184 E48.57011
G1 X154.5 Y118.699 E48.643
G1 X154.772 Y119.658 E48.77562
G1 X155.205 Y121.308 E49.00257
G1 X155.32 Y121.939 E49.0879
G1 X155.405 Y122.763 E49.19811
G1 X155.562 Y124.678 E49.45374
G1 X155.564 Y125.259 E49.53104
G1 X155.501 Y126.159 E49.65107
G1 X155.324 Y128.03 E49.9011
G1 X155.237 Y128.54 E49.96993
G1 X154.992 Y129.523 E50.10471
G1 X154.511 Y131.273 E50.34616
G1 X154.334 Y131.765 E50.41572
G1 X153.942 Y132.643 E50.54365
G1 X153.15 Y134.318 E50.79015
G1 X152.889 Y134.775 E50.86016
G1 X152.345 Y135.58 E50.98942
G1 X151.719 Y136.474 E51.13462
G1 X151.284 Y137.077 E51.23354
G1 X150.933 Y137.499 E51.30656
G1 X150.25 Y138.208 E51.43754
G1 X148.95 Y139.491 E51.68054
G1 X148.554 Y139.826 E51.74954
G1 X147.723 Y140.43 E51.88622
G1 X146.24 Y141.453 E52.1259
G1 X145.797 Y141.712 E52.19418
G1 X144.877 Y142.162 E52.33043
G1 X143.907 Y142.615 E52.47286
G1 X143.196 Y142.932 E52.57643
G1 X142.738 Y143.099 E52.64128
G1 X141.782 Y143.373 E52.77359
G1 X140.004 Y143.835 E53.01799
G1 X139.437 Y143.936 E53.09461
G1 X138.651 Y144.017 E53.19974
G1 X136.696 Y144.177 E53.4607
G1 X136.109 Y144.178 E53.5388
G1 X135.172 Y144.11 E53.66378
G1 X133.414 Y143.947 E53.89867
G1 X132.776 Y143.838 E53.98478
G1 X131.904 Y143.618 E54.10443
G1 X130.176 Y143.146 E54.34274
G1 X129.562 Y142.926 E54.42952
G1 X126.202 Y141.418 E54.91949
G1 X123.674 Y140.368 E55.28367
G1 X121.194 Y139.418 E55.63699
G1 X118.622 Y138.515 E55.99965
G1 X116.06 Y137.697 E56.35745
G1 X113.438 Y136.941 E56.72049
G1 X110.813 Y136.263 E57.08119
G1 X108.163 Y135.659 E57.44278
G1 X105.498 Y135.13 E57.80426
G1 X102.853 Y134.683 E58.16114
G1 X100.157 Y134.305 E58.52332
G1 X98.576 Y134.117 E58.73514
G1 X97.935 Y133.982 E58.82229
G1 X97.484 Y133.844 E58.88504
G1 X96.786 Y133.555 E58.98555
G1 X96.354 Y133.321 E59.05091
G1 X95.727 Y132.899 E59.15146
G1 X95.354 Y132.593 E59.21565
G1 X94.892 Y132.154 E59.30043
G1 X94.585 Y131.766 E59.36626
G1 X94.314 Y131.382 E59.42879
G1 X93.874 Y130.588 E59.54956
G1 X93.692 Y130.155 E59.61204
G1 X93.488 Y129.549 E59.69711
G1 X93.393 Y129.021 E59.76849
G1 X93.322 Y128.384 E59.85376
G1 X93.125 Y125.341 E60.25945
G1 X92.873 Y122.671 E60.61624
G1 X92.54 Y119.953 E60.98055
G1 X92.133 Y117.271 E61.34145
G1 X91.65 Y114.601 E61.70244
G1 X91.109 Y112.023 E62.05288
G1 X90.465 Y109.338 E62.42023
G1 X89.754 Y106.702 E62.78346
G1 X88.976 Y104.112 E63.14324
G1 X88.136 Y101.58 E63.49816
G1 X87.192 Y98.984 E63.86565
G1 X86.2 Y96.475 E64.2246
G1 X85.143 Y94.011 E64.5813
G1 X83.982 Y91.503 E64.94898
G1 X82.792 Y89.109 E65.30466
G1 X81.129 Y86.02 E65.77139
G1 X80.776 Y85.38 E65.86863
G1 X80.338 Y84.477 E66.00215
G1 X79.885 Y83.507 E66.14458
G1 X79.59 Y82.85 E66.24039
G1 X79.382 Y82.279 E66.32124
G1 X79.119 Y81.351 E66.44957
G1 X78.665 Y79.604 E66.68971
G1 X78.564 Y79.037 E66.76633
G1 X78.472 Y78.143 E66.8859
G1 X78.322 Y76.294 E67.1327
G1 X78.322 Y75.711 E67.21026
G1 X78.39 Y74.772 E67.33551
G1 X78.553 Y73.014 E67.5704
G1 X78.662 Y72.376 E67.65651
G1 X78.882 Y71.504 E67.77616
G1 X79.354 Y69.777 E68.01435
G1 X79.548 Y69.229 E68.09169
G1 X79.956 Y68.311 E68.22534
G1 X80.738 Y66.664 E68.4679
G1 X81.026 Y66.163 E68.54478
G1 X81.568 Y65.363 E68.67334
G1 X82.577 Y63.938 E68.90563
G0 F6000 X83.23 Y64.4
G1 F900 X83.563 Y63.999 E68.97498
G1 X84.122 Y63.422 E69.08186
G1 X85.454 Y62.103 E69.33125
G1 X85.848 Y61.768 E69.40006
G1 X86.573 Y61.242 E69.51922
G1 X88.076 Y60.203 E69.76231
G1 X88.493 Y59.961 E69.82645
G1 X89.243 Y59.595 E69.93748
G1 X90.308 Y59.099 E70.09378
G1 X90.959 Y58.807 E70.18871
G1 X91.418 Y58.639 E70.25373
G1 X92.361 Y58.371 E70.38416
G1 X94.008 Y57.939 E70.61069
G1 X94.518 Y57.846 E70.67966
G1 X95.408 Y57.754 E70.7987
G1 X96.531 Y57.656 E70.94867
G1 X97.228 Y57.605 E71.04164
G1 X97.717 Y57.605 E71.1067
G1 X98.647 Y57.671 E71.23074
G1 X100.386 Y57.832 E71.46309
G1 X100.901 Y57.92 E71.5326
G1 X101.837 Y58.156 E71.66102
G1 X103.502 Y58.611 E71.89065
G1 X103.997 Y58.789 E71.96064
G1 X104.802 Y59.15 E72.07801
G1 X106.421 Y59.914 E72.31618
G1 X106.878 Y60.175 E72.3862
G1 X107.621 Y60.679 E72.50564
G1 X108.506 Y61.299 E72.6494
G1 X109.109 Y61.734 E72.74832
G1 X109.485 Y62.049 E72.81358
G1 X110.139 Y62.682 E72.93467
G1 X111.379 Y63.935 E73.1692
G1 X111.714 Y64.331 E73.23821
G1 X112.283 Y65.117 E73.3673
G1 X113.268 Y66.544 E73.59798
G1 X113.525 Y66.983 E73.66566
G1 X113.912 Y67.775 E73.78294
G1 X114.361 Y68.738 E73.9243
G1 X115.017 Y70.199 E74.13736
G1 X115.505 Y71.329 E74.30112
G1 X116.65 Y73.79 E74.66223
G1 X117.873 Y76.232 E75.02558
G1 X119.162 Y78.635 E75.38837
G1 X120.521 Y81.005 E75.75184
G1 X121.953 Y83.344 E76.11671
G1 X123.44 Y85.63 E76.47952
G1 X124.997 Y87.878 E76.84332
G1 X126.61 Y90.073 E77.20572
G1 X128.293 Y92.233 E77.57002
G1 X130.032 Y94.338 E77.93327
G1 X131.851 Y96.416 E78.30069
G1 X133.678 Y98.391 E78.65863
G1 X135.6 Y100.353 E79.02403
G1 X137.56 Y102.243 E79.38627
G1 X139.583 Y104.085 E79.75027
G1 X141.66 Y105.873 E80.11488
G1 X143.779 Y107.596 E80.47823
G1 X145.954 Y109.263 E80.8428
G1 X148.004 Y110.757 E81.18028
G1 X148.365 Y111.06 E81.24298
G1 X149.017 Y111.691 E81.36369
G1 X150.267 Y112.954 E81.60011
G1 X150.602 Y113.349 E81.66901
G1 X151.119 Y114.063 E81.78629
G1 X151.793 Y115.026 E81.94267
G1 X152.166 Y115.576 E82.03108
G1 X152.408 Y115.993 E82.09523
G1 X152.774 Y116.743 E82.20625
G1 X153.27 Y117.808 E82.36255
G1 X153.562 Y118.459 E82.45748
G1 X153.73 Y118.918 E82.5225
G1 X153.998 Y119.861 E82.65293
G1 X154.431 Y121.511 E82.87988
G1 X154.524 Y122.022 E82.94898
G1 X154.608 Y122.829 E83.05692
G1 X154.762 Y124.684 E83.30456
G1 X154.766 Y125.203 E83.37361
G1 X154.704 Y126.085 E83.49124
G1 X154.535 Y127.895 E83.73309
G1 X154.448 Y128.405 E83.80193
G1 X154.22 Y129.312 E83.92635
G1 X153.758 Y131.002 E84.15944
G1 X153.581 Y131.494 E84.229
G1 X153.219 Y132.302 E84.34679
G1 X152.455 Y133.921 E84.58496
G1 X152.194 Y134.378 E84.65498
G1 X151.69 Y135.121 E84.77442
G1 X151.07 Y136.006 E84.91818
G1 X150.635 Y136.609 E85.0171
G1 X150.32 Y136.985 E85.08236
G1 X149.687 Y137.639 E85.20345
G1 X148.433 Y138.88 E85.43817
G1 X148.037 Y139.215 E85.50717
G1 X147.268 Y139.772 E85.6335
G1 X145.836 Y140.762 E85.86511
G1 X145.393 Y141.021 E85.93338
G1 X144.539 Y141.437 E86.05976
G1 X143.579 Y141.885 E86.2007
G1 X142.922 Y142.18 E86.29652
G1 X142.464 Y142.347 E86.36137
G1 X141.58 Y142.599 E86.48367
G1 X139.861 Y143.048 E86.72004
G1 X139.354 Y143.14 E86.78859
G1 X138.585 Y143.22 E86.89145
G1 X136.691 Y143.377 E87.14429
G1 X136.167 Y143.38 E87.21401
G1 X135.246 Y143.313 E87.33686
G1 X133.488 Y143.15 E87.57175
G1 X132.972 Y143.062 E87.64139
G1 X132.115 Y142.846 E87.75897
G1 X130.387 Y142.374 E87.99729
G1 X129.89 Y142.196 E88.06752
G1 X126.522 Y140.684 E88.55868
G1 X123.981 Y139.629 E88.92472
G1 X121.459 Y138.663 E89.28402
G1 X118.887 Y137.76 E89.64667
G1 X116.282 Y136.928 E90.01049
G1 X113.649 Y136.169 E90.37505
G1 X111.013 Y135.488 E90.73726
G1 X108.319 Y134.874 E91.10486
G1 X105.65 Y134.344 E91.46688
G1 X102.986 Y133.894 E91.82632
G1 X100.25 Y133.51 E92.19389
G1 X98.737 Y133.333 E92.39655
G1 X98.163 Y133.215 E92.47451
G1 X97.786 Y133.103 E92.52684
G1 X97.161 Y132.848 E92.61664
G1 X96.797 Y132.655 E92.67145
G1 X96.234 Y132.28 E92.76145
G1 X95.861 Y131.974 E92.82564
G1 X95.484 Y131.613 E92.89508
G1 X95.239 Y131.305 E92.94744
G1 X94.968 Y130.921 E93.00997
G1 X94.612 Y130.278 E93.10775
G1 X94.43 Y129.845 E93.17024
G1 X94.265 Y129.351 E93.23953
G1 X94.188 Y128.932 E93.29621
G1 X94.117 Y128.295 E93.38148
G1 X93.923 Y125.289 E93.78223
G1 X93.667 Y122.574 E94.14504
G1 X93.334 Y119.856 E94.50934
G1 X92.924 Y117.151 E94.87333
G1 X92.433 Y114.437 E95.24026
