;FLAVOR:Marlin
;TIME:24096
;Filament used: 46.5301m
;Layer height: 0.32
;MINX:8.013
;MINY:8.013
;MINZ:0.32
;MAXX:211.987
;MAXY:211.987
;MAXZ:25.16
;TARGET_MACHINE.NAME:Creality Ender-3 Pro
;Generated with Cura_SteamEngine 5.5.0
M82 ;absolute extrusion mode
; Ender 3 Custom Start G-code
G92 E0 ; Reset Extruder
G28 ; Home all axes
G1 Z5.0 F3000 ; Move Z Axis up a bit during heating to not damage bed
M104 S120 ; Start heating up the nozzle most of the way
M190 S80 ; Start heating the bed, wait until target temperature reached
M109 S220 ; Finish heating the nozzle
G1 Z2.0 F3000 ; Move Z Axis up little to prevent scratching of Heat Bed
G1 X0.1 Y20 Z0.3 F5000.0 ; Move to start position
G1 X0.1 Y200.0 Z0.3 F1500.0 E15 ; Draw the first line
G1 X0.4 Y200.0 Z0.3 F5000.0 ; Move to side a little
G1 X0.4 Y20 Z0.3 F1500.0 E30 ; Draw the second line
G92 E0 ; Reset Extruder
G1 Z2.0 F3000 ; Move Z Axis up little to prevent scratching of Heat Bed
G1 X5 Y20 Z0.3 F5000.0 ; Move over to prevent blob squish
G92 E0
G92 E0
G1 F1500 E-6.5
;LAYER_COUNT:78
;LAYER:0
M107
G1 F300 Z0.52
G0 F6000 X24.622 Y22.882 Z0.52
;TYPE:SKIRT
G1 F300 Z0.32
G1 F1500 E0
G1 F900 X26.304 Y21.104 E0.2605
G1 X27.988 Y19.217 E0.52968
G1 X29.389 Y17.576 E0.75933
G1 X29.859 Y17.06 E0.83362
G1 X30.46 Y16.439 E0.9256
G1 X31.952 Y14.961 E1.14912
G1 X32.675 Y14.308 E1.25281
G1 X33.299 Y13.822 E1.33699
G1 X34.243 Y13.142 E1.46081
G1 X35.725 Y12.12 E1.65242
G1 X36.602 Y11.574 E1.76237
G1 X37.234 Y11.242 E1.83835
G1 X38.188 Y10.78 E1.95117
G1 X39.147 Y10.332 E2.06382
G1 X39.938 Y9.976 E2.15615
G1 X40.907 Y9.592 E2.26708
G1 X41.561 Y9.385 E2.34009
G1 X42.466 Y9.126 E2.44028
G1 X44.326 Y8.636 E2.645
G1 X45.409 Y8.405 E2.76286
G1 X46.132 Y8.307 E2.84051
G1 X46.971 Y8.221 E2.93028
G1 X49.046 Y8.049 E3.15188
G1 X50.081 Y8.013 E3.26211
G1 X50.814 Y8.041 E3.34018
G1 X51.966 Y8.124 E3.46311
G1 X53.697 Y8.286 E3.64814
G1 X54.79 Y8.441 E3.76564
G1 X55.501 Y8.596 E3.84309
G1 X56.578 Y8.869 E3.96134
G1 X58.302 Y9.341 E4.15159
G1 X59.321 Y9.671 E4.26559
G1 X59.992 Y9.946 E4.34277
G1 X60.78 Y10.3 E4.43471
G1 X62.077 Y10.902 E4.5869
G1 X62.707 Y11.206 E4.66135
G1 X63.621 Y11.699 E4.77188
G1 X65.106 Y12.59 E4.9562
G1 X67.254 Y13.823 E5.2198
G1 X69.474 Y15.015 E5.48799
G1 X71.674 Y16.119 E5.74997
G1 X73.92 Y17.165 E6.01367
G1 X76.22 Y18.161 E6.28043
G1 X78.529 Y19.082 E6.54501
G1 X80.859 Y19.937 E6.80916
G1 X83.227 Y20.73 E7.07495
G1 X85.604 Y21.453 E7.33939
G1 X88.007 Y22.109 E7.6045
G1 X90.429 Y22.699 E7.86982
G1 X92.876 Y23.219 E8.13608
G1 X95.303 Y23.666 E8.39873
G1 X97.777 Y24.049 E8.66518
G1 X100.257 Y24.361 E8.93122
G1 X102.719 Y24.602 E9.19451
G1 X105.18 Y24.771 E9.45705
G1 X107.684 Y24.871 E9.72377
G1 X110.149 Y24.902 E9.98615
G1 X112.69 Y24.86 E10.25663
G1 X115.141 Y24.752 E10.51775
G1 X117.616 Y24.571 E10.78187
G1 X120.11 Y24.318 E11.04868
G1 X122.572 Y24 E11.31289
G1 X125.025 Y23.61 E11.57725
G1 X127.447 Y23.153 E11.83958
G1 X129.924 Y22.614 E12.10938
G1 X132.327 Y22.022 E12.37278
G1 X134.692 Y21.365 E12.63403
G1 X137.136 Y20.613 E12.90618
G1 X139.45 Y19.827 E13.16629
G1 X141.763 Y18.969 E13.42886
G1 X144.108 Y18.022 E13.69803
G1 X146.381 Y17.027 E13.96211
G1 X148.634 Y15.966 E14.22716
G1 X150.881 Y14.828 E14.49524
G1 X153.02 Y13.669 E14.75417
G1 X155.339 Y12.323 E15.03955
G1 X156.332 Y11.729 E15.1627
G1 X157.217 Y11.25 E15.26981
G1 X158.252 Y10.749 E15.39219
G1 X159.905 Y9.991 E15.58574
G1 X160.807 Y9.626 E15.6893
G1 X161.566 Y9.381 E15.77419
G1 X162.472 Y9.124 E15.87442
G1 X164.326 Y8.636 E16.07847
G1 X165.409 Y8.405 E16.19633
G1 X166.132 Y8.307 E16.27398
G1 X166.971 Y8.221 E16.36375
G1 X169.046 Y8.049 E16.58535
G1 X170.081 Y8.013 E16.69558
G1 X170.814 Y8.041 E16.77365
G1 X171.966 Y8.124 E16.89658
G1 X173.697 Y8.286 E17.08161
G1 X174.79 Y8.441 E17.19911
G1 X175.501 Y8.596 E17.27656
G1 X176.578 Y8.869 E17.39481
G1 X178.302 Y9.341 E17.58506
G1 X179.321 Y9.671 E17.69906
G1 X179.992 Y9.946 E17.77624
G1 X180.782 Y10.301 E17.86842
G1 X182.086 Y10.908 E18.02151
G1 X182.728 Y11.219 E18.09743
G1 X183.662 Y11.726 E18.21054
G1 X184.177 Y12.054 E18.27552
G1 X185.102 Y12.683 E18.39458
G1 X186.581 Y13.731 E18.58751
G1 X187.379 Y14.352 E18.69513
G1 X187.97 Y14.888 E18.78004
G1 X188.726 Y15.621 E18.89212
G1 X190.044 Y16.954 E19.09163
G1 X190.528 Y17.477 E19.16748
G1 X191.047 Y18.077 E19.25191
G1 X191.968 Y19.17 E19.40404
G1 X193.629 Y21.032 E19.6696
G1 X195.327 Y22.831 E19.9329
G1 X197.118 Y24.622 E20.20247
G1 X198.876 Y26.285 E20.46003
G1 X200.801 Y28.004 E20.73472
G1 X202.424 Y29.389 E20.9618
G1 X202.94 Y29.859 E21.03609
G1 X203.561 Y30.46 E21.12807
G1 X205.039 Y31.952 E21.35159
G1 X205.692 Y32.675 E21.45528
G1 X206.178 Y33.299 E21.53946
G1 X206.858 Y34.243 E21.66329
G1 X207.88 Y35.725 E21.85489
G1 X208.426 Y36.602 E21.96484
G1 X208.758 Y37.234 E22.04082
G1 X209.22 Y38.188 E22.15364
G1 X209.668 Y39.147 E22.2663
G1 X210.024 Y39.938 E22.35862
G1 X210.408 Y40.907 E22.46955
G1 X210.615 Y41.561 E22.54256
G1 X210.874 Y42.466 E22.64275
G1 X211.364 Y44.326 E22.84747
G1 X211.595 Y45.409 E22.96533
G1 X211.693 Y46.132 E23.04298
G1 X211.779 Y46.97 E23.13264
G1 X211.949 Y49.006 E23.35009
G1 X211.987 Y50.078 E23.46426
G1 X211.959 Y50.809 E23.54212
G1 X211.876 Y51.966 E23.66558
G1 X211.714 Y53.697 E23.85062
G1 X211.559 Y54.789 E23.96801
G1 X211.405 Y55.494 E24.04481
G1 X211.186 Y56.368 E24.14071
G1 X210.648 Y58.339 E24.35816
G1 X210.369 Y59.208 E24.4553
G1 X210.045 Y60.011 E24.54746
G1 X209.638 Y60.915 E24.65298
G1 X209.093 Y62.084 E24.79026
G1 X208.757 Y62.775 E24.87203
G1 X208.319 Y63.587 E24.97023
G1 X207.433 Y65.066 E25.15373
G1 X206.187 Y67.238 E25.42023
G1 X204.97 Y69.502 E25.6938
G1 X203.875 Y71.686 E25.95383
G1 X202.825 Y73.94 E26.21848
G1 X201.833 Y76.234 E26.48449
G1 X200.918 Y78.529 E26.74745
G1 X200.063 Y80.859 E27.01161
G1 X199.27 Y83.227 E27.2774
G1 X198.547 Y85.604 E27.54183
G1 X197.891 Y88.007 E27.80695
G1 X197.3 Y90.433 E28.0727
G1 X196.78 Y92.881 E28.33906
G1 X196.328 Y95.333 E28.60443
G1 X195.949 Y97.793 E28.86934
G1 X195.639 Y100.257 E29.13366
G1 X195.396 Y102.748 E29.40004
G1 X195.229 Y105.186 E29.66013
G1 X195.129 Y107.684 E29.92621
G1 X195.098 Y110.175 E30.19136
G1 X195.14 Y112.69 E30.45907
G1 X195.248 Y115.142 E30.7203
G1 X195.427 Y117.594 E30.98197
G1 X195.682 Y120.11 E31.25112
G1 X196 Y122.57 E31.51512
G1 X196.39 Y125.025 E31.77969
G1 X196.847 Y127.447 E32.04202
G1 X197.38 Y129.902 E32.3094
G1 X197.974 Y132.313 E32.57368
G1 X198.633 Y134.686 E32.8358
G1 X199.387 Y137.136 E33.10863
G1 X200.173 Y139.45 E33.36874
G1 X201.031 Y141.763 E33.63131
G1 X201.976 Y144.102 E33.8998
G1 X202.959 Y146.351 E34.16103
G1 X204.037 Y148.64 E34.43032
G1 X205.172 Y150.881 E34.69768
G1 X206.326 Y153.012 E34.95561
G1 X207.671 Y155.329 E35.24075
G1 X208.271 Y156.332 E35.36515
G1 X208.75 Y157.217 E35.47225
G1 X209.251 Y158.252 E35.59464
G1 X210.007 Y159.901 E35.78771
G1 X210.351 Y160.746 E35.88481
G1 X210.616 Y161.563 E35.97623
G1 X210.931 Y162.678 E36.09955
G1 X211.372 Y164.362 E36.28482
G1 X211.595 Y165.409 E36.39876
G1 X211.693 Y166.132 E36.47641
G1 X211.779 Y166.97 E36.56607
G1 X211.949 Y169.006 E36.78352
G1 X211.987 Y170.078 E36.89769
G1 X211.959 Y170.809 E36.97555
G1 X211.876 Y171.966 E37.099
G1 X211.714 Y173.697 E37.28404
G1 X211.559 Y174.789 E37.40143
G1 X211.405 Y175.494 E37.47824
G1 X211.186 Y176.368 E37.57414
G1 X210.648 Y178.339 E37.79159
G1 X210.369 Y179.208 E37.88873
G1 X210.045 Y180.011 E37.98089
G1 X209.638 Y180.915 E38.0864
G1 X209.092 Y182.086 E38.22392
G1 X208.781 Y182.728 E38.29984
G1 X208.274 Y183.662 E38.41295
G1 X207.946 Y184.177 E38.47794
G1 X207.317 Y185.102 E38.59699
G1 X206.269 Y186.581 E38.78992
G1 X205.648 Y187.379 E38.89754
G1 X205.112 Y187.97 E38.98246
G1 X204.379 Y188.726 E39.09453
G1 X203.046 Y190.044 E39.29405
G1 X202.523 Y190.528 E39.36989
G1 X201.924 Y191.047 E39.45425
G1 X200.798 Y191.996 E39.61098
G1 X198.958 Y193.639 E39.87352
G1 X197.168 Y195.328 E40.13546
G1 X195.378 Y197.118 E40.40489
G1 X193.698 Y198.894 E40.66508
G1 X192.012 Y200.783 E40.93457
G1 X190.611 Y202.424 E41.16422
G1 X190.141 Y202.94 E41.2385
G1 X189.54 Y203.561 E41.33048
G1 X188.048 Y205.039 E41.554
G1 X187.325 Y205.692 E41.65769
G1 X186.701 Y206.178 E41.74187
G1 X185.757 Y206.858 E41.8657
G1 X184.275 Y207.88 E42.0573
G1 X183.398 Y208.426 E42.16725
G1 X182.766 Y208.758 E42.24324
G1 X181.811 Y209.221 E42.35619
G1 X180.854 Y209.667 E42.46857
G1 X179.992 Y210.052 E42.56905
G1 X179.089 Y210.409 E42.67239
G1 X178.441 Y210.614 E42.74473
G1 X177.537 Y210.873 E42.84482
G1 X175.674 Y211.364 E43.04987
G1 X174.591 Y211.595 E43.16773
G1 X173.868 Y211.693 E43.24539
G1 X173.029 Y211.779 E43.33515
G1 X170.954 Y211.951 E43.55676
G1 X169.919 Y211.987 E43.66698
G1 X169.186 Y211.959 E43.74505
G1 X168.034 Y211.876 E43.86798
G1 X166.303 Y211.714 E44.05302
G1 X165.212 Y211.559 E44.1703
G1 X164.502 Y211.405 E44.24763
G1 X163.415 Y211.13 E44.36696
G1 X161.695 Y210.659 E44.55677
G1 X160.734 Y210.348 E44.66427
G1 X159.985 Y210.043 E44.75035
G1 X159.22 Y209.7 E44.83958
G1 X158.056 Y209.159 E44.97619
G1 X157.203 Y208.747 E45.07701
G1 X156.368 Y208.295 E45.17807
G1 X154.959 Y207.447 E45.3531
G1 X152.746 Y206.177 E45.62466
G1 X150.528 Y204.985 E45.89266
G1 X148.314 Y203.875 E46.15626
G1 X146.08 Y202.835 E46.41853
G1 X143.78 Y201.839 E46.68529
G1 X141.471 Y200.918 E46.94987
G1 X139.141 Y200.063 E47.21403
G1 X136.773 Y199.27 E47.47982
G1 X134.396 Y198.547 E47.74425
G1 X131.993 Y197.891 E48.00937
G1 X129.571 Y197.301 E48.27469
G1 X127.124 Y196.781 E48.54094
G1 X124.697 Y196.334 E48.8036
G1 X122.223 Y195.951 E49.07005
G1 X119.743 Y195.639 E49.33608
G1 X117.281 Y195.398 E49.59937
G1 X114.82 Y195.229 E49.86192
G1 X112.316 Y195.129 E50.12864
G1 X109.851 Y195.098 E50.39101
G1 X107.31 Y195.14 E50.6615
G1 X104.859 Y195.248 E50.92261
G1 X102.384 Y195.429 E51.18674
G1 X99.89 Y195.682 E51.45354
G1 X97.43 Y196 E51.71755
G1 X94.975 Y196.39 E51.98211
G1 X92.553 Y196.847 E52.24444
G1 X90.076 Y197.386 E52.51424
G1 X87.673 Y197.978 E52.77765
G1 X85.308 Y198.635 E53.03889
G1 X82.864 Y199.387 E53.31105
G1 X80.55 Y200.173 E53.57115
G1 X78.237 Y201.031 E53.83372
G1 X75.892 Y201.978 E54.10289
G1 X73.619 Y202.972 E54.36693
G1 X71.369 Y204.033 E54.6317
G1 X69.119 Y205.172 E54.9001
G1 X66.988 Y206.326 E55.15803
G1 X64.661 Y207.677 E55.44442
G1 X63.668 Y208.271 E55.56757
G1 X62.783 Y208.75 E55.67467
G1 X61.748 Y209.251 E55.79706
G1 X60.095 Y210.009 E55.99061
G1 X59.193 Y210.374 E56.09417
G1 X58.434 Y210.619 E56.17906
G1 X57.528 Y210.876 E56.27929
G1 X55.674 Y211.364 E56.48334
G1 X54.591 Y211.595 E56.6012
G1 X53.868 Y211.693 E56.67885
G1 X53.029 Y211.779 E56.76861
G1 X50.954 Y211.951 E56.99022
G1 X49.919 Y211.987 E57.10044
G1 X49.186 Y211.959 E57.17851
G1 X48.034 Y211.876 E57.30144
G1 X46.303 Y211.714 E57.48648
G1 X45.212 Y211.559 E57.60377
G1 X44.502 Y211.405 E57.68109
G1 X43.415 Y211.13 E57.80043
G1 X41.695 Y210.659 E57.99023
G1 X40.734 Y210.348 E58.09774
G1 X39.985 Y210.043 E58.18381
G1 X39.218 Y209.699 E58.27328
G1 X37.914 Y209.092 E58.42636
G1 X37.272 Y208.781 E58.50229
G1 X36.338 Y208.274 E58.6154
G1 X35.823 Y207.946 E58.68038
G1 X34.898 Y207.317 E58.79944
G1 X33.419 Y206.269 E58.99237
G1 X32.621 Y205.648 E59.09999
G1 X32.03 Y205.112 E59.1849
G1 X31.274 Y204.379 E59.29698
G1 X29.955 Y203.045 E59.49664
G1 X29.47 Y202.521 E59.57264
G1 X28.953 Y201.924 E59.65669
G1 X28.004 Y200.798 E59.81342
G1 X26.361 Y198.958 E60.07597
G1 X24.672 Y197.168 E60.3379
G1 X22.882 Y195.378 E60.60733
G1 X21.106 Y193.698 E60.86753
G1 X19.192 Y191.989 E61.14063
G1 X17.575 Y190.609 E61.36688
G1 X17.058 Y190.138 E61.44132
G1 X16.274 Y189.378 E61.55753
G1 X15.009 Y188.1 E61.74892
G1 X14.308 Y187.325 E61.86014
G1 X13.822 Y186.701 E61.94432
G1 X13.142 Y185.757 E62.06815
G1 X12.12 Y184.275 E62.25975
G1 X11.574 Y183.398 E62.3697
G1 X11.241 Y182.764 E62.44592
G1 X10.77 Y181.792 E62.56088
G1 X10.331 Y180.852 E62.6713
G1 X9.976 Y180.062 E62.76348
G1 X9.592 Y179.093 E62.87442
G1 X9.385 Y178.439 E62.94743
G1 X9.126 Y177.534 E63.04762
G1 X8.636 Y175.674 E63.25233
G1 X8.405 Y174.591 E63.37019
G1 X8.307 Y173.868 E63.44785
G1 X8.221 Y173.03 E63.53751
G1 X8.051 Y170.994 E63.75496
G1 X8.013 Y169.922 E63.86912
G1 X8.041 Y169.191 E63.94698
G1 X8.124 Y168.034 E64.07044
G1 X8.286 Y166.303 E64.25548
G1 X8.441 Y165.211 E64.37287
G1 X8.595 Y164.506 E64.44967
G1 X8.814 Y163.632 E64.54557
G1 X9.352 Y161.661 E64.76303
G1 X9.631 Y160.792 E64.86017
G1 X9.955 Y159.989 E64.95233
G1 X10.362 Y159.085 E65.05784
G1 X10.908 Y157.914 E65.19536
G1 X11.235 Y157.24 E65.27509
G1 X11.738 Y156.312 E65.38743
G1 X12.564 Y154.939 E65.55797
G1 X13.815 Y152.76 E65.82539
G1 X15.016 Y150.526 E66.09534
G1 X16.111 Y148.34 E66.35556
G1 X17.175 Y146.06 E66.62335
G1 X18.167 Y143.766 E66.88936
G1 X19.082 Y141.471 E67.15232
G1 X19.939 Y139.137 E67.41695
G1 X20.73 Y136.773 E67.68226
G1 X21.453 Y134.396 E67.9467
G1 X22.109 Y131.993 E68.21181
G1 X22.7 Y129.567 E68.47757
G1 X23.22 Y127.119 E68.74393
G1 X23.672 Y124.667 E69.0093
G1 X24.051 Y122.207 E69.27421
G1 X24.361 Y119.743 E69.53853
G1 X24.604 Y117.252 E69.80491
G1 X24.771 Y114.814 E70.065
G1 X24.871 Y112.316 E70.33108
G1 X24.902 Y109.825 E70.59623
G1 X24.86 Y107.31 E70.86394
G1 X24.752 Y104.855 E71.12549
G1 X24.57 Y102.361 E71.39163
G1 X24.318 Y99.89 E71.65599
G1 X23.997 Y97.411 E71.92204
G1 X23.607 Y94.958 E72.1864
G1 X23.147 Y92.518 E72.45067
G1 X22.619 Y90.09 E72.71513
G1 X22.019 Y87.662 E72.98132
G1 X21.358 Y85.283 E73.24411
G1 X20.62 Y82.884 E73.51125
G1 X19.83 Y80.559 E73.7726
G1 X18.966 Y78.23 E74.03699
G1 X18.017 Y75.881 E74.30663
G1 X17.016 Y73.593 E74.57244
G1 X15.967 Y71.369 E74.83415
G1 X14.828 Y69.119 E75.10256
G1 X13.674 Y66.988 E75.36049
G1 X12.3 Y64.62 E75.65188
G1 X11.712 Y63.638 E75.7737
G1 X11.265 Y62.812 E75.87366
G1 X10.739 Y61.725 E76.00218
G1 X9.99 Y60.091 E76.19349
G1 X9.625 Y59.188 E76.29716
G1 X9.384 Y58.437 E76.3811
G1 X9.125 Y57.531 E76.48139
G1 X8.636 Y55.674 E76.68577
G1 X8.405 Y54.591 E76.80363
G1 X8.307 Y53.868 E76.88129
G1 X8.221 Y53.03 E76.97095
G1 X8.051 Y50.994 E77.1884
G1 X8.013 Y49.922 E77.30256
G1 X8.041 Y49.191 E77.38042
G1 X8.124 Y48.034 E77.50388
G1 X8.286 Y46.303 E77.68892
G1 X8.441 Y45.211 E77.80631
G1 X8.595 Y44.506 E77.88312
G1 X8.814 Y43.632 E77.97901
G1 X9.352 Y41.661 E78.19647
G1 X9.631 Y40.792 E78.29361
G1 X9.955 Y39.989 E78.38577
G1 X10.362 Y39.085 E78.49128
G1 X10.908 Y37.914 E78.6288
G1 X11.219 Y37.272 E78.70472
G1 X11.726 Y36.338 E78.81783
G1 X12.054 Y35.823 E78.88282
G1 X12.683 Y34.898 E79.00187
G1 X13.731 Y33.419 E79.1948
G1 X14.352 Y32.621 E79.30242
G1 X14.888 Y32.03 E79.38734
G1 X15.621 Y31.274 E79.49941
G1 X16.954 Y29.956 E79.69893
G1 X17.477 Y29.472 E79.77477
G1 X18.076 Y28.953 E79.85912
G1 X19.202 Y28.004 E80.01585
G1 X21.042 Y26.361 E80.2784
G1 X22.832 Y24.672 E80.54034
G1 X24.622 Y22.882 E80.80976
G0 F6000 X25.188 Y23.448
G1 F900 X26.9 Y21.638 E81.07493
G1 X28.585 Y19.75 E81.34426
G1 X29.981 Y18.114 E81.57316
G1 X30.434 Y17.616 E81.64481
G1 X31.023 Y17.007 E81.73499
G1 X32.488 Y15.555 E81.95452
G1 X33.211 Y14.902 E82.05821
G1 X33.767 Y14.471 E82.13308
G1 X34.697 Y13.8 E82.25514
G1 X36.149 Y12.798 E82.44291
G1 X36.974 Y12.282 E82.54647
G1 X37.583 Y11.962 E82.61969
G1 X38.526 Y11.505 E82.73122
G1 X39.475 Y11.062 E82.84269
G1 X40.266 Y10.706 E82.93501
G1 X41.201 Y10.336 E83.04204
G1 X41.781 Y10.154 E83.10673
G1 X42.67 Y9.9 E83.20514
G1 X44.53 Y9.41 E83.40986
G1 X45.517 Y9.198 E83.5173
G1 X46.214 Y9.103 E83.59217
G1 X47.037 Y9.018 E83.68023
G1 X49.076 Y8.848 E83.898
G1 X50.05 Y8.812 E84.00174
G1 X50.756 Y8.839 E84.07693
G1 X51.891 Y8.921 E84.19805
G1 X53.622 Y9.083 E84.38309
G1 X54.62 Y9.223 E84.49035
G1 X55.305 Y9.372 E84.56496
G1 X56.367 Y9.641 E84.68156
G1 X58.091 Y10.113 E84.8718
G1 X59.018 Y10.412 E84.97547
G1 X59.664 Y10.676 E85.04974
G1 X60.443 Y11.026 E85.14064
G1 X61.729 Y11.623 E85.29154
G1 X62.359 Y11.927 E85.36599
G1 X63.209 Y12.385 E85.46876
G1 X64.694 Y13.276 E85.65308
G1 X66.875 Y14.528 E85.92073
G1 X69.094 Y15.72 E86.18882
G1 X71.321 Y16.837 E86.45399
G1 X73.592 Y17.895 E86.72064
G1 X75.909 Y18.898 E86.98936
G1 X78.253 Y19.833 E87.25796
G1 X80.605 Y20.696 E87.5246
