;FLAVOR:Marlin
;TIME:23775
;Filament used: 45.1894m
;Layer height: 0.32
;MINX:8.013
;MINY:8.013
;MINZ:0.32
;MAXX:211.987
;MAXY:211.987
;MAXZ:25.16
;TARGET_MACHINE.NAME:Creality Ender-3 Pro
;Generated with Cura_SteamEngine 5.5.0
M82 ;absolute extrusion mode
; Ender 3 Custom Start G-code
G92 E0 ; Reset Extruder
G28 ; Home all axes
G1 Z5.0 F3000 ; Move Z Axis up a bit during heating to not damage bed
M104 S120 ; Start heating up the nozzle most of the way
M190 S80 ; Start heating the bed, wait until target temperature reached
M109 S220 ; Finish heating the nozzle
G1 Z2.0 F3000 ; Move Z Axis up little to prevent scratching of Heat Bed
G1 X0.1 Y20 Z0.3 F5000.0 ; Move to start position
G1 X0.1 Y200.0 Z0.3 F1500.0 E15 ; Draw the first line
G1 X0.4 Y200.0 Z0.3 F5000.0 ; Move to side a little
G1 X0.4 Y20 Z0.3 F1500.0 E30 ; Draw the second line
G92 E0 ; Reset Extruder
G1 Z2.0 F3000 ; Move Z Axis up little to prevent scratching of Heat Bed
G1 X5 Y20 Z0.3 F5000.0 ; Move over to prevent blob squish
G92 E0
G92 E0
G1 F1500 E-6.5
;LAYER_COUNT:78
;LAYER:0
M107
G1 F300 Z0.52
G0 F6000 X24.433 Y26.048 Z0.52
;TYPE:SKIRT
G1 F300 Z0.32
G1 F1500 E0
G1 F900 X26.148 Y24.33 E0.25836
G1 X27.873 Y22.505 E0.52564
G1 X29.511 Y20.668 E0.78759
G1 X31.443 Y18.364 E1.10762
G1 X31.894 Y17.809 E1.18373
G1 X32.551 Y17.067 E1.28921
G1 X33.152 Y16.446 E1.38119
G1 X34.656 Y14.957 E1.60645
G1 X35.378 Y14.306 E1.70992
G1 X35.999 Y13.822 E1.79371
G1 X36.943 Y13.142 E1.91754
G1 X38.425 Y12.12 E2.10914
G1 X39.302 Y11.574 E2.21909
G1 X39.934 Y11.242 E2.29508
G1 X40.888 Y10.78 E2.40789
G1 X41.847 Y10.332 E2.52055
G1 X42.638 Y9.976 E2.61287
G1 X43.607 Y9.592 E2.72381
G1 X44.261 Y9.385 E2.79682
G1 X45.166 Y9.126 E2.897
G1 X47.026 Y8.636 E3.10172
G1 X48.109 Y8.405 E3.21958
G1 X48.832 Y8.307 E3.29724
G1 X49.671 Y8.221 E3.387
G1 X51.746 Y8.049 E3.60861
G1 X52.781 Y8.013 E3.71883
G1 X53.514 Y8.041 E3.7969
G1 X54.666 Y8.124 E3.91983
G1 X56.397 Y8.286 E4.10487
G1 X57.49 Y8.441 E4.22236
G1 X58.201 Y8.596 E4.29982
G1 X59.278 Y8.869 E4.41807
G1 X61.002 Y9.341 E4.60831
G1 X62.021 Y9.671 E4.72231
G1 X62.667 Y9.935 E4.79659
G1 X63.481 Y10.3 E4.89153
G1 X64.645 Y10.841 E5.02815
G1 X65.447 Y11.228 E5.12292
G1 X66.001 Y11.516 E5.18938
G1 X69.082 Y13.199 E5.56303
G1 X71.283 Y14.316 E5.82573
G1 X73.519 Y15.374 E6.08901
G1 X75.808 Y16.376 E6.35495
G1 X78.141 Y17.322 E6.6229
G1 X80.448 Y18.182 E6.88494
G1 X82.818 Y18.989 E7.15141
G1 X85.176 Y19.718 E7.4141
G1 X87.595 Y20.392 E7.68136
G1 X90.006 Y20.99 E7.94575
G1 X92.461 Y21.527 E8.21322
G1 X94.878 Y21.984 E8.47502
G1 X97.345 Y22.378 E8.74092
G1 X99.78 Y22.698 E9.00231
G1 X102.268 Y22.953 E9.2685
G1 X104.814 Y23.141 E9.54022
G1 X107.234 Y23.251 E9.79805
G1 X109.742 Y23.294 E10.06502
G1 X112.239 Y23.266 E10.3308
G1 X114.699 Y23.17 E10.59282
G1 X117.208 Y23 E10.86047
G1 X119.654 Y22.763 E11.12203
G1 X122.129 Y22.454 E11.38749
G1 X124.637 Y22.068 E11.65757
G1 X127.03 Y21.63 E11.91649
G1 X129.467 Y21.114 E12.18162
G1 X131.936 Y20.517 E12.45197
G1 X134.257 Y19.885 E12.708
G1 X136.733 Y19.136 E12.98332
G1 X139.069 Y18.356 E13.24544
G1 X141.379 Y17.511 E13.50723
G1 X143.689 Y16.592 E13.77183
G1 X146.021 Y15.586 E14.04214
G1 X148.198 Y14.572 E14.29774
G1 X150.499 Y13.422 E14.57153
G1 X153.182 Y11.975 E14.89597
G1 X153.909 Y11.567 E14.9847
G1 X154.494 Y11.262 E15.05491
G1 X155.332 Y10.853 E15.15416
G1 X156.447 Y10.332 E15.28515
G1 X157.238 Y9.976 E15.37747
G1 X158.207 Y9.592 E15.48841
G1 X158.861 Y9.385 E15.56142
G1 X159.766 Y9.126 E15.6616
G1 X161.626 Y8.636 E15.86632
G1 X162.709 Y8.405 E15.98418
G1 X163.432 Y8.307 E16.06184
G1 X164.271 Y8.221 E16.1516
G1 X166.346 Y8.049 E16.37321
G1 X167.381 Y8.013 E16.48343
G1 X168.114 Y8.041 E16.5615
G1 X169.266 Y8.124 E16.68443
G1 X170.997 Y8.286 E16.86947
G1 X172.09 Y8.441 E16.98696
G1 X172.801 Y8.596 E17.06441
G1 X173.878 Y8.869 E17.18267
G1 X175.602 Y9.341 E17.37291
G1 X176.621 Y9.671 E17.48691
G1 X177.292 Y9.946 E17.56409
G1 X178.082 Y10.301 E17.65627
G1 X179.386 Y10.908 E17.80936
G1 X180.028 Y11.219 E17.88528
G1 X180.962 Y11.726 E17.99839
G1 X181.477 Y12.054 E18.06338
G1 X182.402 Y12.683 E18.18244
G1 X183.881 Y13.731 E18.37536
G1 X184.679 Y14.352 E18.48298
G1 X185.27 Y14.888 E18.5679
G1 X186.026 Y15.621 E18.67997
G1 X187.308 Y16.916 E18.87392
G1 X188.055 Y17.746 E18.99277
G1 X188.901 Y18.775 E19.13455
G1 X190.559 Y20.741 E19.40827
G1 X192.223 Y22.604 E19.67413
G1 X193.951 Y24.432 E19.94186
G1 X195.655 Y26.133 E20.19812
G1 X197.508 Y27.885 E20.46953
G1 X199.322 Y29.502 E20.72817
G1 X201.625 Y31.434 E21.04811
G1 X202.191 Y31.894 E21.12574
G1 X202.933 Y32.551 E21.23122
G1 X203.554 Y33.152 E21.3232
G1 X205.043 Y34.656 E21.54845
G1 X205.694 Y35.378 E21.65192
G1 X206.178 Y35.999 E21.73572
G1 X206.858 Y36.943 E21.85955
G1 X207.88 Y38.425 E22.05115
G1 X208.426 Y39.302 E22.1611
G1 X208.758 Y39.934 E22.23708
G1 X209.22 Y40.888 E22.3499
G1 X209.668 Y41.847 E22.46256
G1 X210.024 Y42.638 E22.55488
G1 X210.408 Y43.607 E22.66581
G1 X210.615 Y44.261 E22.73882
G1 X210.874 Y45.166 E22.83901
G1 X211.364 Y47.026 E23.04373
G1 X211.595 Y48.109 E23.16159
G1 X211.693 Y48.832 E23.23924
G1 X211.779 Y49.67 E23.3289
G1 X211.949 Y51.706 E23.54635
G1 X211.987 Y52.778 E23.66052
G1 X211.959 Y53.509 E23.73838
G1 X211.876 Y54.666 E23.86184
G1 X211.714 Y56.397 E24.04688
G1 X211.559 Y57.489 E24.16427
G1 X211.405 Y58.194 E24.24107
G1 X211.186 Y59.068 E24.33697
G1 X210.648 Y61.039 E24.55442
G1 X210.369 Y61.908 E24.65156
G1 X210.049 Y62.7 E24.74248
G1 X209.644 Y63.603 E24.84781
G1 X209.157 Y64.649 E24.97061
G1 X208.772 Y65.447 E25.06491
G1 X208.484 Y66.001 E25.13137
G1 X207.803 Y67.234 E25.28129
G1 X206.801 Y69.081 E25.50493
G1 X205.684 Y71.283 E25.76772
G1 X204.626 Y73.519 E26.031
G1 X203.624 Y75.808 E26.29695
G1 X202.678 Y78.141 E26.56489
G1 X201.818 Y80.448 E26.82693
G1 X201.009 Y82.824 E27.09407
G1 X200.282 Y85.176 E27.35609
G1 X199.608 Y87.595 E27.62336
G1 X199.01 Y90.006 E27.88774
G1 X198.473 Y92.461 E28.15521
G1 X198.011 Y94.905 E28.41994
G1 X197.62 Y97.353 E28.68379
G1 X197.302 Y99.78 E28.94431
G1 X197.045 Y102.294 E29.21327
G1 X196.859 Y104.814 E29.48221
G1 X196.749 Y107.234 E29.74004
G1 X196.706 Y109.76 E30.00893
G1 X196.734 Y112.239 E30.27279
G1 X196.83 Y114.694 E30.53429
G1 X196.998 Y117.178 E30.79927
G1 X197.237 Y119.654 E31.06402
G1 X197.544 Y122.12 E31.32851
G1 X197.932 Y124.635 E31.59935
G1 X198.37 Y127.032 E31.85869
G1 X198.88 Y129.445 E32.12119
G1 X199.483 Y131.936 E32.39397
G1 X200.115 Y134.257 E32.64999
G1 X200.864 Y136.733 E32.92531
G1 X201.644 Y139.067 E33.18723
G1 X202.481 Y141.359 E33.44693
G1 X203.408 Y143.689 E33.71383
G1 X204.414 Y146.021 E33.98414
G1 X205.428 Y148.198 E34.23974
G1 X206.578 Y150.499 E34.51352
G1 X208.025 Y153.182 E34.83797
G1 X208.433 Y153.909 E34.92669
G1 X208.738 Y154.494 E34.99691
G1 X209.147 Y155.334 E35.09635
G1 X209.703 Y156.524 E35.23615
G1 X210.034 Y157.262 E35.32223
G1 X210.423 Y158.248 E35.43505
G1 X210.603 Y158.816 E35.49846
G1 X210.874 Y159.766 E35.60361
G1 X211.364 Y161.626 E35.80833
G1 X211.595 Y162.709 E35.92618
G1 X211.693 Y163.432 E36.00384
G1 X211.779 Y164.27 E36.0935
G1 X211.949 Y166.306 E36.31095
G1 X211.987 Y167.378 E36.42512
G1 X211.959 Y168.109 E36.50297
G1 X211.876 Y169.266 E36.62643
G1 X211.714 Y170.997 E36.81147
G1 X211.559 Y172.089 E36.92886
G1 X211.405 Y172.794 E37.00567
G1 X211.186 Y173.668 E37.10156
G1 X210.648 Y175.639 E37.31902
G1 X210.369 Y176.508 E37.41616
G1 X210.045 Y177.311 E37.50832
G1 X209.638 Y178.215 E37.61383
G1 X209.092 Y179.386 E37.75135
G1 X208.781 Y180.028 E37.82727
G1 X208.274 Y180.962 E37.94038
G1 X207.946 Y181.477 E38.00537
G1 X207.317 Y182.402 E38.12442
G1 X206.269 Y183.881 E38.31735
G1 X205.648 Y184.679 E38.42497
G1 X205.112 Y185.27 E38.50989
G1 X204.42 Y185.983 E38.61564
G1 X203.481 Y186.922 E38.75698
G1 X202.974 Y187.413 E38.83209
G1 X202.239 Y188.067 E38.93681
G1 X201.233 Y188.894 E39.07541
G1 X199.234 Y190.58 E39.35374
G1 X197.401 Y192.218 E39.61538
G1 X195.57 Y193.95 E39.88363
G1 X193.867 Y195.656 E40.14019
G1 X192.115 Y197.509 E40.4116
G1 X190.494 Y199.327 E40.67084
G1 X188.563 Y201.63 E40.99072
G1 X188.084 Y202.218 E41.07144
G1 X187.488 Y202.89 E41.16704
G1 X186.678 Y203.726 E41.29093
G1 X185.4 Y204.991 E41.48231
G1 X184.625 Y205.692 E41.59354
G1 X184.001 Y206.178 E41.67772
G1 X183.057 Y206.858 E41.80154
G1 X181.575 Y207.88 E41.99314
G1 X180.698 Y208.426 E42.1031
G1 X180.066 Y208.758 E42.17908
G1 X179.111 Y209.221 E42.29204
G1 X178.154 Y209.667 E42.40441
G1 X177.292 Y210.052 E42.50489
G1 X176.389 Y210.409 E42.60824
G1 X175.741 Y210.614 E42.68058
G1 X174.837 Y210.873 E42.78066
G1 X172.974 Y211.364 E42.98572
G1 X171.891 Y211.595 E43.10357
G1 X171.168 Y211.693 E43.18123
G1 X170.329 Y211.779 E43.27099
G1 X168.254 Y211.951 E43.4926
G1 X167.219 Y211.987 E43.60282
G1 X166.486 Y211.959 E43.68089
G1 X165.334 Y211.876 E43.80382
G1 X163.603 Y211.714 E43.98886
G1 X162.512 Y211.559 E44.10615
G1 X161.802 Y211.405 E44.18347
G1 X160.715 Y211.13 E44.30281
G1 X158.995 Y210.659 E44.49261
G1 X158.034 Y210.348 E44.60011
G1 X157.285 Y210.043 E44.68619
G1 X156.519 Y209.7 E44.77552
G1 X155.355 Y209.159 E44.91213
G1 X154.553 Y208.772 E45.00691
G1 X153.999 Y208.484 E45.07336
G1 X152.766 Y207.803 E45.22328
G1 X150.94 Y206.813 E45.44435
G1 X148.717 Y205.684 E45.70972
G1 X146.481 Y204.626 E45.97299
G1 X144.192 Y203.624 E46.23894
G1 X141.859 Y202.678 E46.50688
G1 X139.552 Y201.818 E46.76893
G1 X137.182 Y201.011 E47.03539
G1 X134.824 Y200.282 E47.29808
G1 X132.405 Y199.608 E47.56535
G1 X129.994 Y199.01 E47.82973
G1 X127.539 Y198.473 E48.0972
G1 X125.122 Y198.016 E48.35901
G1 X122.655 Y197.622 E48.6249
G1 X120.22 Y197.302 E48.88629
G1 X117.732 Y197.047 E49.15249
G1 X115.186 Y196.859 E49.4242
G1 X112.766 Y196.749 E49.68203
G1 X110.258 Y196.706 E49.949
G1 X107.761 Y196.734 E50.21478
G1 X105.301 Y196.83 E50.47681
G1 X102.792 Y197 E50.74446
G1 X100.346 Y197.237 E51.00601
G1 X97.871 Y197.546 E51.27148
G1 X95.363 Y197.932 E51.54155
G1 X92.968 Y198.37 E51.80068
G1 X90.533 Y198.886 E52.0656
G1 X88.064 Y199.483 E52.33596
G1 X85.743 Y200.115 E52.59198
G1 X83.267 Y200.864 E52.8673
G1 X80.931 Y201.644 E53.12942
G1 X78.621 Y202.489 E53.39121
G1 X76.311 Y203.408 E53.65581
G1 X73.979 Y204.414 E53.92612
G1 X71.802 Y205.428 E54.18173
G1 X69.501 Y206.578 E54.45551
G1 X66.843 Y208.012 E54.77696
G1 X66.092 Y208.433 E54.86859
G1 X65.504 Y208.74 E54.93919
G1 X64.511 Y209.221 E55.05662
G1 X63.554 Y209.667 E55.16899
G1 X62.692 Y210.052 E55.26947
G1 X61.789 Y210.409 E55.37282
G1 X61.141 Y210.614 E55.44516
G1 X60.237 Y210.873 E55.54524
G1 X58.374 Y211.364 E55.7503
G1 X57.291 Y211.595 E55.86816
G1 X56.568 Y211.693 E55.94581
G1 X55.729 Y211.779 E56.03558
G1 X53.654 Y211.951 E56.25718
G1 X52.619 Y211.987 E56.36741
G1 X51.886 Y211.959 E56.44548
G1 X50.734 Y211.876 E56.56841
G1 X49.003 Y211.714 E56.75345
G1 X47.912 Y211.559 E56.87073
G1 X47.202 Y211.405 E56.94805
G1 X46.115 Y211.13 E57.06739
G1 X44.395 Y210.659 E57.25719
G1 X43.434 Y210.348 E57.3647
G1 X42.685 Y210.043 E57.45077
G1 X41.918 Y209.699 E57.54024
G1 X40.614 Y209.092 E57.69333
G1 X39.941 Y208.765 E57.77296
G1 X39.091 Y208.305 E57.87583
G1 X38.527 Y207.949 E57.94682
G1 X37.588 Y207.31 E58.0677
G1 X36.088 Y206.247 E58.26337
G1 X35.368 Y205.688 E58.36039
G1 X34.73 Y205.112 E58.45187
G1 X33.974 Y204.379 E58.56395
G1 X32.691 Y203.083 E58.75804
G1 X31.942 Y202.251 E58.87719
G1 X31.085 Y201.206 E59.02103
G1 X29.468 Y199.289 E59.28796
G1 X27.761 Y197.378 E59.56068
G1 X26.048 Y195.567 E59.82599
G1 X24.345 Y193.867 E60.0821
G1 X22.491 Y192.114 E60.35366
G1 X20.678 Y190.498 E60.61215
G1 X18.388 Y188.577 E60.93028
G1 X17.78 Y188.082 E61.01373
G1 X17.066 Y187.448 E61.11536
G1 X16.446 Y186.848 E61.20718
G1 X14.957 Y185.344 E61.43244
G1 X14.306 Y184.622 E61.53591
G1 X13.822 Y184.001 E61.6197
G1 X13.142 Y183.057 E61.74353
G1 X12.12 Y181.575 E61.93513
G1 X11.574 Y180.698 E62.04508
G1 X11.241 Y180.064 E62.1213
G1 X10.77 Y179.092 E62.23626
G1 X10.331 Y178.152 E62.34668
G1 X9.976 Y177.362 E62.43886
G1 X9.592 Y176.393 E62.5498
G1 X9.385 Y175.739 E62.62281
G1 X9.126 Y174.834 E62.723
G1 X8.636 Y172.974 E62.92772
G1 X8.405 Y171.891 E63.04558
G1 X8.307 Y171.168 E63.12323
G1 X8.221 Y170.33 E63.21289
G1 X8.051 Y168.294 E63.43034
G1 X8.013 Y167.222 E63.54451
G1 X8.041 Y166.491 E63.62237
G1 X8.124 Y165.334 E63.74582
G1 X8.286 Y163.603 E63.93086
G1 X8.441 Y162.511 E64.04825
G1 X8.595 Y161.806 E64.12506
G1 X8.814 Y160.932 E64.22095
G1 X9.352 Y158.961 E64.43841
G1 X9.631 Y158.092 E64.53555
G1 X9.951 Y157.3 E64.62646
G1 X10.366 Y156.373 E64.73456
G1 X10.908 Y155.215 E64.87064
G1 X11.235 Y154.539 E64.95057
G1 X11.513 Y154.003 E65.01483
G1 X13.201 Y150.914 E65.38949
G1 X14.32 Y148.709 E65.65266
G1 X15.374 Y146.481 E65.91499
G1 X16.376 Y144.192 E66.18093
G1 X17.314 Y141.879 E66.44658
G1 X18.189 Y139.531 E66.71327
G1 X19.002 Y137.144 E66.98166
G1 X19.718 Y134.824 E67.24007
G1 X20.392 Y132.405 E67.50734
G1 X20.99 Y129.994 E67.77172
G1 X21.527 Y127.539 E68.03919
G1 X21.989 Y125.095 E68.30392
G1 X22.38 Y122.647 E68.56777
G1 X22.698 Y120.219 E68.8284
G1 X22.955 Y117.706 E69.09726
G1 X23.141 Y115.186 E69.36619
G1 X23.251 Y112.766 E69.62403
G1 X23.294 Y110.24 E69.89291
G1 X23.266 Y107.761 E70.15678
G1 X23.17 Y105.308 E70.41806
G1 X22.997 Y102.775 E70.68828
G1 X22.764 Y100.349 E70.94767
G1 X22.455 Y97.874 E71.21314
G1 X22.07 Y95.373 E71.48246
G1 X21.629 Y92.962 E71.74332
G1 X21.11 Y90.511 E72.00997
G1 X20.523 Y88.088 E72.27532
G1 X19.871 Y85.695 E72.5393
G1 X19.14 Y83.278 E72.80805
G1 X18.364 Y80.953 E73.06893
G1 X17.499 Y78.588 E73.33695
G1 X16.592 Y76.311 E73.59781
G1 X15.586 Y73.979 E73.86812
G1 X14.572 Y71.802 E74.12373
G1 X13.422 Y69.501 E74.39751
G1 X11.975 Y66.818 E74.72195
G1 X11.567 Y66.092 E74.81059
G1 X11.259 Y65.502 E74.88143
G1 X10.77 Y64.492 E75.00086
G1 X10.331 Y63.552 E75.11128
G1 X9.976 Y62.762 E75.20346
G1 X9.592 Y61.793 E75.31439
G1 X9.385 Y61.139 E75.38741
G1 X9.126 Y60.234 E75.48759
G1 X8.636 Y58.374 E75.69231
G1 X8.405 Y57.291 E75.81017
G1 X8.307 Y56.568 E75.88783
G1 X8.221 Y55.73 E75.97748
G1 X8.051 Y53.694 E76.19493
G1 X8.013 Y52.622 E76.3091
G1 X8.041 Y51.891 E76.38696
G1 X8.124 Y50.734 E76.51042
G1 X8.286 Y49.003 E76.69546
G1 X8.441 Y47.911 E76.81285
G1 X8.595 Y47.206 E76.88965
G1 X8.814 Y46.332 E76.98555
G1 X9.352 Y44.361 E77.203
G1 X9.631 Y43.492 E77.30014
G1 X9.955 Y42.689 E77.3923
G1 X10.362 Y41.785 E77.49782
G1 X10.908 Y40.614 E77.63533
G1 X11.219 Y39.972 E77.71126
G1 X11.726 Y39.038 E77.82437
G1 X12.054 Y38.523 E77.88935
G1 X12.683 Y37.598 E78.00841
G1 X13.731 Y36.119 E78.20134
G1 X14.352 Y35.321 E78.30896
G1 X14.888 Y34.73 E78.39387
G1 X15.621 Y33.974 E78.50595
G1 X16.916 Y32.692 E78.69989
G1 X17.746 Y31.945 E78.81874
G1 X18.775 Y31.099 E78.96052
G1 X20.745 Y29.438 E79.23478
G1 X22.627 Y27.756 E79.50342
G1 X24.433 Y26.048 E79.76798
G0 F6000 X24.983 Y26.629
G1 F900 X26.729 Y24.88 E80.03102
G1 X28.454 Y23.055 E80.29829
G1 X30.116 Y21.191 E80.56409
G1 X32.063 Y18.87 E80.88653
G1 X32.515 Y18.314 E80.96279
G1 X33.127 Y17.623 E81.06103
G1 X33.715 Y17.014 E81.15113
G1 X35.192 Y15.551 E81.3724
G1 X35.914 Y14.9 E81.47586
G1 X36.467 Y14.471 E81.55036
G1 X37.397 Y13.8 E81.67241
G1 X38.849 Y12.798 E81.86018
G1 X39.674 Y12.282 E81.96374
G1 X40.283 Y11.962 E82.03697
G1 X41.226 Y11.505 E82.1485
G1 X42.175 Y11.062 E82.25996
G1 X42.966 Y10.706 E82.35229
G1 X43.901 Y10.336 E82.45931
G1 X44.481 Y10.154 E82.52401
G1 X45.37 Y9.9 E82.62241
G1 X47.23 Y9.41 E82.82713
G1 X48.217 Y9.198 E82.93457
G1 X48.914 Y9.103 E83.00944
G1 X49.737 Y9.018 E83.0975
G1 X51.776 Y8.848 E83.31527
G1 X52.75 Y8.812 E83.41901
G1 X53.456 Y8.839 E83.4942
G1 X54.591 Y8.921 E83.61532
G1 X56.322 Y9.083 E83.80036
G1 X57.32 Y9.223 E83.90762
G1 X58.005 Y9.372 E83.98223
G1 X59.067 Y9.641 E84.09883
G1 X60.791 Y10.113 E84.28907
G1 X61.718 Y10.412 E84.39274
G1 X62.364 Y10.676 E84.46702
G1 X63.143 Y11.025 E84.55787
G1 X64.297 Y11.562 E84.69334
G1 X65.099 Y11.949 E84.78812
G1 X65.614 Y12.216 E84.84986
G1 X66.824 Y12.884 E84.99696
G1 X68.7 Y13.902 E85.22413
G1 X70.941 Y15.039 E85.49159
G1 X73.198 Y16.107 E85.75734
G1 X75.487 Y17.109 E86.02329
G1 X77.862 Y18.072 E86.29605
