;FLAVOR:Marlin
;TIME:8666
;Filament used: 6.62029m
;Layer height: 0.2
;MINX:80.201
;MINY:80.21
;MINZ:0.2
;MAXX:139.799
;MAXY:139.791
;MAXZ:35
;Generated with Cura_SteamEngine 5.3.1
M82 ;absolute extrusion mode
; Ender 3 Custom Start G-code
G92 E0 ; Reset Extruder
G28 ; Home all axes
M104 S175 ; Start heating up the nozzle most of the way
M190 S60 ; Start heating the bed, wait until target temperature reached
M109 S200 ; Finish heating the nozzle
G1 Z2.0 F3000 ; Move Z Axis up little to prevent scratching of Heat Bed
G1 X0.1 Y20 Z0.3 F5000.0 ; Move to start position
G1 X0.1 Y200.0 Z0.3 F1500.0 E15 ; Draw the first line
G1 X0.4 Y200.0 Z0.3 F5000.0 ; Move to side a little
G1 X0.4 Y20 Z0.3 F1500.0 E30 ; Draw the second line
G92 E0 ; Reset Extruder
G1 Z2.0 F3000 ; Move Z Axis up little to prevent scratching of Heat Bed
G1 X5 Y20 Z0.3 F5000.0 ; Move over to prevent blob squish
G92 E0
G92 E0
G1 F1500 E-6.5
;LAYER_COUNT:175
;LAYER:0
M107
;MESH:StuetzenFu??-Body.stl
G0 F6000 X110.669 Y137.157 Z0.2
;TYPE:WALL-INNER
G1 F1500 E0
G1 F1200 X112.039 Y137.087 E0.04563
G1 X113.373 Y136.957 E0.09021
G1 X114.709 Y136.754 E0.13515
G1 X116.052 Y136.481 E0.18073
G1 X117.346 Y136.152 E0.22514
G1 X118.658 Y135.748 E0.2708
G1 X119.925 Y135.286 E0.31565
G1 X121.165 Y134.763 E0.36042
G1 X122.399 Y134.168 E0.40598
G1 X123.588 Y133.521 E0.451
G1 X124.744 Y132.813 E0.49609
G1 X125.864 Y132.051 E0.54114
G1 X126.942 Y131.233 E0.58615
G1 X127.968 Y130.373 E0.63068
G1 X128.973 Y129.44 E0.67629
G1 X129.906 Y128.483 E0.72074
G1 X130.814 Y127.455 E0.76636
G1 X131.659 Y126.395 E0.81145
G1 X132.45 Y125.295 E0.85651
G1 X133.186 Y124.158 E0.90156
G1 X133.86 Y122.985 E0.94656
G1 X134.478 Y121.779 E0.99163
G1 X135.028 Y120.559 E1.03614
G1 X135.492 Y119.381 E1.07825
G1 X135.509 Y119.371 E1.07891
G1 X136.021 Y117.822 E1.13317
G1 X136.013 Y117.811 E1.13362
G1 X136.327 Y116.695 E1.17218
G1 X136.624 Y115.389 E1.21673
G1 X136.861 Y114.039 E1.26231
G1 X137.029 Y112.696 E1.30733
G1 X137.13 Y111.346 E1.35236
G1 X137.165 Y109.993 E1.39737
G1 X137.13 Y108.654 E1.44192
G1 X137.027 Y107.287 E1.48752
G1 X136.859 Y105.943 E1.53257
G1 X136.627 Y104.627 E1.57701
G1 X136.322 Y103.291 E1.62259
G1 X135.955 Y101.986 E1.66768
G1 X135.529 Y100.717 E1.7122
G1 X135.027 Y99.441 E1.75781
G1 X134.478 Y98.221 E1.80231
G1 X133.852 Y97.002 E1.84788
G1 X133.183 Y95.844 E1.89236
G1 X132.439 Y94.692 E1.93798
G1 X131.659 Y93.605 E1.98247
G1 X130.804 Y92.533 E2.02808
G1 X129.907 Y91.517 E2.07316
G1 X128.961 Y90.548 E2.1182
G1 X127.968 Y89.627 E2.16325
G1 X126.942 Y88.767 E2.20777
G1 X125.85 Y87.939 E2.25335
G1 X124.744 Y87.187 E2.29784
G1 X123.574 Y86.471 E2.34346
G1 X122.399 Y85.832 E2.38795
G1 X121.164 Y85.236 E2.43356
G1 X119.917 Y84.71 E2.47857
G1 X118.657 Y84.253 E2.52315
G1 X117.348 Y83.848 E2.56872
G1 X116.051 Y83.519 E2.61323
G1 X114.707 Y83.248 E2.65883
G1 X113.372 Y83.044 E2.70375
G1 X112.039 Y82.913 E2.7483
G1 X110.669 Y82.845 E2.79392
G1 X109.331 Y82.845 E2.83842
G1 X107.961 Y82.913 E2.88404
G1 X106.628 Y83.044 E2.92859
G1 X105.293 Y83.248 E2.97351
G1 X103.949 Y83.519 E3.01911
G1 X102.652 Y83.848 E3.06362
G1 X101.342 Y84.254 E3.10923
G1 X100.082 Y84.709 E3.15379
G1 X98.836 Y85.236 E3.19878
G1 X97.6 Y85.831 E3.24441
G1 X96.412 Y86.479 E3.28942
G1 X95.256 Y87.187 E3.3345
G1 X94.136 Y87.949 E3.37956
G1 X93.07 Y88.759 E3.42409
G1 X92.019 Y89.638 E3.46966
G1 X91.027 Y90.56 E3.5147
G1 X90.094 Y91.517 E3.55916
G1 X89.186 Y92.546 E3.6048
G1 X88.34 Y93.604 E3.64986
G1 X87.561 Y94.692 E3.69436
G1 X86.817 Y95.844 E3.73998
G1 X86.144 Y97.01 E3.78475
G1 X85.521 Y98.221 E3.83005
G1 X84.971 Y99.44 E3.87453
G1 X84.508 Y100.618 E3.91663
G1 X84.491 Y100.628 E3.91728
G1 X83.979 Y102.177 E3.97154
G1 X83.988 Y102.189 E3.97204
G1 X83.674 Y103.307 E4.01067
G1 X83.374 Y104.618 E4.0554
G1 X83.139 Y105.951 E4.10042
G1 X82.971 Y107.303 E4.14573
G1 X82.87 Y108.654 E4.19079
G1 X82.836 Y110.007 E4.23581
G1 X82.87 Y111.345 E4.28032
G1 X82.971 Y112.697 E4.32541
G1 X83.14 Y114.058 E4.37103
G1 X83.373 Y115.373 E4.41545
G1 X83.674 Y116.693 E4.46048
G1 X84.045 Y118.014 E4.50611
G1 X84.471 Y119.283 E4.55064
G1 X84.973 Y120.559 E4.59624
G1 X85.522 Y121.779 E4.64074
G1 X86.14 Y122.984 E4.68578
G1 X86.817 Y124.156 E4.7308
G1 X87.56 Y125.308 E4.77639
G1 X88.341 Y126.395 E4.82091
G1 X89.186 Y127.455 E4.866
G1 X90.094 Y128.483 E4.91162
G1 X91.027 Y129.44 E4.95607
G1 X92.032 Y130.373 E5.00168
G1 X93.058 Y131.233 E5.04621
G1 X94.136 Y132.051 E5.09122
G1 X95.255 Y132.814 E5.13626
G1 X96.412 Y133.521 E5.18136
G1 X97.601 Y134.168 E5.22638
G1 X98.836 Y134.763 E5.27198
G1 X100.079 Y135.288 E5.31686
G1 X101.343 Y135.747 E5.36158
G1 X102.652 Y136.153 E5.40717
G1 X103.952 Y136.483 E5.45178
G1 X105.293 Y136.752 E5.49727
G1 X106.628 Y136.956 E5.54218
G1 X107.961 Y137.087 E5.58673
G1 X109.331 Y137.157 E5.63236
G1 X110.669 Y137.157 E5.67686
G0 F6000 X110.679 Y137.557
;TYPE:WALL-OUTER
G1 F1200 X112.069 Y137.486 E5.72315
G1 X113.423 Y137.354 E5.7684
G1 X114.779 Y137.148 E5.81402
G1 X116.141 Y136.871 E5.86025
G1 X117.454 Y136.537 E5.90531
G1 X118.786 Y136.127 E5.95166
G1 X120.071 Y135.658 E5.99716
G1 X121.329 Y135.128 E6.04256
G1 X122.581 Y134.524 E6.0888
G1 X123.788 Y133.867 E6.1345
G1 X124.961 Y133.149 E6.18025
G1 X126.098 Y132.376 E6.22597
G1 X127.192 Y131.546 E6.27165
G1 X128.233 Y130.673 E6.31684
G1 X129.253 Y129.726 E6.36313
G1 X130.2 Y128.755 E6.40824
G1 X131.12 Y127.712 E6.4545
G1 X131.978 Y126.637 E6.50024
G1 X132.78 Y125.521 E6.54595
G1 X133.528 Y124.366 E6.59172
G1 X134.212 Y123.176 E6.63737
G1 X134.838 Y121.953 E6.68307
G1 X135.396 Y120.715 E6.72823
G1 X135.864 Y119.528 E6.77067
G1 X135.882 Y119.518 E6.77136
G1 X136.406 Y117.931 E6.82694
G1 X136.398 Y117.919 E6.82742
G1 X136.715 Y116.793 E6.86633
G1 X137.016 Y115.468 E6.91152
G1 X137.257 Y114.099 E6.95776
G1 X137.427 Y112.736 E7.00344
G1 X137.53 Y111.366 E7.04914
G1 X137.565 Y109.993 E7.09482
G1 X137.53 Y108.634 E7.14003
G1 X137.425 Y107.247 E7.1863
G1 X137.255 Y105.883 E7.23201
G1 X137.019 Y104.548 E7.2771
G1 X136.71 Y103.192 E7.32336
G1 X136.337 Y101.868 E7.36911
G1 X135.905 Y100.58 E7.4143
G1 X135.396 Y99.285 E7.46058
G1 X134.838 Y98.047 E7.50574
G1 X134.204 Y96.81 E7.55197
G1 X133.525 Y95.635 E7.59711
G1 X132.77 Y94.467 E7.64337
G1 X131.978 Y93.363 E7.68856
G1 X131.11 Y92.276 E7.73482
G1 X130.2 Y91.245 E7.78056
G1 X129.241 Y90.262 E7.82624
G1 X128.233 Y89.327 E7.87197
G1 X127.192 Y88.454 E7.91715
G1 X126.084 Y87.614 E7.9634
G1 X124.961 Y86.851 E8.00856
G1 X123.774 Y86.125 E8.05483
G1 X122.581 Y85.476 E8.10001
G1 X121.329 Y84.872 E8.14624
G1 X120.063 Y84.338 E8.19194
G1 X118.785 Y83.874 E8.23716
G1 X117.456 Y83.463 E8.28343
G1 X116.14 Y83.129 E8.32859
G1 X114.777 Y82.854 E8.37483
G1 X113.422 Y82.647 E8.42042
G1 X112.069 Y82.514 E8.46564
G1 X110.679 Y82.445 E8.51193
G1 X109.321 Y82.445 E8.5571
G1 X107.931 Y82.514 E8.60339
G1 X106.578 Y82.647 E8.6486
G1 X105.223 Y82.854 E8.6942
G1 X103.86 Y83.129 E8.74044
G1 X102.544 Y83.463 E8.7856
G1 X101.215 Y83.874 E8.83187
G1 X99.936 Y84.337 E8.87711
G1 X98.671 Y84.872 E8.92279
G1 X97.418 Y85.475 E8.96904
G1 X96.212 Y86.133 E9.01474
G1 X95.039 Y86.851 E9.06048
G1 X93.902 Y87.624 E9.10621
G1 X92.82 Y88.446 E9.1514
G1 X91.754 Y89.338 E9.19763
G1 X90.747 Y90.274 E9.24336
G1 X89.8 Y91.245 E9.28847
G1 X88.88 Y92.288 E9.33473
G1 X88.021 Y93.362 E9.38047
G1 X87.23 Y94.467 E9.42567
G1 X86.475 Y95.635 E9.47193
G1 X85.792 Y96.818 E9.51736
G1 X85.161 Y98.047 E9.56331
G1 X84.603 Y99.284 E9.60844
G1 X84.136 Y100.472 E9.6509
G1 X84.118 Y100.482 E9.65158
G1 X83.594 Y102.068 E9.70714
G1 X83.603 Y102.081 E9.70767
G1 X83.286 Y103.208 E9.7466
G1 X82.982 Y104.538 E9.79198
G1 X82.743 Y105.891 E9.83768
G1 X82.573 Y107.263 E9.88366
G1 X82.47 Y108.634 E9.92939
G1 X82.436 Y110.007 E9.97507
G1 X82.47 Y111.365 E10.02025
G1 X82.573 Y112.737 E10.06601
G1 X82.744 Y114.118 E10.11229
G1 X82.981 Y115.453 E10.15739
G1 X83.286 Y116.792 E10.20307
G1 X83.663 Y118.132 E10.24937
G1 X84.095 Y119.42 E10.29455
G1 X84.604 Y120.715 E10.34083
G1 X85.162 Y121.953 E10.386
G1 X85.788 Y123.176 E10.43169
G1 X86.475 Y124.365 E10.47736
G1 X87.23 Y125.533 E10.52362
G1 X88.022 Y126.637 E10.56881
G1 X88.88 Y127.712 E10.61456
G1 X89.8 Y128.755 E10.66082
G1 X90.747 Y129.726 E10.70593
G1 X91.767 Y130.673 E10.75222
G1 X92.808 Y131.546 E10.79741
G1 X93.902 Y132.376 E10.84308
G1 X95.038 Y133.15 E10.8888
G1 X96.212 Y133.867 E10.93456
G1 X97.419 Y134.524 E10.98026
G1 X98.671 Y135.128 E11.0265
G1 X99.933 Y135.66 E11.07205
G1 X101.215 Y136.126 E11.11742
G1 X102.544 Y136.538 E11.1637
G1 X103.863 Y136.873 E11.20896
G1 X105.223 Y137.146 E11.25509
G1 X106.578 Y137.353 E11.30069
G1 X107.931 Y137.486 E11.3459
G1 X109.321 Y137.557 E11.39219
G1 X110.679 Y137.557 E11.43736
G0 F6000 X110.651 Y136.797
;TYPE:SKIN
G1 F1200 X109.349 Y136.797 E11.48067
G1 X107.979 Y136.726 E11.52629
G1 X106.678 Y136.6 E11.56977
G1 X105.365 Y136.397 E11.61396
G1 X104.033 Y136.131 E11.65914
G1 X102.761 Y135.808 E11.70278
G1 X101.451 Y135.402 E11.7484
G1 X100.214 Y134.952 E11.79218
G1 X98.993 Y134.437 E11.83626
G1 X97.76 Y133.843 E11.88178
G1 X96.586 Y133.204 E11.92623
G1 X95.444 Y132.506 E11.97075
G1 X94.282 Y131.714 E12.01752
G1 X93.369 Y131.035 E12.05536
G1 X93.364 Y131.012 E12.05615
G1 X92.276 Y130.108 E12.1032
G1 X91.271 Y129.176 E12.14878
G1 X90.364 Y128.244 E12.19204
G1 X89.458 Y127.217 E12.23759
G1 X88.624 Y126.171 E12.28208
G1 X87.864 Y125.111 E12.32546
G1 X87.12 Y123.96 E12.37105
G1 X86.452 Y122.804 E12.41545
G1 X85.845 Y121.616 E12.45983
G1 X85.307 Y120.425 E12.50329
G1 X84.844 Y119.285 E12.54422
G1 X84.852 Y119.267 E12.54487
G1 X84.324 Y117.714 E12.59943
G1 X84.332 Y117.702 E12.59991
G1 X84.021 Y116.595 E12.63815
G1 X83.725 Y115.293 E12.68256
G1 X83.498 Y114.013 E12.7258
G1 X83.33 Y112.654 E12.77134
G1 X83.23 Y111.318 E12.8159
G1 X83.197 Y110.014 E12.85929
G1 X83.23 Y108.68 E12.90367
G1 X83.33 Y107.346 E12.94817
G1 X83.496 Y106.004 E12.99314
G1 X83.728 Y104.689 E13.03755
G1 X84.021 Y103.405 E13.08136
G1 X84.329 Y102.306 E13.11932
G1 X84.324 Y102.281 E13.12017
G1 X84.829 Y100.765 E13.17331
G1 X84.848 Y100.741 E13.17433
G1 X85.308 Y99.572 E13.21611
G1 X85.843 Y98.385 E13.25942
G1 X86.456 Y97.189 E13.30412
G1 X87.12 Y96.04 E13.34826
G1 X87.864 Y94.889 E13.39384
G1 X88.623 Y93.828 E13.43723
G1 X89.457 Y92.783 E13.4817
G1 X90.364 Y91.756 E13.52727
G1 X91.272 Y90.824 E13.57055
G1 X92.252 Y89.915 E13.61501
G1 X93.3 Y89.037 E13.66048
G1 X94.34 Y88.246 E13.70394
G1 X95.445 Y87.495 E13.74837
G1 X96.586 Y86.795 E13.7929
G1 X97.774 Y86.148 E13.83789
G1 X98.991 Y85.563 E13.8828
G1 X100.221 Y85.043 E13.92722
G1 X101.45 Y84.598 E13.97069
G1 X102.759 Y84.193 E14.01626
G1 X104.022 Y83.873 E14.0596
G1 X105.364 Y83.602 E14.10514
G1 X106.678 Y83.4 E14.14935
G1 X107.98 Y83.274 E14.19286
G1 X109.349 Y83.206 E14.23845
G1 X110.651 Y83.206 E14.28175
G1 X112.02 Y83.274 E14.32734
G1 X113.322 Y83.4 E14.37085
G1 X114.636 Y83.602 E14.41507
G1 X115.978 Y83.873 E14.4606
G1 X117.241 Y84.193 E14.50394
G1 X118.55 Y84.598 E14.54951
G1 X119.778 Y85.044 E14.59297
G1 X121.007 Y85.563 E14.63734
G1 X122.24 Y86.157 E14.68286
G1 X123.387 Y86.78 E14.72627
G1 X124.549 Y87.491 E14.77158
G1 X125.64 Y88.231 E14.81543
G1 X126.724 Y89.053 E14.86067
G1 X127.723 Y89.892 E14.90407
G1 X128.704 Y90.8 E14.94852
G1 X129.636 Y91.756 E14.99293
G1 X130.523 Y92.759 E15.03746
G1 X131.376 Y93.83 E15.083
G1 X132.136 Y94.889 E15.12636
G1 X132.88 Y96.04 E15.17194
G1 X133.54 Y97.182 E15.21581
G1 X134.155 Y98.385 E15.26075
G1 X134.692 Y99.573 E15.30411
G1 X135.156 Y100.714 E15.34508
G1 X135.148 Y100.733 E15.34577
G1 X135.676 Y102.287 E15.40035
G1 X135.668 Y102.298 E15.40081
G1 X135.971 Y103.373 E15.43795
G1 X136.273 Y104.7 E15.48322
G1 X136.502 Y105.997 E15.52702
G1 X136.666 Y107.314 E15.57117
G1 X136.77 Y108.68 E15.61673
G1 X136.804 Y109.986 E15.66018
G1 X136.77 Y111.32 E15.70457
G1 X136.67 Y112.653 E15.74903
G1 X136.505 Y113.977 E15.7934
G1 X136.268 Y115.324 E15.83889
G1 X135.98 Y116.596 E15.88227
G1 X135.672 Y117.692 E15.92014
G1 X135.675 Y117.713 E15.92084
G1 X135.172 Y119.235 E15.97416
G1 X135.153 Y119.26 E15.9752
G1 X134.782 Y120.197 E16.00872
G1 X134.791 Y120.21 E16.00925
G1 X134.155 Y121.616 E16.06057
G1 X133.547 Y122.807 E16.10505
G1 X132.882 Y123.961 E16.14935
G1 X132.147 Y125.098 E16.19438
G1 X131.377 Y126.17 E16.23828
G1 X130.542 Y127.217 E16.28282
G1 X129.636 Y128.244 E16.32837
G1 X128.729 Y129.176 E16.37162
G1 X127.723 Y130.109 E16.41726
G1 X126.658 Y131.011 E16.46368
G1 X126.639 Y131.011 E16.46431
G1 X125.741 Y131.708 E16.50212
G1 X125.717 Y131.707 E16.50292
G1 X124.554 Y132.506 E16.54985
G1 X123.414 Y133.205 E16.59432
G1 X122.239 Y133.843 E16.63879
G1 X121.007 Y134.437 E16.68428
G1 X119.8 Y134.947 E16.72787
G1 X118.551 Y135.403 E16.77209
G1 X117.237 Y135.807 E16.81781
G1 X115.979 Y136.127 E16.86099
G1 X114.637 Y136.4 E16.90654
G1 X113.323 Y136.601 E16.95075
G1 X112.02 Y136.726 E16.99428
G1 X110.651 Y136.797 E17.03988
G0 F6000 X110.769 Y137.051
G0 X107.974 Y136.926
G0 X105.322 Y136.594
G0 X102.697 Y135.998
G0 X100.138 Y135.138
G0 X97.675 Y134.025
G0 X95.787 Y132.936
G0 X93.412 Y131.376
G0 X93.684 Y131.019
G1 F1200 X89.055 Y126.39 E17.25761
G0 F6000 X88.694 Y126.677
G0 X87.277 Y124.683
G0 X87.664 Y124.433
G1 F1200 X95.589 Y132.359 E17.6304
G0 F6000 X95.348 Y132.753
G0 X96.772 Y133.601
G0 X96.993 Y133.196
G1 F1200 X86.797 Y123.001 E18.10997
G0 F6000 X86.397 Y123.231
G0 X85.753 Y122.011
G0 X86.165 Y121.803
G1 F1200 X98.189 Y133.827 E18.67554
G0 F6000 X97.988 Y134.243
G0 X99.081 Y134.757
G0 X99.26 Y134.332
G1 F1200 X85.669 Y120.742 E19.3148
G0 F6000 X85.249 Y120.93
G0 X84.83 Y119.922
G0 X85.251 Y119.758
G1 F1200 X100.237 Y134.744 E20.01969
G0 F6000 X101.13 Y135.071
G1 F1200 X84.927 Y118.868 E20.78183
G0 F6000 X84.635 Y118.011
G1 F1200 X101.98 Y135.355 E21.59766
G0 F6000 X102.799 Y135.609
G1 F1200 X84.402 Y117.212 E22.463
G0 F6000 X84.189 Y116.433
G1 F1200 X103.559 Y135.803 E23.37411
G0 F6000 X104.301 Y135.979
G1 F1200 X84.022 Y115.701 E24.32795
G0 F6000 X83.873 Y114.986
G1 F1200 X105.007 Y136.12 E25.32202
G0 F6000 X105.697 Y136.244
G1 F1200 X83.751 Y114.298 E26.3543
G0 F6000 X83.652 Y113.634
G1 F1200 X106.366 Y136.347 E27.42267
G0 F6000 X107.014 Y136.429
G1 F1200 X83.572 Y112.988 E28.52529
G0 F6000 X83.507 Y112.357
G1 F1200 X107.64 Y136.49 E29.66043
G0 F6000 X108.254 Y136.538
G1 F1200 X83.462 Y111.746 E30.82657
G0 F6000 X83.425 Y111.144
G1 F1200 X108.851 Y136.569 E32.02251
G0 F6000 X109.443 Y136.596
G1 F1200 X83.41 Y110.563 E33.24702
G0 F6000 X83.397 Y109.984
G1 F1200 X110.008 Y136.596 E34.49874
G0 F6000 X110.574 Y136.596
G1 F1200 X83.411 Y109.432 E35.77643
G0 F6000 X83.425 Y108.881
G1 F1200 X111.115 Y136.571 E37.07888
G0 F6000 X111.652 Y136.543
G1 F1200 X83.455 Y108.345 E38.40521
G0 F6000 X83.494 Y107.818
G1 F1200 X112.182 Y136.506 E39.7546
G0 F6000 X112.699 Y136.458
G1 F1200 X83.537 Y107.296 E41.12629
G0 F6000 X83.599 Y106.792
G1 F1200 X113.215 Y136.408 E42.51934
G0 F6000 X113.71 Y136.337
G1 F1200 X83.662 Y106.289 E43.9327
G0 F6000 X83.734 Y105.796
G1 F1200 X114.201 Y136.263 E45.36578
G0 F6000 X114.688 Y136.184
G1 F1200 X83.819 Y105.315 E46.81776
G0 F6000 X83.904 Y104.834
G1 F1200 X115.157 Y136.088 E48.28783
G0 F6000 X115.628 Y135.992
G1 F1200 X84.004 Y104.369 E49.7753
G0 F6000 X84.11 Y103.909
G1 F1200 X116.092 Y135.891 E51.27964
G0 F6000 X116.542 Y135.775
G1 F1200 X84.215 Y103.449 E52.80018
G0 F6000 X84.339 Y103.007
G1 F1200 X116.993 Y135.661 E54.33612
G0 F6000 X117.433 Y135.535
G1 F1200 X84.463 Y102.565 E55.88693
G0 F6000 X84.587 Y102.123
G1 F1200 X117.866 Y135.402 E57.45227
G0 F6000 X118.298 Y135.269
G1 F1200 X84.728 Y101.698 E59.03133
G0 F6000 X84.869 Y101.273
G1 F1200 X118.721 Y135.125 E60.62362
G0 F6000 X119.136 Y134.975
G1 F1200 X85.01 Y100.849 E62.2288
G0 F6000 X85.176 Y100.45
G1 F1200 X119.55 Y134.824 E63.84565
G0 F6000 X119.955 Y134.663
G1 F1200 X85.336 Y100.044 E65.47402
G0 F6000 X85.496 Y99.638
G1 F1200 X120.353 Y134.495 E67.11359
G0 F6000 X120.75 Y134.326
G1 F1200 X85.672 Y99.248 E68.76355
G0 F6000 X85.847 Y98.858
G1 F1200 X121.139 Y134.15 E70.42358
G0 F6000 X121.521 Y133.966
G1 F1200 X86.023 Y98.468 E72.09329
G0 F6000 X86.215 Y98.094
