;FLAVOR:Marlin
;TIME:2765
;Filament used: 1.69061m
;Layer height: 0.2
;MINX:97.7
;MINY:97.7
;MINZ:0.2
;MAXX:122.3
;MAXY:122.3
;MAXZ:25
;Generated with Cura_SteamEngine 5.3.1
M82 ;absolute extrusion mode
; Ender 3 Custom Start G-code
G92 E0 ; Reset Extruder
G28 ; Home all axes
M104 S175 ; Start heating up the nozzle most of the way
M190 S60 ; Start heating the bed, wait until target temperature reached
M109 S200 ; Finish heating the nozzle
G1 Z2.0 F3000 ; Move Z Axis up little to prevent scratching of Heat Bed
G1 X0.1 Y20 Z0.3 F5000.0 ; Move to start position
G1 X0.1 Y200.0 Z0.3 F1500.0 E15 ; Draw the first line
G1 X0.4 Y200.0 Z0.3 F5000.0 ; Move to side a little
G1 X0.4 Y20 Z0.3 F1500.0 E30 ; Draw the second line
G92 E0 ; Reset Extruder
G1 Z2.0 F3000 ; Move Z Axis up little to prevent scratching of Heat Bed
G1 X5 Y20 Z0.3 F5000.0 ; Move over to prevent blob squish
G92 E0
G92 E0
G1 F1500 E-6.5
;LAYER_COUNT:125
;LAYER:0
M107
;MESH:Kappe St??tze-Body.stl
G0 F6000 X120.525 Y120.525 Z0.2
;TYPE:WALL-INNER
G1 F1500 E0
G1 F1200 X120.525 Y99.475 E0.70013
G1 X99.475 Y99.475 E1.40025
G1 X99.475 Y120.525 E2.10038
G1 X120.525 Y120.525 E2.8005
G0 F6000 X120.925 Y120.925
;TYPE:WALL-OUTER
G1 F1200 X120.925 Y99.075 E3.52724
G1 X99.075 Y99.075 E4.25397
G1 X99.075 Y120.925 E4.98071
G1 X120.925 Y120.925 E5.70744
G0 F6000 X120.655 Y120.655
G0 X120.425 Y120.165
G0 X120.165 Y120.165
;TYPE:SKIN
G1 F1200 X99.835 Y120.165 E6.38362
G1 X99.835 Y99.835 E7.0598
G1 X120.165 Y99.835 E7.73597
G1 X120.165 Y120.165 E8.41215
G0 F6000 X120.425 Y120.165
G0 X120.425 Y100.165
G0 X119.964 Y100.165
G1 F1200 X119.834 Y100.035 E8.41827
G0 F6000 X119.268 Y100.035
G1 F1200 X119.964 Y100.731 E8.45101
G0 F6000 X119.964 Y101.297
G1 F1200 X118.702 Y100.035 E8.51037
G0 F6000 X118.137 Y100.035
G1 F1200 X119.964 Y101.862 E8.5963
G0 F6000 X119.964 Y102.428
G1 F1200 X117.571 Y100.035 E8.70886
G0 F6000 X117.005 Y100.035
G1 F1200 X119.964 Y102.994 E8.84804
G0 F6000 X119.964 Y103.56
G1 F1200 X116.439 Y100.035 E9.01385
G0 F6000 X115.874 Y100.035
G1 F1200 X119.964 Y104.125 E9.20623
G0 F6000 X119.964 Y104.691
G1 F1200 X115.308 Y100.035 E9.42523
G0 F6000 X114.742 Y100.035
G1 F1200 X119.964 Y105.257 E9.67086
G0 F6000 X119.964 Y105.822
G1 F1200 X114.177 Y100.035 E9.94306
G0 F6000 X113.611 Y100.035
G1 F1200 X119.964 Y106.388 E10.24189
G0 F6000 X119.964 Y106.954
G1 F1200 X113.045 Y100.035 E10.56734
G0 F6000 X112.48 Y100.035
G1 F1200 X119.964 Y107.519 E10.91936
G0 F6000 X119.964 Y108.085
G1 F1200 X111.914 Y100.035 E11.29801
G0 F6000 X111.348 Y100.035
G1 F1200 X119.964 Y108.651 E11.70328
G0 F6000 X119.964 Y109.216
G1 F1200 X110.783 Y100.035 E12.13513
G0 F6000 X110.217 Y100.035
G1 F1200 X119.964 Y109.782 E12.5936
G0 F6000 X119.964 Y110.348
G1 F1200 X109.651 Y100.035 E13.07869
G0 F6000 X109.086 Y100.035
G1 F1200 X119.964 Y110.913 E13.59036
G0 F6000 X119.964 Y111.479
G1 F1200 X108.52 Y100.035 E14.12865
G0 F6000 X107.954 Y100.035
G1 F1200 X119.964 Y112.045 E14.69356
G0 F6000 X119.964 Y112.61
G1 F1200 X107.389 Y100.035 E15.28505
G0 F6000 X106.823 Y100.035
G1 F1200 X119.964 Y113.176 E15.90316
G0 F6000 X119.964 Y113.742
G1 F1200 X106.257 Y100.035 E16.5479
G0 F6000 X105.691 Y100.035
G1 F1200 X119.964 Y114.308 E17.21925
G0 F6000 X119.964 Y114.873
G1 F1200 X105.126 Y100.035 E17.91719
G0 F6000 X104.56 Y100.035
G1 F1200 X119.964 Y115.439 E18.64175
G0 F6000 X119.964 Y116.005
G1 F1200 X103.994 Y100.035 E19.39293
G0 F6000 X103.429 Y100.035
G1 F1200 X119.964 Y116.57 E20.17068
G0 F6000 X119.964 Y117.136
G1 F1200 X102.863 Y100.035 E20.97506
G0 F6000 X102.297 Y100.035
G1 F1200 X119.964 Y117.702 E21.80606
G0 F6000 X119.964 Y118.267
G1 F1200 X101.732 Y100.035 E22.66364
G0 F6000 X101.166 Y100.035
G1 F1200 X119.964 Y118.833 E23.54784
G0 F6000 X119.964 Y119.399
G1 F1200 X100.6 Y100.035 E24.45866
G0 F6000 X100.034 Y100.034
G1 F1200 X119.964 Y119.964 E25.39611
G0 F6000 X119.398 Y119.964
G1 F1200 X100.034 Y100.6 E26.30693
G0 F6000 X100.034 Y101.165
G1 F1200 X118.832 Y119.964 E27.19116
G0 F6000 X118.267 Y119.964
G1 F1200 X100.034 Y101.731 E28.04878
G0 F6000 X100.034 Y102.297
G1 F1200 X117.701 Y119.964 E28.87978
G0 F6000 X117.135 Y119.964
G1 F1200 X100.034 Y102.862 E29.68418
G0 F6000 X100.034 Y103.428
G1 F1200 X116.57 Y119.964 E30.46199
G0 F6000 X116.004 Y119.964
G1 F1200 X100.034 Y103.994 E31.21317
G0 F6000 X100.034 Y104.559
G1 F1200 X115.438 Y119.964 E31.93775
G0 F6000 X114.873 Y119.964
G1 F1200 X100.034 Y105.125 E32.63573
G0 F6000 X100.034 Y105.691
G1 F1200 X114.307 Y119.964 E33.30709
G0 F6000 X113.741 Y119.964
G1 F1200 X100.034 Y106.256 E33.95184
G0 F6000 X100.034 Y106.822
G1 F1200 X113.175 Y119.964 E34.56998
G0 F6000 X112.61 Y119.964
G1 F1200 X100.034 Y107.388 E35.16152
G0 F6000 X100.034 Y107.953
G1 F1200 X112.044 Y119.964 E35.72645
G0 F6000 X111.478 Y119.964
G1 F1200 X100.034 Y108.519 E36.26477
G0 F6000 X100.034 Y109.085
G1 F1200 X110.913 Y119.964 E36.77648
G0 F6000 X110.347 Y119.964
G1 F1200 X100.034 Y109.651 E37.26157
G0 F6000 X100.034 Y110.216
G1 F1200 X109.781 Y119.964 E37.72007
G0 F6000 X109.216 Y119.964
G1 F1200 X100.034 Y110.782 E38.15196
G0 F6000 X100.034 Y111.348
G1 F1200 X108.65 Y119.964 E38.55723
G0 F6000 X108.084 Y119.964
G1 F1200 X100.034 Y111.913 E38.9359
G0 F6000 X100.034 Y112.479
G1 F1200 X107.519 Y119.964 E39.28797
G0 F6000 X106.953 Y119.964
G1 F1200 X100.034 Y113.045 E39.61342
G0 F6000 X100.034 Y113.61
G1 F1200 X106.387 Y119.964 E39.91227
G0 F6000 X105.822 Y119.964
G1 F1200 X100.034 Y114.176 E40.18452
G0 F6000 X100.034 Y114.742
G1 F1200 X105.256 Y119.964 E40.43015
G0 F6000 X104.69 Y119.964
G1 F1200 X100.034 Y115.307 E40.64917
G0 F6000 X100.034 Y115.873
G1 F1200 X104.125 Y119.964 E40.8416
G0 F6000 X103.559 Y119.964
G1 F1200 X100.034 Y116.439 E41.00741
G0 F6000 X100.034 Y117.004
G1 F1200 X102.993 Y119.964 E41.14661
G0 F6000 X102.427 Y119.964
G1 F1200 X100.034 Y117.57 E41.2592
G0 F6000 X100.034 Y118.136
G1 F1200 X101.862 Y119.964 E41.34518
G0 F6000 X101.296 Y119.964
G1 F1200 X100.034 Y118.702 E41.40454
G0 F6000 X100.034 Y119.267
G1 F1200 X100.73 Y119.964 E41.4373
G0 F6000 X100.165 Y119.964
M104 S200
G1 F1200 X100.034 Y119.833 E41.44346
;MESH:NONMESH
G0 F300 X100.034 Y119.833 Z0.4
G0 F6000 X99.575 Y119.833
G0 X99.647 Y120.353
G0 X120.655 Y120.655
G0 X120.953 Y120.953
;TIME_ELAPSED:73.121132
;LAYER:1
M106 S85
;TYPE:WALL-INNER
;MESH:Kappe St??tze-Body.stl
G1 F1350 X120.953 Y99.047 E42.17206
G1 X99.047 Y99.047 E42.90066
G1 X99.047 Y120.953 E43.62925
G1 X120.953 Y120.953 E44.35785
G0 F7500 X121.353 Y121.353
;TYPE:WALL-OUTER
G1 F1350 X121.353 Y98.647 E45.11305
G1 X98.647 Y98.647 E45.86826
G1 X98.647 Y121.353 E46.62346
G1 X121.353 Y121.353 E47.37867
G0 F7500 X121.083 Y121.083
G0 X120.853 Y120.592
G0 X120.593 Y120.593
;TYPE:SKIN
G1 F1350 X99.407 Y120.593 E48.08332
G1 X99.407 Y99.407 E48.78797
G1 X120.593 Y99.407 E49.49262
G1 X120.593 Y120.593 E50.19727
G0 F7500 X120.392 Y120.024
G1 F1350 X120.023 Y120.392 E50.2146
G0 F7500 X119.457 Y120.392
G1 F1350 X120.392 Y119.458 E50.25855
G0 F7500 X120.392 Y118.892
G1 F1350 X118.892 Y120.392 E50.32911
G0 F7500 X118.326 Y120.392
G1 F1350 X120.392 Y118.327 E50.42626
G0 F7500 X120.392 Y117.761
G1 F1350 X117.76 Y120.392 E50.55004
G0 F7500 X117.195 Y120.392
G1 F1350 X120.392 Y117.195 E50.70042
G0 F7500 X120.392 Y116.63
G1 F1350 X116.629 Y120.392 E50.8774
G0 F7500 X116.063 Y120.392
G1 F1350 X120.392 Y116.064 E51.081
G0 F7500 X120.392 Y115.498
G1 F1350 X115.498 Y120.392 E51.31119
G0 F7500 X114.932 Y120.392
G1 F1350 X120.392 Y114.933 E51.56799
G0 F7500 X120.392 Y114.367
G1 F1350 X114.366 Y120.392 E51.85141
G0 F7500 X113.801 Y120.392
G1 F1350 X120.392 Y113.801 E52.16143
G0 F7500 X120.392 Y113.236
G1 F1350 X113.235 Y120.392 E52.49805
G0 F7500 X112.669 Y120.392
G1 F1350 X120.392 Y112.67 E52.8613
G0 F7500 X120.392 Y112.104
G1 F1350 X112.104 Y120.392 E53.25114
G0 F7500 X111.538 Y120.392
G1 F1350 X120.392 Y111.539 E53.66758
G0 F7500 X120.392 Y110.973
G1 F1350 X110.972 Y120.392 E54.11064
G0 F7500 X110.406 Y120.392
G1 F1350 X120.392 Y110.407 E54.58033
G0 F7500 X120.392 Y109.841
G1 F1350 X109.841 Y120.392 E55.07662
G0 F7500 X109.275 Y120.392
G1 F1350 X120.392 Y109.276 E55.5995
G0 F7500 X120.392 Y108.71
G1 F1350 X108.709 Y120.392 E56.14901
G0 F7500 X108.144 Y120.392
G1 F1350 X120.392 Y108.144 E56.72512
G0 F7500 X120.392 Y107.579
G1 F1350 X107.578 Y120.392 E57.32783
G0 F7500 X107.012 Y120.392
G1 F1350 X120.392 Y107.013 E57.95716
G0 F7500 X120.392 Y106.447
G1 F1350 X106.447 Y120.392 E58.61309
G0 F7500 X105.881 Y120.392
G1 F1350 X120.392 Y105.882 E59.29562
G0 F7500 X120.392 Y105.316
G1 F1350 X105.315 Y120.392 E60.00477
G0 F7500 X104.75 Y120.392
G1 F1350 X120.392 Y104.75 E60.74052
G0 F7500 X120.392 Y104.185
G1 F1350 X104.184 Y120.392 E61.50287
G0 F7500 X103.618 Y120.392
G1 F1350 X120.392 Y103.619 E62.29185
G0 F7500 X120.392 Y103.053
G1 F1350 X103.053 Y120.392 E63.10742
G0 F7500 X102.487 Y120.392
G1 F1350 X120.392 Y102.488 E63.9496
G0 F7500 X120.392 Y101.922
G1 F1350 X101.921 Y120.392 E64.81839
G0 F7500 X101.355 Y120.392
G1 F1350 X120.392 Y101.356 E65.71381
G0 F7500 X120.392 Y100.791
G1 F1350 X100.79 Y120.392 E66.6358
G0 F7500 X100.224 Y120.392
G1 F1350 X120.392 Y100.225 E67.58442
G0 F7500 X120.392 Y99.659
G1 F1350 X99.658 Y120.392 E68.55966
G0 F7500 X99.607 Y119.878
G1 F1350 X119.879 Y99.606 E69.51319
G0 F7500 X119.313 Y99.606
G1 F1350 X99.607 Y119.312 E70.4401
G0 F7500 X99.607 Y118.747
G1 F1350 X118.747 Y99.606 E71.34041
G0 F7500 X118.182 Y99.606
G1 F1350 X99.607 Y118.181 E72.21413
G0 F7500 X99.607 Y117.615
G1 F1350 X117.616 Y99.606 E73.06121
G0 F7500 X117.05 Y99.606
G1 F1350 X99.607 Y117.05 E73.8817
G0 F7500 X99.607 Y116.484
G1 F1350 X116.485 Y99.606 E74.67559
G0 F7500 X115.919 Y99.606
G1 F1350 X99.607 Y115.918 E75.44286
G0 F7500 X99.607 Y115.353
G1 F1350 X115.353 Y99.606 E76.18353
G0 F7500 X114.788 Y99.606
G1 F1350 X99.607 Y114.787 E76.89759
G0 F7500 X99.607 Y114.221
G1 F1350 X114.222 Y99.606 E77.58504
G0 F7500 X113.656 Y99.606
G1 F1350 X99.607 Y113.656 E78.24588
G0 F7500 X99.607 Y113.09
G1 F1350 X113.091 Y99.606 E78.88013
G0 F7500 X112.525 Y99.606
G1 F1350 X99.607 Y112.524 E79.48775
G0 F7500 X99.607 Y111.959
G1 F1350 X111.959 Y99.606 E80.06878
G0 F7500 X111.394 Y99.606
G1 F1350 X99.607 Y111.393 E80.6232
G0 F7500 X99.607 Y110.827
G1 F1350 X110.828 Y99.606 E81.151
G0 F7500 X110.262 Y99.606
G1 F1350 X99.607 Y110.261 E81.65218
G0 F7500 X99.607 Y109.696
G1 F1350 X109.697 Y99.606 E82.12678
G0 F7500 X109.131 Y99.606
G1 F1350 X99.607 Y109.13 E82.57476
G0 F7500 X99.607 Y108.564
G1 F1350 X108.565 Y99.606 E82.99612
G0 F7500 X107.999 Y99.606
G1 F1350 X99.607 Y107.999 E83.39088
G0 F7500 X99.607 Y107.433
G1 F1350 X107.434 Y99.606 E83.75904
G0 F7500 X106.868 Y99.606
G1 F1350 X99.607 Y106.867 E84.10057
G0 F7500 X99.607 Y106.302
G1 F1350 X106.302 Y99.606 E84.41551
G0 F7500 X105.737 Y99.606
G1 F1350 X99.607 Y105.736 E84.70384
G0 F7500 X99.607 Y105.17
G1 F1350 X105.171 Y99.606 E84.96556
G0 F7500 X104.605 Y99.606
G1 F1350 X99.607 Y104.605 E85.20067
G0 F7500 X99.607 Y104.039
G1 F1350 X104.04 Y99.606 E85.40918
G0 F7500 X103.474 Y99.606
G1 F1350 X99.607 Y103.473 E85.59108
G0 F7500 X99.607 Y102.908
G1 F1350 X102.908 Y99.606 E85.74637
G0 F7500 X102.343 Y99.606
G1 F1350 X99.607 Y102.342 E85.87506
G0 F7500 X99.607 Y101.776
G1 F1350 X101.777 Y99.606 E85.97713
G0 F7500 X101.211 Y99.606
G1 F1350 X99.607 Y101.211 E86.0526
G0 F7500 X99.607 Y100.645
G1 F1350 X100.646 Y99.606 E86.10147
G0 F7500 X100.08 Y99.606
G1 F1350 X99.607 Y100.079 E86.12372
G1 F1500 E79.62372
;MESH:NONMESH
G0 F300 X99.607 Y100.079 Z0.6
G0 F7500 X99.147 Y100.079
G0 X99.219 Y120.781
G0 X121.083 Y121.083
G0 X121.222 Y121.222
;TIME_ELAPSED:139.931977
;LAYER:2
M106 S170
;TYPE:WALL-INNER
;MESH:Kappe St??tze-Body.stl
G1 F1500 E86.12372
G1 X121.222 Y98.778 E86.87021
G1 X98.778 Y98.778 E87.6167
G1 X98.778 Y121.222 E88.36319
G1 X121.222 Y121.222 E89.10968
G0 F9000 X121.622 Y121.622
;TYPE:WALL-OUTER
G1 F1500 X121.622 Y98.378 E89.88278
G1 X98.378 Y98.378 E90.65588
G1 X98.378 Y121.622 E91.42898
G1 X121.622 Y121.622 E92.20208
G0 F9000 X121.353 Y121.353
G0 X121.122 Y120.862
G0 X120.862 Y120.862
;TYPE:SKIN
G1 F1500 X99.138 Y120.862 E92.92462
G1 X99.138 Y99.138 E93.64717
G1 X120.862 Y99.138 E94.36971
G1 X120.862 Y120.862 E95.09225
G0 F9000 X121.122 Y120.862
G0 X121.05 Y98.95
G0 X120.268 Y98.878
G0 X120.268 Y99.337
G1 F1500 X120.661 Y99.731 E95.11076
G0 F9000 X120.661 Y100.296
G1 F1500 X119.702 Y99.337 E95.15587
G0 F9000 X119.136 Y99.337
G1 F1500 X120.661 Y100.862 E95.2276
G0 F9000 X120.661 Y101.428
G1 F1500 X118.571 Y99.337 E95.32593
G0 F9000 X118.005 Y99.337
G1 F1500 X120.661 Y101.993 E95.45086
G0 F9000 X120.661 Y102.559
G1 F1500 X117.439 Y99.337 E95.60241
G0 F9000 X116.874 Y99.337
G1 F1500 X120.661 Y103.125 E95.78057
G0 F9000 X120.661 Y103.69
G1 F1500 X116.308 Y99.337 E95.98532
G0 F9000 X115.742 Y99.337
G1 F1500 X120.661 Y104.256 E96.21669
G0 F9000 X120.661 Y104.822
G1 F1500 X115.177 Y99.337 E96.47467
G0 F9000 X114.611 Y99.337
G1 F1500 X120.661 Y105.387 E96.75924
G0 F9000 X120.661 Y105.953
G1 F1500 X114.045 Y99.337 E97.07044
G0 F9000 X113.48 Y99.337
G1 F1500 X120.661 Y106.519 E97.40823
G0 F9000 X120.661 Y107.084
G1 F1500 X112.914 Y99.337 E97.77263
G0 F9000 X112.348 Y99.337
G1 F1500 X120.661 Y107.65 E98.16365
G0 F9000 X120.661 Y108.216
G1 F1500 X111.782 Y99.337 E98.58129
G0 F9000 X111.217 Y99.337
G1 F1500 X120.661 Y108.782 E99.02553
G0 F9000 X120.661 Y109.347
G1 F1500 X110.651 Y99.337 E99.49637
G0 F9000 X110.085 Y99.337
G1 F1500 X120.661 Y109.913 E99.99383
G0 F9000 X120.661 Y110.479
G1 F1500 X109.52 Y99.337 E100.51789
G0 F9000 X108.954 Y99.337
G1 F1500 X120.661 Y111.044 E101.06855
G0 F9000 X120.661 Y111.61
G1 F1500 X108.388 Y99.337 E101.64584
G0 F9000 X107.823 Y99.337
G1 F1500 X120.661 Y112.176 E102.24972
G0 F9000 X120.661 Y112.741
G1 F1500 X107.257 Y99.337 E102.8802
G0 F9000 X106.691 Y99.337
G1 F1500 X120.661 Y113.307 E103.53731
G0 F9000 X120.661 Y113.873
G1 F1500 X106.126 Y99.337 E104.22102
G0 F9000 X105.56 Y99.337
G1 F1500 X120.661 Y114.438 E104.93132
G0 F9000 X120.661 Y115.004
G1 F1500 X104.994 Y99.337 E105.66825
G0 F9000 X104.429 Y99.337
G1 F1500 X120.661 Y115.57 E106.43177
G0 F9000 X120.661 Y116.135
G1 F1500 X103.863 Y99.337 E107.2219
G0 F9000 X103.297 Y99.337
G1 F1500 X120.661 Y116.701 E108.03865
G0 F9000 X120.661 Y117.267
G1 F1500 X102.732 Y99.337 E108.882
G0 F9000 X102.166 Y99.337
G1 F1500 X120.661 Y117.832 E109.75195
G0 F9000 X120.661 Y118.398
G1 F1500 X101.6 Y99.337 E110.64852
G0 F9000 X101.034 Y99.337
G1 F1500 X120.661 Y118.964 E111.57171
G0 F9000 X120.661 Y119.53
G1 F1500 X100.469 Y99.337 E112.52151
G0 F9000 X99.903 Y99.337
G1 F1500 X120.661 Y120.095 E113.4979
G0 F9000 X120.661 Y120.661
G1 F1500 X99.337 Y99.337 E114.50091
G0 F9000 X99.337 Y99.903
G1 F1500 X120.095 Y120.661 E115.47731
G0 F9000 X119.53 Y120.661
G1 F1500 X99.337 Y100.469 E116.4271
G0 F9000 X99.337 Y101.034
G1 F1500 X118.964 Y120.661 E117.35029
G0 F9000 X118.398 Y120.661
G1 F1500 X99.337 Y101.6 E118.24686
G0 F9000 X99.337 Y102.166
G1 F1500 X117.832 Y120.661 E119.11681
G0 F9000 X117.267 Y120.661
G1 F1500 X99.337 Y102.732 E119.96016
G0 F9000 X99.337 Y103.297
G1 F1500 X116.701 Y120.661 E120.77691
G0 F9000 X116.135 Y120.661
G1 F1500 X99.337 Y103.863 E121.56704
G0 F9000 X99.337 Y104.429
G1 F1500 X115.57 Y120.661 E122.33056
G0 F9000 X115.004 Y120.661
G1 F1500 X99.337 Y104.994 E123.06749
G0 F9000 X99.337 Y105.56
G1 F1500 X114.438 Y120.661 E123.7778
G0 F9000 X113.873 Y120.661
G1 F1500 X99.337 Y106.126 E124.4615
G0 F9000 X99.337 Y106.691
G1 F1500 X113.307 Y120.661 E125.11861
G0 F9000 X112.741 Y120.661
G1 F1500 X99.337 Y107.257 E125.74909
G0 F9000 X99.337 Y107.823
G1 F1500 X112.176 Y120.661 E126.35297
G0 F9000 X111.61 Y120.661
G1 F1500 X99.337 Y108.388 E126.93026
G0 F9000 X99.337 Y108.954
G1 F1500 X111.044 Y120.661 E127.48092
G0 F9000 X110.479 Y120.661
G1 F1500 X99.337 Y109.52 E128.00498
G0 F9000 X99.337 Y110.085
G1 F1500 X109.913 Y120.661 E128.50245
G0 F9000 X109.347 Y120.661
G1 F1500 X99.337 Y110.651 E128.97328
G0 F9000 X99.337 Y111.217
G1 F1500 X108.782 Y120.661 E129.41753
G0 F9000 X108.216 Y120.661
G1 F1500 X99.337 Y111.782 E129.83517
G0 F9000 X99.337 Y112.348
