;FLAVOR:Marlin
;TIME:7802
;Filament used: 13.9703m
;Layer height: 0.32
;MINX:69.55
;MINY:69.55
;MINZ:0.32
;MAXX:150.45
;MAXY:150.45
;MAXZ:15.24
;TARGET_MACHINE.NAME:Creality Ender-3 Pro
;Generated with Cura_SteamEngine 5.5.0
M82 ;absolute extrusion mode
; Ender 3 Custom Start G-code
G92 E0 ; Reset Extruder
G28 ; Home all axes
G1 Z5.0 F3000 ; Move Z Axis up a bit during heating to not damage bed
M104 S120 ; Start heating up the nozzle most of the way
M190 S80.0 ; Start heating the bed, wait until target temperature reached
M109 S235.0 ; Finish heating the nozzle
G1 Z2.0 F3000 ; Move Z Axis up little to prevent scratching of Heat Bed
G1 X0.1 Y20 Z0.3 F5000.0 ; Move to start position
G1 X0.1 Y200.0 Z0.3 F1500.0 E15 ; Draw the first line
G1 X0.4 Y200.0 Z0.3 F5000.0 ; Move to side a little
G1 X0.4 Y20 Z0.3 F1500.0 E30 ; Draw the second line
G92 E0 ; Reset Extruder
G1 Z2.0 F3000 ; Move Z Axis up little to prevent scratching of Heat Bed
G1 X5 Y20 Z0.3 F5000.0 ; Move over to prevent blob squish
G92 E0
G92 E0
G1 F1500 E-6.5
;LAYER_COUNT:47
;LAYER:0
M107
G1 F300 Z0.52
G0 F6000 X70.325 Y70.541 Z0.52
;TYPE:SKIRT
G1 F300 Z0.32
G1 F1500 E0
G1 F900 X70.863 Y70.071 E0.07603
G1 X71.533 Y69.723 E0.15639
G1 X72.351 Y69.564 E0.24508
G1 X72.88 Y69.55 E0.3014
G1 X95.342 Y69.556 E2.69209
G1 X120.864 Y69.55 E5.40846
G1 X121.284 Y69.556 E5.45316
G1 X146.791 Y69.55 E8.16793
G1 X147.677 Y69.574 E8.26227
G1 X148.196 Y69.645 E8.31802
G1 X148.861 Y69.905 E8.39402
G1 X149.454 Y70.32 E8.47105
G1 X149.928 Y70.859 E8.54745
G1 X150.277 Y71.534 E8.62832
G1 X150.436 Y72.351 E8.71691
G1 X150.45 Y72.88 E8.77323
G1 X150.442 Y97.661 E11.41073
G1 X150.45 Y98.758 E11.52749
G1 X150.444 Y121.242 E13.92052
G1 X150.45 Y146.761 E16.63657
G1 X150.426 Y147.677 E16.73409
G1 X150.356 Y148.189 E16.78909
G1 X150.097 Y148.86 E16.86565
G1 X149.678 Y149.456 E16.94319
G1 X149.141 Y149.926 E17.01914
G1 X148.473 Y150.275 E17.09936
G1 X147.648 Y150.436 E17.18882
G1 X147.12 Y150.45 E17.24504
G1 X122.361 Y150.442 E19.8802
G1 X121.237 Y150.45 E19.99983
G1 X98.758 Y150.444 E22.39232
G1 X73.209 Y150.45 E25.11157
G1 X72.323 Y150.426 E25.2059
G1 X71.804 Y150.355 E25.26165
G1 X71.139 Y150.095 E25.33765
G1 X70.546 Y149.68 E25.41468
G1 X70.072 Y149.141 E25.49108
G1 X69.723 Y148.467 E25.57186
G1 X69.564 Y147.645 E25.66097
G1 X69.55 Y147.108 E25.71814
G1 X69.558 Y122.339 E28.35437
G1 X69.55 Y121.237 E28.47166
G1 X69.556 Y98.758 E30.86415
G1 X69.55 Y73.173 E33.58723
G1 X69.574 Y72.322 E33.67784
G1 X69.645 Y71.803 E33.73359
G1 X69.905 Y71.138 E33.80958
G1 X70.325 Y70.541 E33.88727
G0 F6000 X70.922 Y71.082
G1 F900 X71.317 Y70.737 E33.94309
G1 X71.8 Y70.486 E34.00103
G1 X72.435 Y70.362 E34.06989
G1 X72.88 Y70.35 E34.11727
G1 X95.342 Y70.356 E36.50795
G1 X120.853 Y70.35 E39.22315
G1 X121.273 Y70.356 E39.26786
G1 X146.774 Y70.35 E41.98199
G1 X147.569 Y70.367 E42.06662
G1 X147.994 Y70.425 E42.11228
G1 X148.482 Y70.616 E42.16805
G1 X148.916 Y70.92 E42.22445
G1 X149.263 Y71.315 E42.28041
G1 X149.514 Y71.799 E42.33844
G1 X149.638 Y72.435 E42.4074
G1 X149.65 Y72.88 E42.45478
G1 X149.642 Y97.661 E45.09228
G1 X149.65 Y98.758 E45.20904
G1 X149.644 Y121.242 E47.60207
G1 X149.65 Y146.744 E50.31631
G1 X149.633 Y147.568 E50.40403
G1 X149.575 Y147.991 E50.44947
G1 X149.386 Y148.481 E50.50537
G1 X149.08 Y148.916 E50.56197
G1 X148.686 Y149.261 E50.61771
G1 X148.204 Y149.513 E50.6756
G1 X147.564 Y149.638 E50.745
G1 X147.12 Y149.65 E50.79228
G1 X122.355 Y149.642 E53.42808
G1 X121.237 Y149.65 E53.54707
G1 X98.758 Y149.644 E55.93957
G1 X73.226 Y149.65 E58.657
G1 X72.431 Y149.633 E58.74163
G1 X72.006 Y149.575 E58.78728
G1 X71.518 Y149.384 E58.84306
G1 X71.084 Y149.08 E58.89946
G1 X70.737 Y148.685 E58.95542
G1 X70.486 Y148.201 E59.01344
G1 X70.362 Y147.562 E59.08272
G1 X70.35 Y147.108 E59.13106
G1 X70.358 Y122.339 E61.76729
G1 X70.35 Y121.237 E61.88458
G1 X70.356 Y98.758 E64.27707
G1 X70.35 Y73.191 E66.99823
G1 X70.367 Y72.43 E67.07924
G1 X70.425 Y72.005 E67.1249
G1 X70.616 Y71.517 E67.18067
G1 X70.922 Y71.082 E67.23728
G0 F6000 X71.519 Y71.623
G1 F900 X71.771 Y71.403 E67.27288
G1 X72.067 Y71.249 E67.3084
G1 X72.521 Y71.16 E67.35764
G1 X72.88 Y71.15 E67.39586
G1 X95.342 Y71.156 E69.78655
G1 X120.842 Y71.15 E72.50057
G1 X121.262 Y71.156 E72.54528
G1 X146.763 Y71.15 E75.25941
G1 X147.461 Y71.16 E75.33371
G1 X147.792 Y71.205 E75.36926
G1 X148.103 Y71.327 E75.40482
G1 X148.377 Y71.519 E75.44043
G1 X148.597 Y71.77 E75.47595
G1 X148.751 Y72.066 E75.51147
G1 X148.84 Y72.521 E75.56081
G1 X148.85 Y72.88 E75.59903
G1 X148.842 Y97.661 E78.23654
G1 X148.85 Y98.758 E78.3533
G1 X148.844 Y121.242 E80.74632
G1 X148.85 Y146.733 E83.45939
G1 X148.84 Y147.46 E83.53678
G1 X148.795 Y147.791 E83.57233
G1 X148.674 Y148.103 E83.60795
G1 X148.482 Y148.376 E83.64347
G1 X148.231 Y148.596 E83.67899
G1 X147.935 Y148.751 E83.71455
G1 X147.479 Y148.84 E83.764
G1 X147.12 Y148.85 E83.80223
G1 X122.349 Y148.842 E86.43866
G1 X121.237 Y148.85 E86.55702
G1 X98.758 Y148.844 E88.94951
G1 X73.237 Y148.85 E91.66578
G1 X72.539 Y148.84 E91.74007
G1 X72.208 Y148.795 E91.77563
G1 X71.897 Y148.673 E91.81118
G1 X71.623 Y148.481 E91.84679
G1 X71.403 Y148.23 E91.88232
G1 X71.249 Y147.934 E91.91783
G1 X71.16 Y147.478 E91.96728
G1 X71.15 Y147.108 E92.00667
G1 X71.158 Y122.339 E94.6429
G1 X71.15 Y121.237 E94.76019
G1 X71.156 Y98.758 E97.15268
G1 X71.15 Y73.203 E99.87257
G1 X71.16 Y72.538 E99.94335
G1 X71.205 Y72.207 E99.9789
G1 X71.327 Y71.896 E100.01446
G1 X71.519 Y71.623 E100.04998
G1 F1500 E93.54998
G1 F300 Z0.52
;MESH:RelingFu??Deckel-K??rper.stl(7)
G0 F6000 X93.01 Y93.01 Z0.52
;TYPE:WALL-INNER
G1 F300 Z0.32
G1 F1500 E100.04998
G1 F900 X93.01 Y75.19 E101.94661
G1 X75.19 Y75.19 E103.84323
G1 X75.19 Y93.01 E105.73986
G1 X93.01 Y93.01 E107.63649
G0 F6000 X93.81 Y93.81
G1 F900 X93.81 Y74.39 E109.7034
G1 X74.39 Y74.39 E111.77032
G1 X74.39 Y93.81 E113.83724
G1 X93.81 Y93.81 E115.90416
G0 F6000 X94.61 Y94.61
;TYPE:WALL-OUTER
G1 F900 X94.61 Y73.59 E118.14137
G1 X73.59 Y73.59 E120.37858
G1 X73.59 Y94.61 E122.61579
G1 X94.61 Y94.61 E124.853
G1 F1500 E118.353
G1 F300 Z0.52
G0 F6000 X92.29 Y92.29 Z0.52
;TYPE:SKIN
G1 F300 Z0.32
G1 F1500 E124.853
G1 F900 X75.91 Y92.29 E126.59636
G1 X75.91 Y75.91 E128.33972
G1 X92.29 Y75.91 E130.08309
G1 X92.29 Y92.29 E131.82645
G1 F1500 E125.32645
G1 F300 Z0.52
G0 F6000 X91.018 Y76.31 Z0.52
G1 F300 Z0.32
G1 F1500 E131.82645
G1 F900 X91.889 Y77.182 E131.95763
G0 F6000 X91.889 Y78.313
G1 F900 X89.886 Y76.31 E132.25911
G0 F6000 X88.755 Y76.31
G1 F900 X91.889 Y79.444 E132.73084
G0 F6000 X91.889 Y80.576
G1 F900 X87.623 Y76.31 E133.37295
G0 F6000 X86.492 Y76.31
G1 F900 X91.889 Y81.707 E134.1853
G0 F6000 X91.889 Y82.838
G1 F900 X85.361 Y76.31 E135.16788
G0 F6000 X84.229 Y76.31
G1 F900 X91.889 Y83.97 E136.32085
G0 F6000 X91.889 Y85.101
G1 F900 X83.098 Y76.31 E137.64405
G0 F6000 X81.967 Y76.31
G1 F900 X91.889 Y86.233 E139.13757
G0 F6000 X91.889 Y87.364
G1 F900 X80.835 Y76.31 E140.8014
G0 F6000 X79.704 Y76.31
G1 F900 X91.889 Y88.495 E142.63546
G0 F6000 X91.889 Y89.627
G1 F900 X78.572 Y76.31 E144.63991
G0 F6000 X77.441 Y76.31
G1 F900 X91.889 Y90.758 E146.8146
G0 F6000 X91.889 Y91.889
G1 F900 X76.309 Y76.309 E149.15967
G0 F6000 X76.309 Y77.44
G1 F900 X90.757 Y91.889 E151.33444
G0 F6000 X89.626 Y91.889
G1 F900 X76.309 Y78.572 E153.33889
G0 F6000 X76.309 Y79.703
G1 F900 X88.495 Y91.889 E155.1731
G0 F6000 X87.363 Y91.889
G1 F900 X76.309 Y80.835 E156.83693
G0 F6000 X76.309 Y81.966
G1 F900 X86.232 Y91.889 E158.33052
G0 F6000 X85.101 Y91.889
G1 F900 X76.309 Y83.097 E159.65388
G0 F6000 X76.309 Y84.229
G1 F900 X83.969 Y91.889 E160.80685
G0 F6000 X82.838 Y91.889
G1 F900 X76.309 Y85.36 E161.78958
G0 F6000 X76.309 Y86.491
G1 F900 X81.706 Y91.889 E162.602
G0 F6000 X80.575 Y91.889
G1 F900 X76.309 Y87.623 E163.24411
G0 F6000 X76.309 Y88.754
G1 F900 X79.444 Y91.889 E163.71599
G0 F6000 X78.312 Y91.889
G1 F900 X76.309 Y89.885 E164.01755
G0 F6000 X76.309 Y91.017
G1 F900 X77.181 Y91.889 E164.1488
G1 F1500 E157.6488
G1 F300 Z0.52
;MESH:RelingFu??Deckel-K??rper.stl(1)
G0 F6000 X118.91 Y93.01 Z0.52
;TYPE:WALL-INNER
G1 F300 Z0.32
G1 F1500 E164.1488
G1 F900 X118.91 Y75.19 E166.04543
G1 X101.09 Y75.19 E167.94205
G1 X101.09 Y93.01 E169.83868
G1 X118.91 Y93.01 E171.7353
G0 F6000 X119.71 Y93.81
G1 F900 X119.71 Y74.39 E173.80222
G1 X100.29 Y74.39 E175.86914
G1 X100.29 Y93.81 E177.93606
G1 X119.71 Y93.81 E180.00298
G0 F6000 X120.51 Y94.61
;TYPE:WALL-OUTER
G1 F900 X120.51 Y73.59 E182.24019
G1 X99.49 Y73.59 E184.4774
G1 X99.49 Y94.61 E186.71461
G1 X120.51 Y94.61 E188.95182
G1 F1500 E182.45182
G1 F300 Z0.52
G0 F6000 X118.19 Y92.29 Z0.52
;TYPE:SKIN
G1 F300 Z0.32
G1 F1500 E188.95182
G1 F900 X101.81 Y92.29 E190.69518
G1 X101.81 Y75.91 E192.43854
G1 X118.19 Y75.91 E194.1819
G1 X118.19 Y92.29 E195.92527
G1 F1500 E189.42527
G1 F300 Z0.52
G0 F6000 X117.789 Y77.06 Z0.52
G1 F300 Z0.32
G1 F1500 E195.92527
G1 F900 X117.039 Y76.31 E196.03816
G0 F6000 X115.908 Y76.31
G1 F900 X117.789 Y78.191 E196.32128
G0 F6000 X117.789 Y79.323
G1 F900 X114.776 Y76.31 E196.77479
G0 F6000 X113.645 Y76.31
G1 F900 X117.789 Y80.454 E197.39854
G0 F6000 X117.789 Y81.585
G1 F900 X112.514 Y76.31 E198.19252
G0 F6000 X111.382 Y76.31
G1 F900 X117.789 Y82.717 E199.15689
G0 F6000 X117.789 Y83.848
G1 F900 X110.251 Y76.31 E200.2915
G0 F6000 X109.12 Y76.31
G1 F900 X117.789 Y84.98 E201.59642
G0 F6000 X117.789 Y86.111
G1 F900 X107.988 Y76.31 E203.07165
G0 F6000 X106.857 Y76.31
G1 F900 X117.789 Y87.242 E204.71711
G0 F6000 X117.789 Y88.374
G1 F900 X105.725 Y76.31 E206.53296
G0 F6000 X104.594 Y76.31
G1 F900 X117.789 Y89.505 E208.51905
G0 F6000 X117.789 Y90.636
G1 F900 X103.463 Y76.31 E210.67537
G0 F6000 X102.331 Y76.31
G1 F900 X117.789 Y91.768 E213.00208
G0 F6000 X116.78 Y91.889
G1 F900 X102.209 Y77.319 E215.19521
G0 F6000 X102.209 Y78.45
G1 F900 X115.648 Y91.889 E217.21802
G0 F6000 X114.517 Y91.889
G1 F900 X102.209 Y79.582 E219.07053
G0 F6000 X102.209 Y80.713
G1 F900 X113.385 Y91.889 E220.75272
G0 F6000 X112.254 Y91.889
G1 F900 X102.209 Y81.844 E222.26467
G0 F6000 X102.209 Y82.976
G1 F900 X111.123 Y91.889 E223.60632
G0 F6000 X109.991 Y91.889
G1 F900 X102.209 Y84.107 E224.77765
G0 F6000 X102.209 Y85.238
G1 F900 X108.86 Y91.889 E225.77874
G0 F6000 X107.729 Y91.889
G1 F900 X102.209 Y86.37 E226.60953
G0 F6000 X102.209 Y87.501
G1 F900 X106.597 Y91.889 E227.27
G0 F6000 X105.466 Y91.889
G1 F900 X102.209 Y88.633 E227.76017
G0 F6000 X102.209 Y89.764
G1 F900 X104.335 Y91.889 E228.08009
G0 F6000 X103.203 Y91.889
G1 F900 X102.209 Y90.895 E228.22971
G1 F1500 E221.72971
G1 F300 Z0.52
;MESH:RelingFu??Deckel-K??rper.stl
G0 F6000 X118.91 Y118.91 Z0.52
;TYPE:WALL-INNER
G1 F300 Z0.32
G1 F1500 E228.22971
G1 F900 X118.91 Y101.09 E230.12633
G1 X101.09 Y101.09 E232.02296
G1 X101.09 Y118.91 E233.91959
G1 X118.91 Y118.91 E235.81621
G0 F6000 X119.71 Y119.71
G1 F900 X119.71 Y100.29 E237.88313
G1 X100.29 Y100.29 E239.95005
G1 X100.29 Y119.71 E242.01696
G1 X119.71 Y119.71 E244.08388
G0 F6000 X120.51 Y120.51
;TYPE:WALL-OUTER
G1 F900 X120.51 Y99.49 E246.32109
G1 X99.49 Y99.49 E248.5583
G1 X99.49 Y120.51 E250.79551
G1 X120.51 Y120.51 E253.03272
G1 F1500 E246.53272
G1 F300 Z0.52
G0 F6000 X118.19 Y118.19 Z0.52
;TYPE:SKIN
G1 F300 Z0.32
G1 F1500 E253.03272
G1 F900 X101.81 Y118.19 E254.77608
G1 X101.81 Y101.81 E256.51945
G1 X118.19 Y101.81 E258.26281
G1 X118.19 Y118.19 E260.00617
G1 F1500 E253.50617
G1 F300 Z0.52
G0 F6000 X117.789 Y103.082 Z0.52
G1 F300 Z0.32
G1 F1500 E260.00617
G1 F900 X116.917 Y102.21 E260.13743
G0 F6000 X115.786 Y102.21
G1 F900 X117.789 Y104.213 E260.43891
G0 F6000 X117.789 Y105.344
G1 F900 X114.655 Y102.21 E260.91064
G0 F6000 X113.523 Y102.21
G1 F900 X117.789 Y106.476 E261.55275
G0 F6000 X117.789 Y107.607
G1 F900 X112.392 Y102.21 E262.3651
G0 F6000 X111.261 Y102.21
G1 F900 X117.789 Y108.738 E263.34768
G0 F6000 X117.789 Y109.87
G1 F900 X110.129 Y102.21 E264.50065
G0 F6000 X108.998 Y102.21
G1 F900 X117.789 Y111.001 E265.82385
G0 F6000 X117.789 Y112.132
G1 F900 X107.867 Y102.21 E267.31729
G0 F6000 X106.735 Y102.21
G1 F900 X117.789 Y113.264 E268.98112
G0 F6000 X117.789 Y114.395
G1 F900 X105.604 Y102.21 E270.81519
G0 F6000 X104.472 Y102.21
G1 F900 X117.789 Y115.527 E272.81964
G0 F6000 X117.789 Y116.658
G1 F900 X103.341 Y102.21 E274.99432
G0 F6000 X102.209 Y102.209
G1 F900 X117.789 Y117.789 E277.3394
G0 F6000 X116.657 Y117.789
G1 F900 X102.209 Y103.34 E279.51416
G0 F6000 X102.209 Y104.472
G1 F900 X115.526 Y117.789 E281.51861
G0 F6000 X114.395 Y117.789
G1 F900 X102.209 Y105.603 E283.35283
G0 F6000 X102.209 Y106.734
G1 F900 X113.263 Y117.789 E285.01673
G0 F6000 X112.132 Y117.789
G1 F900 X102.209 Y107.866 E286.51032
G0 F6000 X102.209 Y108.997
G1 F900 X111 Y117.789 E287.8336
G0 F6000 X109.869 Y117.789
G1 F900 X102.209 Y110.129 E288.98657
G0 F6000 X102.209 Y111.26
G1 F900 X108.738 Y117.789 E289.9693
G0 F6000 X107.606 Y117.789
G1 F900 X102.209 Y112.391 E290.78173
G0 F6000 X102.209 Y113.523
G1 F900 X106.475 Y117.789 E291.42384
G0 F6000 X105.344 Y117.789
G1 F900 X102.209 Y114.654 E291.89571
G0 F6000 X102.209 Y115.785
G1 F900 X104.212 Y117.789 E292.19727
G0 F6000 X103.081 Y117.789
G1 F900 X102.209 Y116.917 E292.32853
G1 F1500 E285.82853
G1 F300 Z0.52
;MESH:RelingFu??Deckel-K??rper.stl(2)
G0 F6000 X118.91 Y144.81 Z0.52
;TYPE:WALL-INNER
G1 F300 Z0.32
G1 F1500 E292.32853
G1 F900 X118.91 Y126.99 E294.22515
G1 X101.09 Y126.99 E296.12178
G1 X101.09 Y144.81 E298.0184
G1 X118.91 Y144.81 E299.91503
G0 F6000 X119.71 Y145.61
G1 F900 X119.71 Y126.19 E301.98195
G1 X100.29 Y126.19 E304.04887
G1 X100.29 Y145.61 E306.11578
G1 X119.71 Y145.61 E308.1827
G0 F6000 X120.51 Y146.41
;TYPE:WALL-OUTER
G1 F900 X120.51 Y125.39 E310.41991
G1 X99.49 Y125.39 E312.65712
G1 X99.49 Y146.41 E314.89433
G1 X120.51 Y146.41 E317.13154
G1 F1500 E310.63154
G1 F300 Z0.52
G0 F6000 X118.19 Y144.09 Z0.52
;TYPE:SKIN
G1 F300 Z0.32
G1 F1500 E317.13154
G1 F900 X101.81 Y144.09 E318.8749
G1 X101.81 Y127.71 E320.61827
G1 X118.19 Y127.71 E322.36163
G1 X118.19 Y144.09 E324.10499
G1 F1500 E317.60499
G1 F300 Z0.52
G0 F6000 X117.789 Y129.103 Z0.52
G1 F300 Z0.32
G1 F1500 E324.10499
G1 F900 X116.795 Y128.109 E324.25461
G0 F6000 X115.664 Y128.109
G1 F900 X117.789 Y130.234 E324.57446
G0 F6000 X117.789 Y131.366
G1 F900 X114.532 Y128.109 E325.0647
G0 F6000 X113.401 Y128.109
G1 F900 X117.789 Y132.497 E325.72517
G0 F6000 X117.789 Y133.629
G1 F900 X112.27 Y128.109 E326.55596
G0 F6000 X111.138 Y128.109
G1 F900 X117.789 Y134.76 E327.55705
G0 F6000 X117.789 Y135.891
G1 F900 X110.007 Y128.109 E328.72838
G0 F6000 X108.876 Y128.109
G1 F900 X117.789 Y137.023 E330.07003
G0 F6000 X117.789 Y138.154
G1 F900 X107.744 Y128.109 E331.58198
G0 F6000 X106.613 Y128.109
G1 F900 X117.789 Y139.285 E333.26418
G0 F6000 X117.789 Y140.417
G1 F900 X105.481 Y128.109 E335.11675
G0 F6000 X104.35 Y128.109
G1 F900 X117.789 Y141.548 E337.13957
G0 F6000 X117.789 Y142.68
G1 F900 X103.219 Y128.109 E339.33269
G0 F6000 X102.209 Y128.23
G1 F900 X117.667 Y143.689 E341.65948
G0 F6000 X116.536 Y143.689
G1 F900 X102.209 Y129.362 E343.81595
G0 F6000 X102.209 Y130.493
G1 F900 X115.404 Y143.689 E345.80211
G0 F6000 X114.273 Y143.689
G1 F900 X102.209 Y131.625 E347.61797
G0 F6000 X102.209 Y132.756
G1 F900 X113.142 Y143.689 E349.26358
G0 F6000 X112.01 Y143.689
G1 F900 X102.209 Y133.887 E350.73889
G0 F6000 X102.209 Y135.019
G1 F900 X110.879 Y143.689 E352.04388
G0 F6000 X109.747 Y143.689
G1 F900 X102.209 Y136.15 E353.17856
G0 F6000 X102.209 Y137.281
G1 F900 X108.616 Y143.689 E354.143
G0 F6000 X107.485 Y143.689
G1 F900 X102.209 Y138.413 E354.93714
G0 F6000 X102.209 Y139.544
G1 F900 X106.353 Y143.689 E355.56096
G0 F6000 X105.222 Y143.689
G1 F900 X102.209 Y140.676 E356.01447
G0 F6000 X102.209 Y141.807
G1 F900 X104.091 Y143.689 E356.29775
G0 F6000 X102.959 Y143.689
G1 F900 X102.209 Y142.938 E356.41071
G1 F1500 E349.91071
G1 F300 Z0.52
;MESH:RelingFu??Deckel-K??rper.stl(5)
G0 F6000 X93.01 Y144.81 Z0.52
;TYPE:WALL-INNER
G1 F300 Z0.32
G1 F1500 E356.41071
G1 F900 X93.01 Y126.99 E358.30734
G1 X75.19 Y126.99 E360.20396
G1 X75.19 Y144.81 E362.10059
G1 X93.01 Y144.81 E363.99722
G0 F6000 X93.81 Y145.61
G1 F900 X93.81 Y126.19 E366.06413
G1 X74.39 Y126.19 E368.13105
