;FLAVOR:Marlin
;TIME:911
;Filament used: 1.5893m
;Layer height: 0.32
;MINX:95.45
;MINY:95.45
;MINZ:0.32
;MAXX:124.55
;MAXY:124.55
;MAXZ:15.24
;TARGET_MACHINE.NAME:Creality Ender-3 Pro
;Generated with Cura_SteamEngine 5.5.0
M82 ;absolute extrusion mode
; Ender 3 Custom Start G-code
G92 E0 ; Reset Extruder
G28 ; Home all axes
G1 Z5.0 F3000 ; Move Z Axis up a bit during heating to not damage bed
M104 S120 ; Start heating up the nozzle most of the way
M190 S80.0 ; Start heating the bed, wait until target temperature reached
M109 S235.0 ; Finish heating the nozzle
G1 Z2.0 F3000 ; Move Z Axis up little to prevent scratching of Heat Bed
G1 X0.1 Y20 Z0.3 F5000.0 ; Move to start position
G1 X0.1 Y200.0 Z0.3 F1500.0 E15 ; Draw the first line
G1 X0.4 Y200.0 Z0.3 F5000.0 ; Move to side a little
G1 X0.4 Y20 Z0.3 F1500.0 E30 ; Draw the second line
G92 E0 ; Reset Extruder
G1 Z2.0 F3000 ; Move Z Axis up little to prevent scratching of Heat Bed
G1 X5 Y20 Z0.3 F5000.0 ; Move over to prevent blob squish
G92 E0
G92 E0
G1 F1500 E-6.5
;LAYER_COUNT:47
;LAYER:0
M107
G1 F300 Z0.52
G0 F6000 X96.218 Y96.447 Z0.52
;TYPE:SKIRT
G1 F300 Z0.32
G1 F1500 E0
G1 F900 X96.758 Y95.974 E0.0764
G1 X97.426 Y95.625 E0.15662
G1 X98.25 Y95.464 E0.24598
G1 X98.735 Y95.45 E0.29762
G1 X120.891 Y95.45 E2.65574
G1 X121.777 Y95.474 E2.75007
G1 X122.296 Y95.545 E2.80582
G1 X122.961 Y95.805 E2.88182
G1 X123.554 Y96.22 E2.95885
G1 X124.028 Y96.759 E3.03525
G1 X124.377 Y97.434 E3.11612
G1 X124.536 Y98.25 E3.20461
G1 X124.55 Y98.735 E3.25625
G1 X124.55 Y120.851 E5.61011
G1 X124.541 Y121.578 E5.68749
G1 X124.462 Y122.279 E5.76257
G1 X124.198 Y122.959 E5.84021
G1 X123.782 Y123.553 E5.91739
G1 X123.243 Y124.025 E5.99364
G1 X122.574 Y124.375 E6.074
G1 X121.755 Y124.536 E6.16284
G1 X121.265 Y124.55 E6.21501
G1 X99.119 Y124.55 E8.57207
G1 X98.421 Y124.541 E8.64636
G1 X97.716 Y124.462 E8.72187
G1 X97.045 Y124.199 E8.79857
G1 X96.449 Y123.783 E8.87593
G1 X95.973 Y123.242 E8.95262
G1 X95.624 Y122.573 E9.03293
G1 X95.464 Y121.752 E9.12196
G1 X95.45 Y121.252 E9.1752
G1 X95.45 Y99.083 E11.5347
G1 X95.459 Y98.418 E11.60548
G1 X95.538 Y97.715 E11.68077
G1 X95.804 Y97.036 E11.75839
G1 X96.218 Y96.447 E11.83501
G0 F6000 X96.818 Y96.985
G1 F900 X97.213 Y96.639 E11.8909
G1 X97.695 Y96.387 E11.94879
G1 X98.335 Y96.262 E12.0182
G1 X98.758 Y96.25 E12.06323
G1 X120.874 Y96.25 E14.41709
G1 X121.669 Y96.267 E14.50173
G1 X122.094 Y96.325 E14.54738
G1 X122.582 Y96.516 E14.60316
G1 X123.016 Y96.82 E14.65955
G1 X123.363 Y97.215 E14.71551
G1 X123.614 Y97.699 E14.77354
G1 X123.738 Y98.335 E14.84251
G1 X123.75 Y98.758 E14.88754
G1 X123.75 Y120.841 E17.23789
G1 X123.741 Y121.568 E17.31527
G1 X123.679 Y122.085 E17.37069
G1 X123.487 Y122.58 E17.4272
G1 X123.183 Y123.014 E17.4836
G1 X122.788 Y123.36 E17.53949
G1 X122.305 Y123.613 E17.59752
G1 X121.668 Y123.738 E17.66661
G1 X121.242 Y123.75 E17.71197
G1 X99.129 Y123.75 E20.06551
G1 X98.431 Y123.741 E20.1398
G1 X97.912 Y123.679 E20.19544
G1 X97.422 Y123.487 E20.25145
G1 X96.987 Y123.184 E20.30787
G1 X96.638 Y122.787 E20.36413
G1 X96.387 Y122.305 E20.42197
G1 X96.262 Y121.666 E20.49127
G1 X96.25 Y121.23 E20.53769
G1 X96.25 Y99.094 E22.89368
G1 X96.259 Y98.429 E22.96446
G1 X96.321 Y97.911 E23.01999
G1 X96.514 Y97.418 E23.07634
G1 X96.818 Y96.985 E23.13265
G0 F6000 X97.417 Y97.524
G1 F900 X97.668 Y97.304 E23.16817
G1 X97.964 Y97.149 E23.20373
G1 X98.42 Y97.06 E23.25318
G1 X98.78 Y97.05 E23.29151
G1 X120.863 Y97.05 E25.64186
G1 X121.561 Y97.06 E25.71616
G1 X121.892 Y97.105 E25.75171
G1 X122.203 Y97.227 E25.78727
G1 X122.477 Y97.419 E25.82288
G1 X122.697 Y97.67 E25.8584
G1 X122.851 Y97.966 E25.89391
G1 X122.94 Y98.421 E25.94326
G1 X122.95 Y98.78 E25.98148
G1 X122.95 Y120.831 E28.32842
G1 X122.941 Y121.558 E28.4058
G1 X122.897 Y121.889 E28.44134
G1 X122.776 Y122.201 E28.47696
G1 X122.584 Y122.475 E28.51257
G1 X122.333 Y122.695 E28.54809
G1 X122.037 Y122.85 E28.58366
G1 X121.58 Y122.94 E28.63323
G1 X121.22 Y122.95 E28.67156
G1 X99.139 Y122.95 E31.02169
G1 X98.441 Y122.941 E31.09599
G1 X98.11 Y122.897 E31.13153
G1 X97.799 Y122.775 E31.16709
G1 X97.525 Y122.584 E31.20263
G1 X97.304 Y122.333 E31.23823
G1 X97.15 Y122.037 E31.27374
G1 X97.06 Y121.579 E31.32342
G1 X97.05 Y121.208 E31.36292
G1 X97.05 Y99.105 E33.7154
G1 X97.059 Y98.44 E33.78618
G1 X97.103 Y98.109 E33.82172
G1 X97.225 Y97.798 E33.85728
G1 X97.417 Y97.524 E33.89289
G1 F1500 E27.39289
G1 F300 Z0.52
;MESH:RelingFu??Deckel-K??rper.stl
G0 F6000 X118.91 Y118.91 Z0.52
;TYPE:WALL-INNER
G1 F300 Z0.32
G1 F1500 E33.89289
G1 F900 X118.91 Y101.09 E35.78951
G1 X101.09 Y101.09 E37.68614
G1 X101.09 Y118.91 E39.58276
G1 X118.91 Y118.91 E41.47939
G0 F6000 X119.71 Y119.71
G1 F900 X119.71 Y100.29 E43.54631
G1 X100.29 Y100.29 E45.61322
G1 X100.29 Y119.71 E47.68014
G1 X119.71 Y119.71 E49.74706
G0 F6000 X120.51 Y120.51
;TYPE:WALL-OUTER
G1 F900 X120.51 Y99.49 E51.98427
G1 X99.49 Y99.49 E54.22148
G1 X99.49 Y120.51 E56.45869
G1 X120.51 Y120.51 E58.6959
G1 F1500 E52.1959
G1 F300 Z0.52
G0 F6000 X118.19 Y118.19 Z0.52
;TYPE:SKIN
G1 F300 Z0.32
G1 F1500 E58.6959
G1 F900 X101.81 Y118.19 E60.43926
G1 X101.81 Y101.81 E62.18263
G1 X118.19 Y101.81 E63.92599
G1 X118.19 Y118.19 E65.66935
G1 F1500 E59.16935
G1 F300 Z0.52
G0 F6000 X117.789 Y103.082 Z0.52
G1 F300 Z0.32
G1 F1500 E65.66935
G1 F900 X116.917 Y102.21 E65.8006
G0 F6000 X115.786 Y102.21
G1 F900 X117.789 Y104.213 E66.10209
G0 F6000 X117.789 Y105.344
G1 F900 X114.655 Y102.21 E66.57382
G0 F6000 X113.523 Y102.21
G1 F900 X117.789 Y106.476 E67.21593
G0 F6000 X117.789 Y107.607
G1 F900 X112.392 Y102.21 E68.02827
G0 F6000 X111.261 Y102.21
G1 F900 X117.789 Y108.738 E69.01086
G0 F6000 X117.789 Y109.87
G1 F900 X110.129 Y102.21 E70.16383
G0 F6000 X108.998 Y102.21
G1 F900 X117.789 Y111.001 E71.48703
G0 F6000 X117.789 Y112.132
G1 F900 X107.867 Y102.21 E72.98047
G0 F6000 X106.735 Y102.21
G1 F900 X117.789 Y113.264 E74.6443
G0 F6000 X117.789 Y114.395
G1 F900 X105.604 Y102.21 E76.47836
G0 F6000 X104.472 Y102.21
G1 F900 X117.789 Y115.527 E78.48282
G0 F6000 X117.789 Y116.658
G1 F900 X103.341 Y102.21 E80.6575
G0 F6000 X102.209 Y102.209
G1 F900 X117.789 Y117.789 E83.00258
G0 F6000 X116.657 Y117.789
G1 F900 X102.209 Y103.34 E85.17734
G0 F6000 X102.209 Y104.472
G1 F900 X115.526 Y117.789 E87.18179
G0 F6000 X114.395 Y117.789
G1 F900 X102.209 Y105.603 E89.016
G0 F6000 X102.209 Y106.734
G1 F900 X113.263 Y117.789 E90.67991
G0 F6000 X112.132 Y117.789
G1 F900 X102.209 Y107.866 E92.1735
G0 F6000 X102.209 Y108.997
G1 F900 X111 Y117.789 E93.49678
G0 F6000 X109.869 Y117.789
G1 F900 X102.209 Y110.129 E94.64975
G0 F6000 X102.209 Y111.26
G1 F900 X108.738 Y117.789 E95.63248
G0 F6000 X107.606 Y117.789
G1 F900 X102.209 Y112.391 E96.4449
G0 F6000 X102.209 Y113.523
M104 S230
G1 F900 X106.475 Y117.789 E97.08701
G0 F6000 X105.344 Y117.789
G1 F900 X102.209 Y114.654 E97.55889
G0 F6000 X102.209 Y115.785
G1 F900 X104.212 Y117.789 E97.86045
G0 F6000 X103.081 Y117.789
G1 F900 X102.209 Y116.917 E97.9917
G1 F1500 E91.4917
G1 F300 Z0.52
;MESH:NONMESH
G0 F6000 X97.417 Y97.524 Z0.52
;TIME_ELAPSED:71.438516
;LAYER:1
M140 S70
G0 F7500 X97.417 Y97.524 Z0.84
;TYPE:SKIRT
G1 F300 Z0.64
G1 F1500 E97.9917
G1 F900 X97.668 Y97.304 E98.02723
G1 X97.964 Y97.149 E98.06279
G1 X98.42 Y97.06 E98.11224
G1 X98.78 Y97.05 E98.15057
G1 X120.863 Y97.05 E100.50092
G1 X121.561 Y97.06 E100.57521
G1 X121.892 Y97.105 E100.61077
G1 X122.203 Y97.227 E100.64632
G1 X122.477 Y97.419 E100.68193
G1 X122.697 Y97.67 E100.71746
G1 X122.851 Y97.966 E100.75297
G1 X122.94 Y98.421 E100.80231
G1 X122.95 Y98.78 E100.84054
G1 X122.95 Y120.831 E103.18748
G1 X122.941 Y121.558 E103.26486
G1 X122.897 Y121.889 E103.3004
G1 X122.776 Y122.201 E103.33602
G1 X122.584 Y122.475 E103.37163
G1 X122.333 Y122.695 E103.40715
G1 X122.037 Y122.85 E103.44271
G1 X121.58 Y122.94 E103.49229
G1 X121.22 Y122.95 E103.53062
G1 X99.139 Y122.95 E105.88075
G1 X98.441 Y122.941 E105.95505
G1 X98.11 Y122.897 E105.99059
G1 X97.799 Y122.775 E106.02614
G1 X97.525 Y122.584 E106.06169
G1 X97.304 Y122.333 E106.09729
G1 X97.15 Y122.037 E106.1328
G1 X97.06 Y121.579 E106.18248
G1 X97.05 Y121.208 E106.22198
G1 X97.05 Y99.105 E108.57445
G1 X97.059 Y98.44 E108.64524
G1 X97.103 Y98.109 E108.68078
G1 X97.225 Y97.798 E108.71633
G1 X97.417 Y97.524 E108.75194
G1 F1500 E102.25194
G1 F300 Z0.84
;MESH:RelingFu??Deckel-K??rper.stl
G0 F7500 X119.23 Y119.23 Z0.84
;TYPE:WALL-INNER
G1 F300 Z0.64
G1 F1500 E108.75194
G1 F1200 X119.23 Y100.77 E110.71668
G1 X100.77 Y100.77 E112.68143
G1 X100.77 Y119.23 E114.64617
G1 X119.23 Y119.23 E116.61091
G0 F7500 X120.03 Y120.03
G1 F1200 X120.03 Y99.97 E118.74595
G1 X99.97 Y99.97 E120.88098
G1 X99.97 Y120.03 E123.01602
G1 X120.03 Y120.03 E125.15105
G0 F7500 X120.83 Y120.83
;TYPE:WALL-OUTER
G1 F1200 X120.83 Y99.17 E127.45638
G1 X99.17 Y99.17 E129.7617
G1 X99.17 Y120.83 E132.06703
G1 X120.83 Y120.83 E134.37236
G1 F1500 E127.87236
G1 F300 Z0.84
G0 F7500 X118.51 Y118.51 Z0.84
;TYPE:SKIN
G1 F300 Z0.64
G1 F1500 E134.37236
G1 F1200 X101.49 Y118.51 E136.18384
G1 X101.49 Y101.49 E137.99532
G1 X118.51 Y101.49 E139.8068
G1 X118.51 Y118.51 E141.61828
G0 F7500 X117.215 Y118.109
G1 F1200 X118.109 Y117.215 E141.75284
G0 F7500 X118.109 Y116.084
G1 F1200 X116.084 Y118.109 E142.05764
G0 F7500 X114.952 Y118.109
G1 F1200 X118.109 Y114.952 E142.53283
G0 F7500 X118.109 Y113.821
G1 F1200 X113.821 Y118.109 E143.17825
G0 F7500 X112.69 Y118.109
G1 F1200 X118.109 Y112.69 E143.99391
G0 F7500 X118.109 Y111.558
G1 F1200 X111.558 Y118.109 E144.97995
G0 F7500 X110.427 Y118.109
G1 F1200 X118.109 Y110.427 E146.13623
G0 F7500 X118.109 Y109.296
G1 F1200 X109.296 Y118.109 E147.46275
G0 F7500 X108.164 Y118.109
G1 F1200 X118.109 Y108.164 E148.95965
G0 F7500 X118.109 Y107.033
G1 F1200 X107.033 Y118.109 E150.62679
G0 F7500 X105.901 Y118.109
G1 F1200 X118.109 Y105.901 E152.46432
G0 F7500 X118.109 Y104.77
G1 F1200 X104.77 Y118.109 E154.47208
G0 F7500 X103.639 Y118.109
G1 F1200 X118.109 Y103.639 E156.65008
G0 F7500 X118.109 Y102.507
G1 F1200 X102.507 Y118.109 E158.99846
G0 F7500 X101.889 Y117.596
G1 F1200 X117.596 Y101.889 E161.36265
G0 F7500 X116.464 Y101.889
G1 F1200 X101.889 Y116.464 E163.55645
G0 F7500 X101.889 Y115.333
G1 F1200 X115.333 Y101.889 E165.58002
G0 F7500 X114.201 Y101.889
G1 F1200 X101.889 Y114.201 E167.4332
G0 F7500 X101.889 Y113.07
G1 F1200 X113.07 Y101.889 E169.11614
G0 F7500 X111.939 Y101.889
G1 F1200 X101.889 Y111.939 E170.62885
G0 F7500 X101.889 Y110.807
G1 F1200 X110.807 Y101.889 E171.97117
G0 F7500 X109.676 Y101.889
G1 F1200 X101.889 Y109.676 E173.14326
G0 F7500 X101.889 Y108.545
G1 F1200 X108.545 Y101.889 E174.14511
G0 F7500 X107.413 Y101.889
G1 F1200 X101.889 Y107.413 E174.97657
G0 F7500 X101.889 Y106.282
G1 F1200 X106.282 Y101.889 E175.6378
G0 F7500 X105.151 Y101.889
G1 F1200 X101.889 Y105.151 E176.12879
G0 F7500 X101.889 Y104.019
G1 F1200 X104.019 Y101.889 E176.44939
G0 F7500 X102.888 Y101.889
G1 F1200 X101.889 Y102.888 E176.59976
G1 F1500 E170.09976
G1 F300 Z0.84
;MESH:NONMESH
G0 F7500 X97.417 Y97.524 Z0.84
;TIME_ELAPSED:115.490576
;LAYER:2
G0 F9000 X97.417 Y97.524 Z1.16
;TYPE:SKIRT
G1 F300 Z0.96
G1 F1500 E176.59976
G1 F900 X97.668 Y97.304 E176.63528
G1 X97.964 Y97.149 E176.67084
G1 X98.42 Y97.06 E176.72029
G1 X98.78 Y97.05 E176.75862
G1 X120.863 Y97.05 E179.10897
G1 X121.561 Y97.06 E179.18327
G1 X121.892 Y97.105 E179.21882
G1 X122.203 Y97.227 E179.25438
G1 X122.477 Y97.419 E179.28999
G1 X122.697 Y97.67 E179.32551
G1 X122.851 Y97.966 E179.36102
G1 X122.94 Y98.421 E179.41037
G1 X122.95 Y98.78 E179.44859
G1 X122.95 Y120.831 E181.79553
G1 X122.941 Y121.558 E181.87292
G1 X122.897 Y121.889 E181.90845
G1 X122.776 Y122.201 E181.94407
G1 X122.584 Y122.475 E181.97968
G1 X122.333 Y122.695 E182.0152
G1 X122.037 Y122.85 E182.05077
G1 X121.58 Y122.94 E182.10034
G1 X121.22 Y122.95 E182.13867
G1 X99.139 Y122.95 E184.48881
G1 X98.441 Y122.941 E184.5631
G1 X98.11 Y122.897 E184.59864
G1 X97.799 Y122.775 E184.6342
G1 X97.525 Y122.584 E184.66975
G1 X97.304 Y122.333 E184.70534
G1 X97.15 Y122.037 E184.74085
G1 X97.06 Y121.579 E184.79053
G1 X97.05 Y121.208 E184.83003
G1 X97.05 Y99.105 E187.18251
G1 X97.059 Y98.44 E187.25329
G1 X97.103 Y98.109 E187.28883
G1 X97.225 Y97.798 E187.32439
G1 X97.417 Y97.524 E187.36
G1 F1500 E180.86
G1 F300 Z1.16
;MESH:RelingFu??Deckel-K??rper.stl
G0 F9000 X119.55 Y119.55 Z1.16
;TYPE:WALL-INNER
G1 F300 Z0.96
G1 F1500 E187.36
G1 X119.55 Y100.45 E189.39286
G1 X100.45 Y100.45 E191.42571
G1 X100.45 Y119.55 E193.45857
G1 X119.55 Y119.55 E195.49143
G0 F9000 X120.35 Y120.35
G1 F1500 X120.35 Y99.65 E197.69459
G1 X99.65 Y99.65 E199.89774
G1 X99.65 Y120.35 E202.10089
G1 X120.35 Y120.35 E204.30404
G0 F9000 X121.15 Y121.15
;TYPE:WALL-OUTER
G1 F1500 X121.15 Y98.85 E206.67748
G1 X98.85 Y98.85 E209.05093
G1 X98.85 Y121.15 E211.42437
G1 X121.15 Y121.15 E213.79781
G1 F1500 E207.29781
G1 F300 Z1.16
G0 F9000 X118.83 Y118.83 Z1.16
;TYPE:SKIN
G1 F300 Z0.96
G1 F1500 E213.79781
G1 X101.17 Y118.83 E215.67741
G1 X101.17 Y101.17 E217.55701
G1 X118.83 Y101.17 E219.4366
G1 X118.83 Y118.83 E221.3162
G1 F1500 E214.8162
G1 F300 Z1.16
G0 F9000 X118.429 Y102.59 Z1.16
G1 F300 Z0.96
G1 F1500 E221.3162
G1 X117.409 Y101.57 E221.46973
G0 F9000 X116.278 Y101.57
G1 F1500 X118.429 Y103.721 E221.79349
G0 F9000 X118.429 Y104.853
G1 F1500 X115.146 Y101.57 E222.28764
G0 F9000 X114.015 Y101.57
G1 F1500 X118.429 Y105.984 E222.95203
G0 F9000 X118.429 Y107.116
G1 F1500 X112.883 Y101.57 E223.7868
G0 F9000 X111.752 Y101.57
G1 F1500 X118.429 Y108.247 E224.79181
G0 F9000 X118.429 Y109.378
G1 F1500 X110.621 Y101.57 E225.96706
G0 F9000 X109.489 Y101.57
G1 F1500 X118.429 Y110.51 E227.31269
G0 F9000 X118.429 Y111.641
G1 F1500 X108.358 Y101.57 E228.82856
G0 F9000 X107.227 Y101.57
G1 F1500 X118.429 Y112.772 E230.51467
G0 F9000 X118.429 Y113.904
G1 F1500 X106.095 Y101.57 E232.37116
G0 F9000 X104.964 Y101.57
G1 F1500 X118.429 Y115.035 E234.39789
G0 F9000 X118.429 Y116.167
G1 F1500 X103.832 Y101.57 E236.595
G0 F9000 X102.701 Y101.57
G1 F1500 X118.429 Y117.298 E238.96235
G0 F9000 X118.429 Y118.429
G1 F1500 X101.569 Y101.569 E241.50009
G0 F9000 X101.569 Y102.7
G1 F1500 X117.297 Y118.429 E243.86751
G0 F9000 X116.166 Y118.429
G1 F1500 X101.569 Y103.832 E246.06463
G0 F9000 X101.569 Y104.963
G1 F1500 X115.034 Y118.429 E248.09143
G0 F9000 X113.903 Y118.429
G1 F1500 X101.569 Y106.095 E249.94792
G0 F9000 X101.569 Y107.226
G1 F1500 X112.772 Y118.429 E251.63417
G0 F9000 X111.64 Y118.429
G1 F1500 X101.569 Y108.357 E253.15012
G0 F9000 X101.569 Y109.489
G1 F1500 X110.509 Y118.429 E254.49575
G0 F9000 X109.378 Y118.429
G1 F1500 X101.569 Y110.62 E255.67115
G0 F9000 X101.569 Y111.751
G1 F1500 X108.246 Y118.429 E256.67623
G0 F9000 X107.115 Y118.429
G1 F1500 X101.569 Y112.883 E257.51101
G0 F9000 X101.569 Y114.014
G1 F1500 X105.983 Y118.429 E258.17547
G0 F9000 X104.852 Y118.429
G1 F1500 X101.569 Y115.145 E258.6697
G0 F9000 X101.569 Y116.277
G1 F1500 X103.721 Y118.429 E258.99361
G0 F9000 X102.589 Y118.429
G1 F1500 X101.569 Y117.408 E259.14721
G1 F1500 E252.64721
G1 F300 Z1.16
;MESH:NONMESH
G0 F9000 X119.87 Y119.87 Z1.16
;TIME_ELAPSED:155.994264
;LAYER:3
;MESH:RelingFu??Deckel-K??rper.stl
G0 X119.87 Y119.87 Z1.48
;TYPE:WALL-INNER
G1 F300 Z1.28
G1 F1500 E259.14721
G1 X119.87 Y100.13 E261.24819
G1 X100.13 Y100.13 E263.34917
G1 X100.13 Y119.87 E265.45014
G1 X119.87 Y119.87 E267.55112
G0 F9000 X120.67 Y120.67
G1 F1500 X120.67 Y99.33 E269.82239
G1 X99.33 Y99.33 E272.09366
G1 X99.33 Y120.67 E274.36492
G1 X120.67 Y120.67 E276.63619
G0 F9000 X121.47 Y121.47
;TYPE:WALL-OUTER
G1 F1500 X121.47 Y98.53 E279.07775
G1 X98.53 Y98.53 E281.51931
G1 X98.53 Y121.47 E283.96087
G1 X121.47 Y121.47 E286.40243
G1 F1500 E279.90243
G1 F300 Z1.48
G0 F9000 X119.15 Y119.15 Z1.48
;TYPE:SKIN
G1 F300 Z1.28
G1 F1500 E286.40243
G1 X100.85 Y119.15 E288.35015
G1 X100.85 Y100.85 E290.29786
G1 X119.15 Y100.85 E292.24557
G1 X119.15 Y119.15 E294.19329
G0 F9000 X117.707 Y118.749
G1 F1500 X118.749 Y117.707 E294.35013
G0 F9000 X118.749 Y116.575
G1 F1500 X116.575 Y118.749 E294.67735
G0 F9000 X115.444 Y118.749
G1 F1500 X118.749 Y115.444 E295.17482
G0 F9000 X118.749 Y114.313
G1 F1500 X114.313 Y118.749 E295.84251
