;FLAVOR:Marlin
;TIME:19775
;Filament used: 42.3254m
;Layer height: 0.32
;MINX:28.24
;MINY:26.684
;MINZ:0.32
;MAXX:191.728
;MAXY:193.423
;MAXZ:49.92
;TARGET_MACHINE.NAME:Creality Ender-3 Pro
;Generated with Cura_SteamEngine 5.5.0
M82 ;absolute extrusion mode
; Ender 3 Custom Start G-code
G92 E0 ; Reset Extruder
G28 ; Home all axes
G1 Z5.0 F3000 ; Move Z Axis up a bit during heating to not damage bed
M104 S120 ; Start heating up the nozzle most of the way
M190 S70 ; Start heating the bed, wait until target temperature reached
M109 S230 ; Finish heating the nozzle
G1 Z2.0 F3000 ; Move Z Axis up little to prevent scratching of Heat Bed
G1 X0.1 Y20 Z0.3 F5000.0 ; Move to start position
G1 X0.1 Y200.0 Z0.3 F1500.0 E15 ; Draw the first line
G1 X0.4 Y200.0 Z0.3 F5000.0 ; Move to side a little
G1 X0.4 Y20 Z0.3 F1500.0 E30 ; Draw the second line
G92 E0 ; Reset Extruder
G1 Z2.0 F3000 ; Move Z Axis up little to prevent scratching of Heat Bed
G1 X5 Y20 Z0.3 F5000.0 ; Move over to prevent blob squish
G92 E0
G92 E0
G1 F1500 E-6.5
;LAYER_COUNT:156
;LAYER:0
M107
G0 F6000 X47.274 Y40.898 Z0.32
;TYPE:SKIRT
G1 F1500 E0
G1 F900 X47.811 Y40.305 E0.08515
G1 X48.544 Y39.551 E0.19707
G1 X49.822 Y38.286 E0.38845
G1 X50.597 Y37.585 E0.49968
G1 X51.221 Y37.099 E0.58386
G1 X52.165 Y36.419 E0.70768
G1 X53.647 Y35.397 E0.89929
G1 X54.524 Y34.851 E1.00924
G1 X55.156 Y34.519 E1.08522
G1 X56.11 Y34.057 E1.19804
G1 X57.069 Y33.609 E1.31069
G1 X57.86 Y33.253 E1.40301
G1 X58.829 Y32.869 E1.51395
G1 X59.483 Y32.662 E1.58696
G1 X60.388 Y32.403 E1.68715
G1 X62.248 Y31.913 E1.89187
G1 X63.331 Y31.682 E2.00973
G1 X64.054 Y31.584 E2.08738
G1 X64.893 Y31.498 E2.17715
G1 X66.968 Y31.326 E2.39875
G1 X68.001 Y31.29 E2.50876
G1 X68.742 Y31.318 E2.58768
G1 X69.651 Y31.383 E2.68468
G1 X70.411 Y31.449 E2.76587
G1 X73.043 Y31.642 E3.04675
G1 X75.451 Y31.751 E3.30331
G1 X78.021 Y31.795 E3.57688
G1 X80.482 Y31.766 E3.83883
G1 X82.952 Y31.669 E4.10192
G1 X85.453 Y31.497 E4.36873
G1 X87.895 Y31.262 E4.62984
G1 X90.383 Y30.95 E4.89672
G1 X92.893 Y30.564 E5.167
G1 X95.291 Y30.125 E5.42647
G1 X97.72 Y29.608 E5.69079
G1 X100.171 Y29.016 E5.95915
G1 X102.524 Y28.376 E6.21869
G1 X104.738 Y27.746 E6.46368
G1 X106.48 Y27.291 E6.65531
G1 X107.371 Y27.099 E6.75232
G1 X108.21 Y26.979 E6.84252
G1 X109.069 Y26.89 E6.93444
G1 X110.489 Y26.766 E7.08615
G1 X111.254 Y26.711 E7.16778
G1 X112.166 Y26.684 E7.26489
G1 X112.915 Y26.713 E7.34466
G1 X114.026 Y26.794 E7.46322
G1 X115.835 Y26.963 E7.6566
G1 X116.738 Y27.087 E7.75361
G1 X117.584 Y27.267 E7.84567
G1 X118.69 Y27.547 E7.9671
G1 X120.423 Y28.022 E8.15835
G1 X121.291 Y28.301 E8.25538
G1 X122.1 Y28.628 E8.34826
G1 X122.866 Y28.971 E8.43758
G1 X124.03 Y29.513 E8.57424
G1 X124.842 Y29.906 E8.67026
G1 X125.644 Y30.339 E8.76726
G1 X126.269 Y30.732 E8.84584
G1 X127.246 Y31.396 E8.97157
G1 X128.709 Y32.435 E9.16255
G1 X129.428 Y32.995 E9.25955
G1 X130.063 Y33.567 E9.35051
G1 X130.838 Y34.321 E9.46559
G1 X132.093 Y35.589 E9.65547
G1 X132.836 Y36.415 E9.77372
G1 X133.47 Y37.185 E9.87988
G1 X135.152 Y39.179 E10.15752
G1 X136.809 Y41.034 E10.42225
G1 X138.541 Y42.866 E10.69058
G1 X140.24 Y44.562 E10.94609
G1 X142.083 Y46.303 E11.21592
G1 X143.952 Y47.97 E11.48247
G1 X145.828 Y49.551 E11.74359
G1 X147.787 Y51.11 E12.01006
G1 X149.788 Y52.609 E12.27616
G1 X151.803 Y54.035 E12.53889
G1 X153.894 Y55.425 E12.80613
G1 X155.999 Y56.741 E13.07035
G1 X158.141 Y57.996 E13.33458
G1 X160.3 Y59.183 E13.5968
G1 X162.544 Y60.334 E13.86522
G1 X164.807 Y61.414 E14.1321
G1 X167.054 Y62.411 E14.39374
G1 X169.341 Y63.348 E14.65679
G1 X172.934 Y64.674 E15.06441
G1 X173.815 Y64.98 E15.16367
G1 X174.648 Y65.31 E15.25903
G1 X175.781 Y65.817 E15.39115
G1 X177.364 Y66.566 E15.57754
G1 X178.306 Y67.068 E15.69114
G1 X178.931 Y67.462 E15.76978
G1 X179.901 Y68.123 E15.89471
G1 X181.361 Y69.159 E16.08525
G1 X182.081 Y69.718 E16.18226
G1 X182.719 Y70.293 E16.27367
G1 X183.494 Y71.047 E16.38876
G1 X184.736 Y72.302 E16.57668
G1 X185.477 Y73.125 E16.69455
G1 X185.919 Y73.698 E16.77157
G1 X186.519 Y74.527 E16.88049
G1 X187.178 Y75.468 E17.00276
G1 X187.678 Y76.206 E17.09763
G1 X188.186 Y77.033 E17.20093
G1 X188.492 Y77.621 E17.27148
G1 X188.95 Y78.561 E17.38277
G1 X189.41 Y79.546 E17.49848
G1 X189.765 Y80.336 E17.59066
G1 X190.149 Y81.305 E17.70159
G1 X190.356 Y81.959 E17.77461
G1 X190.615 Y82.864 E17.87479
G1 X191.105 Y84.724 E18.07951
G1 X191.336 Y85.807 E18.19737
G1 X191.434 Y86.53 E18.27503
G1 X191.52 Y87.368 E18.36468
G1 X191.69 Y89.404 E18.58213
G1 X191.728 Y90.476 E18.6963
G1 X191.7 Y91.207 E18.77416
G1 X191.617 Y92.364 E18.89762
G1 X191.455 Y94.095 E19.08266
G1 X191.3 Y95.187 E19.20005
G1 X191.146 Y95.894 E19.27706
G1 X190.887 Y96.924 E19.3901
G1 X190.61 Y97.956 E19.50383
G1 X190.277 Y99.115 E19.63217
G1 X189.908 Y100.295 E19.76376
G1 X189.191 Y102.698 E20.03066
G1 X188.541 Y105.127 E20.29828
G1 X187.964 Y107.548 E20.56317
G1 X187.451 Y110.015 E20.83135
G1 X187.027 Y112.384 E21.0875
G1 X186.651 Y114.897 E21.35794
G1 X186.361 Y117.299 E21.61545
G1 X186.127 Y119.837 E21.88672
G1 X185.966 Y122.342 E22.15388
G1 X185.881 Y124.746 E22.40991
G1 X185.862 Y127.299 E22.68164
G1 X185.917 Y129.811 E22.94906
G1 X186.035 Y132.205 E23.20417
G1 X186.347 Y135.938 E23.60286
G1 X186.43 Y136.748 E23.68953
G1 X186.536 Y137.965 E23.81954
G1 X186.591 Y138.736 E23.90181
G1 X186.617 Y139.648 E23.99892
G1 X186.589 Y140.377 E24.07656
G1 X186.505 Y141.538 E24.20046
G1 X186.34 Y143.298 E24.3886
G1 X186.19 Y144.358 E24.50254
G1 X186.04 Y145.046 E24.57749
G1 X185.778 Y146.081 E24.69112
G1 X185.282 Y147.891 E24.89086
G1 X185.004 Y148.76 E24.98797
G1 X184.682 Y149.559 E25.07966
G1 X184.221 Y150.582 E25.19908
G1 X183.452 Y152.204 E25.39013
G1 X182.98 Y153.096 E25.49754
G1 X182.563 Y153.76 E25.581
G1 X182.055 Y154.51 E25.67741
G1 X180.879 Y156.172 E25.8941
G1 X180.28 Y156.941 E25.99785
G1 X179.738 Y157.539 E26.08375
G1 X178.987 Y158.309 E26.19823
G1 X177.691 Y159.592 E26.39232
G1 X176.924 Y160.283 E26.5022
G1 X176.345 Y160.732 E26.58018
G1 X175.481 Y161.357 E26.69368
G1 X174.56 Y162.002 E26.81335
G1 X173.822 Y162.502 E26.90822
G1 X172.995 Y163.01 E27.01152
G1 X172.407 Y163.316 E27.08207
G1 X171.465 Y163.774 E27.19355
G1 X170.346 Y164.295 E27.32493
G1 X169.614 Y164.623 E27.4103
G1 X168.907 Y164.911 E27.49155
G1 X166.674 Y165.735 E27.74488
G1 X164.366 Y166.656 E28.00936
G1 X162.094 Y167.64 E28.27288
G1 X159.845 Y168.687 E28.53692
G1 X157.603 Y169.811 E28.80385
G1 X155.416 Y170.985 E29.06803
G1 X153.248 Y172.23 E29.33412
G1 X151.136 Y173.523 E29.59768
G1 X149.025 Y174.9 E29.86594
G1 X146.993 Y176.309 E30.12911
G1 X145.016 Y177.765 E30.39044
G1 X143.052 Y179.298 E30.65561
G1 X141.1 Y180.912 E30.92519
G1 X139.269 Y182.514 E31.18412
G1 X137.405 Y184.242 E31.45465
G1 X135.07 Y186.524 E31.80214
G1 X134.39 Y187.133 E31.8993
G1 X133.769 Y187.616 E31.98303
G1 X132.811 Y188.306 E32.10869
G1 X131.347 Y189.316 E32.29799
G1 X130.524 Y189.83 E32.40126
G1 X129.837 Y190.194 E32.48401
G1 X128.82 Y190.686 E32.60425
G1 X127.158 Y191.448 E32.79885
G1 X126.255 Y191.813 E32.90251
G1 X125.509 Y192.053 E32.98592
G1 X124.439 Y192.355 E33.10425
G1 X122.687 Y192.812 E33.29696
G1 X121.64 Y193.034 E33.41087
G1 X120.926 Y193.13 E33.48755
G1 X119.909 Y193.233 E33.59634
G1 X118.051 Y193.386 E33.79476
G1 X116.981 Y193.423 E33.90872
G1 X116.236 Y193.394 E33.98807
G1 X115.138 Y193.314 E34.10524
G1 X113.345 Y193.147 E34.2969
G1 X112.284 Y192.997 E34.41095
G1 X111.561 Y192.839 E34.48971
G1 X110.747 Y192.634 E34.57905
G1 X109.499 Y192.3 E34.71656
G1 X108.337 Y191.967 E34.84521
G1 X107.093 Y191.575 E34.98403
G1 X104.662 Y190.846 E35.25415
G1 X102.251 Y190.197 E35.51989
G1 X99.859 Y189.625 E35.78166
G1 X97.333 Y189.097 E36.05632
G1 X94.981 Y188.674 E36.31066
G1 X92.476 Y188.295 E36.58031
G1 X90.05 Y187.999 E36.84043
G1 X87.52 Y187.763 E37.11087
G1 X85.045 Y187.6 E37.37486
G1 X82.605 Y187.511 E37.63473
G1 X80.081 Y187.49 E37.90338
G1 X77.575 Y187.54 E38.17015
G1 X75.123 Y187.658 E38.43142
G1 X72.758 Y187.836 E38.68385
G1 X70.962 Y187.993 E38.87573
G1 X70.116 Y188.056 E38.96602
G1 X69.204 Y188.084 E39.06313
G1 X68.448 Y188.055 E39.14365
G1 X67.294 Y187.972 E39.26679
G1 X65.563 Y187.81 E39.45183
G1 X64.472 Y187.655 E39.56912
G1 X63.762 Y187.501 E39.64644
G1 X62.675 Y187.226 E39.76578
G1 X60.955 Y186.755 E39.95558
G1 X59.994 Y186.444 E40.06309
G1 X59.245 Y186.139 E40.14916
G1 X58.478 Y185.795 E40.23863
G1 X57.174 Y185.188 E40.39172
G1 X56.501 Y184.861 E40.47135
G1 X55.698 Y184.428 E40.56845
G1 X55.07 Y184.033 E40.64741
G1 X54.342 Y183.54 E40.74099
G1 X52.653 Y182.345 E40.9612
G1 X51.884 Y181.746 E41.06495
G1 X51.285 Y181.204 E41.15092
G1 X50.512 Y180.45 E41.26585
G1 X49.247 Y179.172 E41.45724
G1 X48.53 Y178.376 E41.57126
G1 X48.08 Y177.793 E41.64965
G1 X47.468 Y176.947 E41.76078
G1 X46.823 Y176.026 E41.88045
G1 X46.323 Y175.288 E41.97533
G1 X45.815 Y174.461 E42.07863
G1 X45.509 Y173.873 E42.14918
G1 X45.051 Y172.933 E42.26047
G1 X44.591 Y171.948 E42.37617
G1 X44.236 Y171.158 E42.46835
G1 X43.852 Y170.189 E42.57929
G1 X43.645 Y169.535 E42.6523
G1 X43.386 Y168.63 E42.75249
G1 X42.896 Y166.77 E42.9572
G1 X42.665 Y165.687 E43.07506
G1 X42.567 Y164.962 E43.15293
G1 X42.465 Y163.963 E43.25981
G1 X42.348 Y162.618 E43.4035
G1 X42.19 Y160.397 E43.64048
G1 X41.966 Y157.869 E43.9106
G1 X41.671 Y155.345 E44.18106
G1 X41.317 Y152.919 E44.442
G1 X40.881 Y150.421 E44.71189
G1 X40.395 Y148.036 E44.97095
G1 X39.827 Y145.608 E45.23634
G1 X39.178 Y143.15 E45.50692
G1 X38.498 Y140.843 E45.7629
G1 X37.71 Y138.416 E46.03449
G1 X36.891 Y136.122 E46.29374
G1 X35.981 Y133.781 E46.56106
G1 X35.029 Y131.523 E46.82187
G1 X33.969 Y129.198 E47.09383
G1 X32.913 Y127.042 E47.34935
G1 X32.269 Y125.833 E47.49514
G1 X32.088 Y125.454 E47.53984
G1 X31.521 Y124.364 E47.67061
G1 X30.967 Y123.219 E47.80599
G1 X30.216 Y121.582 E47.99768
G1 X29.851 Y120.679 E48.10134
G1 X29.609 Y119.927 E48.18542
G1 X29.308 Y118.86 E48.30342
G1 X28.851 Y117.108 E48.49613
G1 X28.629 Y116.061 E48.61004
G1 X28.533 Y115.346 E48.68682
G1 X28.431 Y114.331 E48.79539
G1 X28.276 Y112.44 E48.99733
G1 X28.24 Y111.405 E49.10756
G1 X28.269 Y110.66 E49.18691
G1 X28.349 Y109.559 E49.3044
G1 X28.516 Y107.766 E49.49606
G1 X28.666 Y106.705 E49.61011
G1 X28.812 Y106.032 E49.6834
G1 X29.085 Y104.954 E49.80176
G1 X29.577 Y103.159 E49.99985
G1 X29.856 Y102.291 E50.09689
G1 X30.172 Y101.504 E50.18715
G1 X30.526 Y100.711 E50.27958
G1 X31.147 Y99.385 E50.43542
G1 X32.032 Y97.566 E50.65072
G1 X33.152 Y95.173 E50.93193
G1 X34.151 Y92.872 E51.19891
G1 X35.073 Y90.569 E51.46294
G1 X35.938 Y88.218 E51.72956
G1 X36.72 Y85.897 E51.99024
G1 X37.45 Y83.504 E52.25652
G1 X38.095 Y81.155 E52.51578
G1 X38.702 Y78.674 E52.78763
G1 X39.218 Y76.26 E53.05036
G1 X39.676 Y73.794 E53.31731
G1 X40.05 Y71.404 E53.57478
G1 X40.372 Y68.872 E53.84644
G1 X40.62 Y66.364 E54.11467
G1 X40.79 Y63.936 E54.37372
G1 X40.894 Y61.462 E54.63727
G1 X40.933 Y58.167 E54.98799
G1 X40.96 Y57.503 E55.05872
G1 X41.046 Y56.311 E55.18591
G1 X41.208 Y54.58 E55.37095
G1 X41.363 Y53.488 E55.48834
G1 X41.517 Y52.783 E55.56515
G1 X41.736 Y51.909 E55.66104
G1 X42.274 Y49.938 E55.8785
G1 X42.553 Y49.069 E55.97564
G1 X42.877 Y48.266 E56.0678
G1 X43.284 Y47.362 E56.17331
G1 X43.83 Y46.191 E56.31083
G1 X44.141 Y45.549 E56.38675
G1 X44.648 Y44.615 E56.49986
G1 X44.976 Y44.1 E56.56485
G1 X45.605 Y43.175 E56.6839
G1 X46.653 Y41.696 E56.87683
G1 X47.274 Y40.898 E56.98445
G0 F6000 X47.905 Y41.39
G1 F900 X48.385 Y40.863 E57.06032
G1 X49.107 Y40.12 E57.17058
G1 X50.385 Y38.855 E57.36197
G1 X51.133 Y38.179 E57.46928
G1 X51.689 Y37.748 E57.54415
G1 X52.619 Y37.077 E57.66621
G1 X54.071 Y36.075 E57.85397
G1 X54.896 Y35.559 E57.95754
G1 X55.505 Y35.239 E58.03076
G1 X56.448 Y34.782 E58.14229
G1 X57.397 Y34.339 E58.25376
G1 X58.188 Y33.983 E58.34608
G1 X59.123 Y33.613 E58.4531
G1 X59.703 Y33.431 E58.5178
G1 X60.592 Y33.177 E58.61621
G1 X62.452 Y32.687 E58.82092
G1 X63.439 Y32.475 E58.92837
G1 X64.136 Y32.38 E59.00324
G1 X64.959 Y32.295 E59.0913
G1 X66.998 Y32.125 E59.30907
G1 X67.971 Y32.089 E59.4127
G1 X68.685 Y32.116 E59.48874
G1 X69.582 Y32.18 E59.58446
G1 X70.352 Y32.247 E59.66672
G1 X72.984 Y32.44 E59.9476
G1 X75.437 Y32.551 E60.20895
G1 X78.016 Y32.595 E60.48348
G1 X80.491 Y32.566 E60.74691
G1 X83.005 Y32.467 E61.01469
G1 X85.512 Y32.295 E61.28215
G1 X87.994 Y32.056 E61.54753
G1 X90.501 Y31.742 E61.81644
G1 X93.015 Y31.355 E62.08717
G1 X95.435 Y30.912 E62.34901
G1 X97.908 Y30.386 E62.61811
G1 X100.359 Y29.794 E62.88648
G1 X102.734 Y29.148 E63.14844
G1 X104.941 Y28.52 E63.39266
G1 X106.649 Y28.073 E63.58057
G1 X107.54 Y27.881 E63.67757
G1 X108.293 Y27.775 E63.75851
G1 X109.139 Y27.687 E63.84904
G1 X110.547 Y27.564 E63.99946
G1 X111.278 Y27.511 E64.07747
G1 X112.19 Y27.484 E64.17458
G1 X112.857 Y27.511 E64.24563
G1 X113.952 Y27.591 E64.36248
G1 X115.726 Y27.756 E64.55211
G1 X116.629 Y27.88 E64.64912
G1 X117.388 Y28.043 E64.73174
G1 X118.479 Y28.319 E64.85152
G1 X120.178 Y28.784 E65.039
G1 X121.046 Y29.063 E65.13604
G1 X121.773 Y29.358 E65.21954
G1 X122.528 Y29.696 E65.30758
G1 X123.682 Y30.233 E65.44305
G1 X124.462 Y30.61 E65.53526
G1 X125.264 Y31.043 E65.63226
G1 X125.82 Y31.394 E65.70224
G1 X126.783 Y32.048 E65.82614
G1 X128.217 Y33.066 E66.01331
G1 X128.936 Y33.626 E66.11031
G1 X129.505 Y34.141 E66.19199
G1 X130.269 Y34.884 E66.30542
G1 X131.524 Y36.152 E66.4953
G1 X132.218 Y36.923 E66.60571
G1 X132.858 Y37.701 E66.71293
G1 X134.543 Y39.699 E66.99111
G1 X136.213 Y41.568 E67.25787
G1 X137.96 Y43.416 E67.52853
G1 X139.691 Y45.144 E67.78885
G1 X141.55 Y46.9 E68.06102
G1 X143.419 Y48.567 E68.32757
G1 X145.33 Y50.177 E68.59353
G1 X147.307 Y51.75 E68.86242
G1 X149.314 Y53.254 E69.12936
G1 X151.35 Y54.694 E69.39477
G1 X153.454 Y56.093 E69.66369
G1 X155.582 Y57.423 E69.93078
G1 X157.756 Y58.697 E70.19897
G1 X159.935 Y59.895 E70.46362
G1 X162.199 Y61.056 E70.73442
G1 X164.462 Y62.136 E71.0013
G1 X166.742 Y63.147 E71.26675
G1 X169.048 Y64.092 E71.532
G1 X172.672 Y65.43 E71.94316
G1 X173.52 Y65.724 E72.03868
G1 X174.353 Y66.054 E72.13404
G1 X175.439 Y66.54 E72.26067
G1 X177.022 Y67.289 E72.44707
G1 X177.88 Y67.745 E72.55048
G1 X178.481 Y68.123 E72.62605
G1 X179.438 Y68.775 E72.74929
G1 X180.87 Y69.791 E72.93617
G1 X181.59 Y70.35 E73.03319
G1 X182.161 Y70.867 E73.11517
G1 X182.925 Y71.61 E73.22859
G1 X184.167 Y72.865 E73.41652
G1 X184.844 Y73.614 E73.52398
G1 X185.271 Y74.167 E73.59834
G1 X185.864 Y74.986 E73.70595
G1 X186.516 Y75.917 E73.82693
G1 X186.996 Y76.625 E73.91797
G1 X187.504 Y77.452 E74.02127
G1 X187.773 Y77.971 E74.08348
G1 X188.225 Y78.899 E74.19334
G1 X188.68 Y79.874 E74.30786
G1 X189.035 Y80.664 E74.40004
G1 X189.405 Y81.599 E74.50706
G1 X189.587 Y82.179 E74.57176
G1 X189.841 Y83.068 E74.67017
G1 X190.331 Y84.928 E74.87489
G1 X190.543 Y85.915 E74.98233
G1 X190.638 Y86.612 E75.0572
G1 X190.723 Y87.435 E75.14526
G1 X190.893 Y89.471 E75.36271
G1 X190.929 Y90.445 E75.46645
G1 X190.902 Y91.15 E75.54154
G1 X190.82 Y92.289 E75.66308
G1 X190.658 Y94.02 E75.84812
G1 X190.518 Y95.017 E75.95527
G1 X190.37 Y95.699 E76.02955
G1 X190.114 Y96.717 E76.14127
G1 X189.841 Y97.735 E76.25344
G1 X189.513 Y98.876 E76.3798
G1 X189.144 Y100.056 E76.51139
G1 X188.424 Y102.469 E76.7794
G1 X187.768 Y104.92 E77.04945
G1 X187.186 Y107.363 E77.31674
G1 X186.668 Y109.852 E77.58733
G1 X186.236 Y112.266 E77.84833
G1 X185.86 Y114.779 E78.11878
G1 X185.564 Y117.226 E78.38112
G1 X185.33 Y119.764 E78.65239
G1 X185.168 Y122.291 E78.92189
G1 X185.081 Y124.74 E79.18271
G1 X185.062 Y127.293 E79.45444
G1 X185.117 Y129.831 E79.72463
G1 X185.236 Y132.254 E79.98283
G1 X185.551 Y136.02 E80.38505
G1 X185.633 Y136.818 E80.47043
G1 X185.738 Y138.022 E80.59906
G1 X185.791 Y138.759 E80.6777
G1 X185.817 Y139.671 E80.77481
G1 X185.791 Y140.319 E80.84383
G1 X185.708 Y141.463 E80.96591
G1 X185.543 Y143.223 E81.15406
G1 X185.408 Y144.188 E81.25776
G1 X185.258 Y144.876 E81.33271
G1 X185.006 Y145.87 E81.44185
G1 X184.52 Y147.647 E81.63793
G1 X184.242 Y148.516 E81.73503
G1 X183.952 Y149.231 E81.81715
G1 X183.498 Y150.24 E81.93491
G1 X182.745 Y151.83 E82.12216
G1 X182.273 Y152.722 E82.22957
G1 X181.901 Y153.311 E82.30371
