;FLAVOR:Marlin
;TIME:5709
;Filament used: 11.8203m
;Layer height: 0.32
;MINX:59.26
;MINY:49.11
;MINZ:0.32
;MAXX:161.701
;MAXY:173.94
;MAXZ:49.92
;TARGET_MACHINE.NAME:Creality Ender-3 Pro
;Generated with Cura_SteamEngine 5.5.0
M82 ;absolute extrusion mode
; Ender 3 Custom Start G-code
G92 E0 ; Reset Extruder
G28 ; Home all axes
G1 Z5.0 F3000 ; Move Z Axis up a bit during heating to not damage bed
M104 S120 ; Start heating up the nozzle most of the way
M190 S70 ; Start heating the bed, wait until target temperature reached
M109 S230 ; Finish heating the nozzle
G1 Z2.0 F3000 ; Move Z Axis up little to prevent scratching of Heat Bed
G1 X0.1 Y20 Z0.3 F5000.0 ; Move to start position
G1 X0.1 Y200.0 Z0.3 F1500.0 E15 ; Draw the first line
G1 X0.4 Y200.0 Z0.3 F5000.0 ; Move to side a little
G1 X0.4 Y20 Z0.3 F1500.0 E30 ; Draw the second line
G92 E0 ; Reset Extruder
G1 Z2.0 F3000 ; Move Z Axis up little to prevent scratching of Heat Bed
G1 X5 Y20 Z0.3 F5000.0 ; Move over to prevent blob squish
G92 E0
G92 E0
G1 F1500 E-6.5
;LAYER_COUNT:156
;LAYER:0
M107
G0 F6000 X65.635 Y58.679 Z0.32
;TYPE:SKIRT
G1 F1500 E0
G1 F900 X66.138 Y58.125 E0.07964
G1 X66.82 Y57.423 E0.18381
G1 X67.632 Y56.61 E0.30611
G1 X68.27 Y55.989 E0.40087
G1 X68.95 Y55.382 E0.49788
G1 X69.549 Y54.918 E0.57852
G1 X70.507 Y54.228 E0.70418
G1 X71.971 Y53.218 E0.89348
G1 X72.794 Y52.704 E0.99675
G1 X73.481 Y52.34 E1.0795
G1 X74.435 Y51.878 E1.19232
G1 X75.394 Y51.431 E1.30493
G1 X76.219 Y51.06 E1.40121
G1 X77.208 Y50.67 E1.51436
G1 X77.809 Y50.481 E1.58141
G1 X78.879 Y50.179 E1.69974
G1 X80.631 Y49.722 E1.89245
G1 X81.678 Y49.5 E2.00636
G1 X82.39 Y49.404 E2.08283
G1 X83.346 Y49.306 E2.18511
G1 X84.651 Y49.192 E2.32454
G1 X85.411 Y49.137 E2.40564
G1 X86.323 Y49.11 E2.50275
G1 X87.086 Y49.14 E2.58402
G1 X87.965 Y49.203 E2.67781
G1 X90.017 Y49.393 E2.89714
G1 X90.973 Y49.526 E2.99987
G1 X91.579 Y49.651 E3.06573
G1 X93.903 Y50.196 E3.31979
G1 X96.258 Y50.683 E3.57574
G1 X98.799 Y51.131 E3.85036
G1 X101.241 Y51.494 E4.11312
G1 X103.662 Y51.78 E4.37258
G1 X106.199 Y52.009 E4.6437
G1 X108.638 Y52.16 E4.90379
G1 X111.158 Y52.245 E5.17215
G1 X113.634 Y52.258 E5.43568
G1 X116.137 Y52.2 E5.70215
G1 X118.62 Y52.073 E5.96677
G1 X121.07 Y51.878 E6.22835
G1 X123.541 Y51.61 E6.49289
G1 X126.025 Y51.27 E6.75973
G1 X130.078 Y50.568 E7.19753
G1 X130.826 Y50.464 E7.2779
G1 X131.919 Y50.351 E7.39485
G1 X132.962 Y50.26 E7.50628
G1 X133.89 Y50.193 E7.60531
G1 X134.801 Y50.167 E7.70231
G1 X135.53 Y50.195 E7.77996
G1 X136.687 Y50.279 E7.90342
G1 X138.447 Y50.444 E8.09157
G1 X139.507 Y50.594 E8.20551
G1 X140.221 Y50.75 E8.28329
G1 X141.223 Y51.004 E8.39331
G1 X143.005 Y51.49 E8.5899
G1 X144.024 Y51.82 E8.7039
G1 X144.697 Y52.095 E8.78128
G1 X145.699 Y52.547 E8.89827
G1 X147.337 Y53.322 E9.09114
G1 X148.279 Y53.824 E9.20475
G1 X148.904 Y54.218 E9.28338
G1 X149.874 Y54.879 E9.40831
G1 X151.334 Y55.915 E9.59885
G1 X152.054 Y56.474 E9.69587
G1 X152.692 Y57.049 E9.78728
G1 X153.467 Y57.803 E9.90236
G1 X154.709 Y59.058 E10.09028
G1 X155.408 Y59.831 E10.20121
G1 X155.893 Y60.455 E10.28532
G1 X156.499 Y61.292 E10.3953
G1 X157.237 Y62.349 E10.53251
G1 X157.647 Y62.955 E10.61038
G1 X158.125 Y63.731 E10.70739
G1 X158.47 Y64.384 E10.78599
G1 X158.927 Y65.326 E10.89743
G1 X159.375 Y66.286 E11.01018
G1 X159.75 Y67.12 E11.1075
G1 X160.14 Y68.109 E11.22065
G1 X160.334 Y68.725 E11.28939
G1 X160.636 Y69.794 E11.40762
G1 X161.081 Y71.494 E11.59465
G1 X161.311 Y72.575 E11.71228
G1 X161.408 Y73.294 E11.7895
G1 X161.513 Y74.332 E11.90054
G1 X161.664 Y76.168 E12.09661
G1 X161.701 Y77.236 E12.21035
G1 X161.674 Y77.962 E12.28767
G1 X161.598 Y79.017 E12.40025
G1 X161.481 Y80.336 E12.54118
G1 X161.416 Y80.965 E12.60849
G1 X161.252 Y82.047 E12.72496
G1 X161.118 Y82.656 E12.79133
G1 X160.906 Y83.498 E12.88374
G1 X160.376 Y85.443 E13.0983
G1 X160.03 Y86.513 E13.21799
G1 X159.728 Y87.314 E13.3091
G1 X159.23 Y88.581 E13.45399
G1 X158.395 Y90.896 E13.71592
G1 X157.634 Y93.209 E13.97508
G1 X156.904 Y95.657 E14.24697
G1 X156.266 Y98.045 E14.51004
G1 X155.683 Y100.499 E14.7785
G1 X155.195 Y102.86 E15.03509
G1 X154.747 Y105.374 E15.30688
G1 X154.377 Y107.844 E15.5727
G1 X154.089 Y110.245 E15.83008
G1 X153.857 Y112.773 E16.10027
G1 X153.704 Y115.195 E16.35856
G1 X153.614 Y117.751 E16.63077
G1 X153.597 Y120.228 E16.89441
G1 X153.652 Y122.739 E17.16173
G1 X153.773 Y125.164 E17.42015
G1 X153.969 Y127.698 E17.69065
G1 X154.227 Y130.099 E17.94767
G1 X154.572 Y132.642 E18.22081
G1 X154.967 Y135.043 E18.47978
G1 X155.437 Y137.481 E18.74404
G1 X156.039 Y140.087 E19.02871
G1 X156.28 Y141.182 E19.14804
G1 X156.484 Y142.457 E19.28547
G1 X156.59 Y143.506 E19.39769
G1 X156.742 Y145.369 E19.59663
G1 X156.777 Y146.402 E19.70664
G1 X156.749 Y147.134 E19.7846
G1 X156.673 Y148.191 E19.89739
G1 X156.568 Y149.38 E20.02443
G1 X156.486 Y150.177 E20.10971
G1 X156.354 Y151.079 E20.20673
G1 X156.195 Y151.808 E20.28615
G1 X155.974 Y152.69 E20.38292
G1 X155.452 Y154.608 E20.59448
G1 X155.121 Y155.628 E20.70862
G1 X154.838 Y156.319 E20.78809
G1 X154.48 Y157.118 E20.88128
G1 X153.604 Y158.973 E21.09962
G1 X153.117 Y159.888 E21.20994
G1 X152.719 Y160.517 E21.28916
G1 X152.123 Y161.393 E21.40193
G1 X151.45 Y162.354 E21.5268
G1 X150.974 Y163.012 E21.61323
G1 X150.409 Y163.727 E21.71022
G1 X149.902 Y164.286 E21.79055
G1 X149.143 Y165.067 E21.90646
G1 X147.886 Y166.311 E22.09468
G1 X147.158 Y166.971 E22.19927
G1 X146.496 Y167.49 E22.2888
G1 X145.798 Y167.997 E22.38062
G1 X144.588 Y168.844 E22.53782
G1 X144.008 Y169.236 E22.61232
G1 X143.104 Y169.788 E22.72506
G1 X142.572 Y170.066 E22.78894
G1 X141.778 Y170.454 E22.883
G1 X139.894 Y171.321 E23.10373
G1 X139.05 Y171.666 E23.20078
G1 X138.236 Y171.93 E23.29186
G1 X137.128 Y172.243 E23.4144
G1 X135.411 Y172.691 E23.60326
G1 X134.363 Y172.913 E23.71728
G1 X133.638 Y173.01 E23.79513
G1 X132.607 Y173.115 E23.90543
G1 X131.55 Y173.208 E24.01836
G1 X130.621 Y173.276 E24.1175
G1 X129.709 Y173.303 E24.21461
G1 X128.957 Y173.274 E24.29471
G1 X127.943 Y173.2 E24.40292
G1 X126.84 Y173.104 E24.52076
G1 X125.915 Y173.008 E24.61974
G1 X125.309 Y172.929 E24.68478
G1 X124.394 Y172.784 E24.78338
G1 X121.858 Y172.417 E25.0561
G1 X119.367 Y172.128 E25.32301
G1 X116.902 Y171.913 E25.58636
G1 X114.414 Y171.768 E25.85161
G1 X111.904 Y171.69 E26.11889
G1 X109.441 Y171.684 E26.38103
G1 X106.964 Y171.75 E26.64476
G1 X104.44 Y171.886 E26.91378
G1 X101.984 Y172.088 E27.17606
G1 X99.495 Y172.367 E27.44263
G1 X97.093 Y172.703 E27.70077
G1 X93.665 Y173.3 E28.07111
G1 X92.67 Y173.492 E28.17897
G1 X91.627 Y173.645 E28.29116
G1 X90.564 Y173.752 E28.40487
G1 X88.708 Y173.904 E28.60307
G1 X87.673 Y173.94 E28.7133
G1 X86.94 Y173.912 E28.79137
G1 X85.788 Y173.829 E28.9143
G1 X84.057 Y173.667 E29.09934
G1 X82.966 Y173.512 E29.21662
G1 X82.256 Y173.358 E29.29394
G1 X81.169 Y173.083 E29.41328
G1 X79.449 Y172.612 E29.60309
G1 X78.488 Y172.301 E29.71059
G1 X77.739 Y171.996 E29.79666
G1 X76.972 Y171.652 E29.88613
G1 X75.668 Y171.045 E30.03922
G1 X75.026 Y170.734 E30.11514
G1 X74.092 Y170.227 E30.22825
G1 X73.577 Y169.899 E30.29324
G1 X72.652 Y169.27 E30.41229
G1 X71.173 Y168.222 E30.60522
G1 X70.375 Y167.601 E30.71284
G1 X69.782 Y167.064 E30.79799
G1 X69.028 Y166.331 E30.90991
G1 X67.763 Y165.053 E31.1013
G1 X67.062 Y164.278 E31.21252
G1 X66.576 Y163.654 E31.2967
G1 X65.896 Y162.71 E31.42052
G1 X64.874 Y161.228 E31.61213
G1 X64.328 Y160.351 E31.72208
G1 X63.995 Y159.715 E31.79849
G1 X63.494 Y158.679 E31.92097
G1 X62.744 Y157.043 E32.11252
G1 X62.379 Y156.14 E32.21618
G1 X62.139 Y155.392 E32.29979
G1 X61.88 Y154.487 E32.39998
G1 X61.39 Y152.627 E32.60469
G1 X61.159 Y151.544 E32.72255
G1 X61.061 Y150.821 E32.80021
G1 X60.975 Y149.983 E32.88987
G1 X60.805 Y147.947 E33.10732
G1 X60.767 Y146.875 E33.22148
G1 X60.795 Y146.144 E33.29934
G1 X60.878 Y144.987 E33.4228
G1 X61.04 Y143.256 E33.60784
G1 X61.195 Y142.164 E33.72523
G1 X61.349 Y141.457 E33.80224
G1 X61.607 Y140.431 E33.91484
G1 X61.887 Y139.385 E34.03009
G1 X62.295 Y137.943 E34.18959
G1 X62.975 Y135.402 E34.46955
G1 X63.543 Y133.012 E34.73101
G1 X64.048 Y130.572 E34.99621
G1 X64.488 Y128.108 E35.26261
G1 X64.857 Y125.646 E35.52757
G1 X65.15 Y123.21 E35.78871
G1 X65.379 Y120.714 E36.05548
G1 X65.539 Y118.215 E36.322
G1 X65.625 Y115.776 E36.58175
G1 X65.642 Y113.244 E36.85124
G1 X65.588 Y110.728 E37.11909
G1 X65.469 Y108.334 E37.3742
G1 X65.269 Y105.755 E37.64952
G1 X65.011 Y103.351 E37.90685
G1 X64.674 Y100.856 E38.17481
G1 X64.267 Y98.374 E38.4425
G1 X63.802 Y95.972 E38.7029
G1 X63.267 Y93.575 E38.9643
G1 X62.648 Y91.124 E39.23335
G1 X61.958 Y88.689 E39.50272
G1 X61.216 Y86.323 E39.76663
G1 X60.831 Y85.186 E39.89439
G1 X60.664 Y84.649 E39.95425
G1 X60.374 Y83.636 E40.0664
G1 X59.883 Y81.772 E40.27155
G1 X59.652 Y80.689 E40.38941
G1 X59.554 Y79.966 E40.46707
G1 X59.468 Y79.128 E40.55672
G1 X59.298 Y77.092 E40.77418
G1 X59.26 Y76.02 E40.88834
G1 X59.288 Y75.289 E40.9662
G1 X59.371 Y74.132 E41.08966
G1 X59.533 Y72.401 E41.2747
G1 X59.688 Y71.309 E41.39209
G1 X59.842 Y70.604 E41.46889
G1 X60.061 Y69.73 E41.56479
G1 X60.599 Y67.759 E41.78224
G1 X60.878 Y66.89 E41.87938
G1 X61.202 Y66.089 E41.97135
G1 X61.548 Y65.315 E42.06158
G1 X62.431 Y63.444 E42.28178
G1 X62.856 Y62.637 E42.37885
G1 X63.32 Y61.893 E42.47218
G1 X63.808 Y61.173 E42.56475
G1 X64.588 Y60.058 E42.70958
G1 X65.069 Y59.394 E42.79684
G1 X65.635 Y58.679 E42.8939
G0 F6000 X66.262 Y59.176
G1 F900 X66.712 Y58.682 E42.96502
G1 X67.386 Y57.988 E43.06799
G1 X68.19 Y57.183 E43.18908
G1 X68.803 Y56.586 E43.28015
G1 X69.483 Y55.979 E43.37716
G1 X70.017 Y55.567 E43.44895
G1 X70.962 Y54.886 E43.57292
G1 X72.396 Y53.896 E43.75839
G1 X73.169 Y53.411 E43.85551
G1 X73.83 Y53.06 E43.93517
G1 X74.773 Y52.603 E44.0467
G1 X75.722 Y52.161 E44.15812
G1 X76.547 Y51.79 E44.2544
G1 X77.449 Y51.433 E44.35764
G1 X78.026 Y51.251 E44.42204
G1 X79.081 Y50.953 E44.53872
G1 X80.833 Y50.496 E44.73143
G1 X81.785 Y50.293 E44.83503
G1 X82.472 Y50.2 E44.90882
G1 X83.416 Y50.103 E45.00982
G1 X84.709 Y49.99 E45.14796
G1 X85.435 Y49.937 E45.22543
G1 X86.347 Y49.91 E45.32254
G1 X87.029 Y49.938 E45.39519
G1 X87.892 Y50 E45.48728
G1 X89.908 Y50.186 E45.70276
G1 X90.812 Y50.31 E45.79987
G1 X91.396 Y50.43 E45.86333
G1 X93.72 Y50.975 E46.11739
G1 X96.119 Y51.471 E46.37812
G1 X98.66 Y51.919 E46.65274
G1 X101.133 Y52.286 E46.91883
G1 X103.59 Y52.577 E47.18216
G1 X106.127 Y52.806 E47.45327
G1 X108.611 Y52.96 E47.71816
G1 X111.131 Y53.045 E47.98652
G1 X113.648 Y53.058 E48.25442
G1 X116.161 Y53 E48.52195
G1 X118.661 Y52.872 E48.78838
G1 X121.147 Y52.674 E49.05381
G1 X123.649 Y52.403 E49.32166
G1 X126.133 Y52.063 E49.58851
G1 X130.188 Y51.36 E50.02653
G1 X130.909 Y51.26 E50.104
G1 X131.989 Y51.148 E50.21956
G1 X133.02 Y51.058 E50.32971
G1 X133.913 Y50.993 E50.42501
G1 X134.824 Y50.967 E50.52201
G1 X135.472 Y50.993 E50.59103
G1 X136.612 Y51.076 E50.71268
G1 X138.372 Y51.241 E50.90083
G1 X139.337 Y51.376 E51.00453
G1 X140.025 Y51.526 E51.07948
G1 X141.013 Y51.776 E51.18795
G1 X142.795 Y52.262 E51.38454
G1 X143.721 Y52.561 E51.48811
G1 X144.394 Y52.836 E51.56548
G1 X145.357 Y53.27 E51.67791
G1 X146.995 Y54.045 E51.87077
G1 X147.853 Y54.501 E51.97419
G1 X148.454 Y54.879 E52.04975
G1 X149.411 Y55.531 E52.173
G1 X150.843 Y56.547 E52.35988
G1 X151.563 Y57.106 E52.45689
G1 X152.134 Y57.623 E52.53888
G1 X152.898 Y58.366 E52.6523
G1 X154.14 Y59.621 E52.84023
G1 X154.777 Y60.323 E52.94112
G1 X155.245 Y60.924 E53.02219
G1 X155.843 Y61.75 E53.13072
G1 X156.575 Y62.798 E53.26678
G1 X156.966 Y63.375 E53.34096
G1 X157.444 Y64.151 E53.43797
G1 X157.75 Y64.733 E53.50795
G1 X158.202 Y65.664 E53.6181
G1 X158.645 Y66.614 E53.72966
G1 X159.02 Y67.448 E53.82699
G1 X159.377 Y68.35 E53.93024
G1 X159.564 Y68.942 E53.99631
G1 X159.862 Y69.997 E54.11299
G1 X160.307 Y71.697 E54.30002
G1 X160.518 Y72.683 E54.40734
G1 X160.612 Y73.375 E54.48167
G1 X160.716 Y74.398 E54.59111
G1 X160.867 Y76.234 E54.78718
G1 X160.902 Y77.206 E54.8907
G1 X160.876 Y77.905 E54.96515
G1 X160.801 Y78.946 E55.07623
G1 X160.685 Y80.254 E55.21599
G1 X160.62 Y80.883 E55.28329
G1 X160.471 Y81.875 E55.39006
G1 X160.342 Y82.461 E55.45392
G1 X160.134 Y83.288 E55.54468
G1 X159.604 Y85.233 E55.75924
G1 X159.281 Y86.231 E55.87089
G1 X158.983 Y87.021 E55.96075
G1 X158.485 Y88.288 E56.10564
G1 X157.642 Y90.625 E56.37006
G1 X156.867 Y92.98 E56.63393
G1 X156.137 Y95.428 E56.90582
G1 X155.493 Y97.838 E57.17132
G1 X154.905 Y100.314 E57.44218
G1 X154.407 Y102.72 E57.70368
G1 X153.959 Y105.234 E57.97547
G1 X153.586 Y107.726 E58.24365
G1 X153.292 Y110.172 E58.50586
G1 X153.06 Y112.7 E58.77605
G1 X152.904 Y115.167 E59.03914
G1 X152.814 Y117.723 E59.31135
G1 X152.797 Y120.223 E59.57744
G1 X152.852 Y122.761 E59.84763
G1 X152.975 Y125.226 E60.11031
G1 X153.172 Y127.76 E60.38083
G1 X153.434 Y130.207 E60.64276
G1 X153.779 Y132.75 E60.91589
G1 X154.181 Y135.194 E61.17951
G1 X154.651 Y137.632 E61.44377
G1 X155.258 Y140.26 E61.73084
G1 X155.49 Y141.309 E61.84518
G1 X155.688 Y142.538 E61.97767
G1 X155.793 Y143.571 E62.08819
G1 X155.943 Y145.398 E62.28329
G1 X155.978 Y146.371 E62.38692
G1 X155.951 Y147.077 E62.46211
G1 X155.876 Y148.121 E62.57352
G1 X155.772 Y149.299 E62.69938
G1 X155.694 Y150.061 E62.78091
G1 X155.562 Y150.963 E62.87793
G1 X155.419 Y151.614 E62.94887
G1 X155.202 Y152.48 E63.04389
G1 X154.68 Y154.398 E63.25545
G1 X154.381 Y155.325 E63.35912
G1 X154.108 Y155.992 E63.43583
G1 X153.757 Y156.777 E63.52735
G1 X152.897 Y158.599 E63.74179
G1 X152.441 Y159.46 E63.84548
G1 X152.057 Y160.067 E63.92193
G1 X151.468 Y160.934 E64.03349
G1 X150.802 Y161.885 E64.15706
G1 X150.346 Y162.516 E64.23992
G1 X149.781 Y163.231 E64.33691
G1 X149.329 Y163.728 E64.40841
G1 X148.58 Y164.498 E64.52274
G1 X147.323 Y165.742 E64.71096
G1 X146.621 Y166.378 E64.81178
G1 X146.026 Y166.843 E64.89215
G1 X145.339 Y167.342 E64.98253
G1 X144.139 Y168.182 E65.13843
G1 X143.59 Y168.554 E65.20901
G1 X142.734 Y169.079 E65.31589
G1 X142.221 Y169.347 E65.37749
G1 X141.443 Y169.727 E65.46964
G1 X139.591 Y170.58 E65.68666
G1 X138.747 Y170.925 E65.7837
G1 X138.018 Y171.16 E65.86522
G1 X136.926 Y171.469 E65.98601
G1 X135.209 Y171.917 E66.17487
G1 X134.256 Y172.12 E66.27858
G1 X133.557 Y172.214 E66.35364
G1 X132.537 Y172.318 E66.46277
G1 X131.491 Y172.41 E66.57453
G1 X130.597 Y172.476 E66.66993
G1 X129.685 Y172.503 E66.76704
G1 X129.015 Y172.476 E66.83841
G1 X128.012 Y172.403 E66.94545
G1 X126.922 Y172.308 E67.0619
G1 X126.018 Y172.215 E67.15862
G1 X125.434 Y172.139 E67.2213
G1 X124.508 Y171.992 E67.32109
G1 X121.956 Y171.623 E67.59553
G1 X119.456 Y171.333 E67.8634
G1 X116.949 Y171.114 E68.13124
G1 X114.449 Y170.968 E68.39777
G1 X111.929 Y170.89 E68.66611
G1 X109.422 Y170.884 E68.93294
G1 X106.936 Y170.95 E69.19762
G1 X104.397 Y171.087 E69.46825
G1 X101.899 Y171.293 E69.73502
G1 X99.403 Y171.572 E70.00233
G1 X96.967 Y171.913 E70.26412
G1 X93.513 Y172.514 E70.63727
G1 X92.518 Y172.706 E70.74512
G1 X91.547 Y172.849 E70.84958
G1 X90.498 Y172.955 E70.9618
G1 X88.678 Y173.105 E71.15616
G1 X87.704 Y173.141 E71.2599
G1 X86.998 Y173.114 E71.33509
G1 X85.863 Y173.032 E71.45621
G1 X84.132 Y172.87 E71.64125
G1 X83.135 Y172.73 E71.7484
G1 X82.452 Y172.582 E71.82278
G1 X81.38 Y172.311 E71.94047
G1 X79.66 Y171.84 E72.13027
G1 X78.735 Y171.54 E72.23377
G1 X78.066 Y171.266 E72.31071
G1 X77.31 Y170.927 E72.3989
G1 X76.017 Y170.325 E72.5507
G1 X75.375 Y170.014 E72.62662
G1 X74.522 Y169.552 E72.72987
G1 X74.007 Y169.224 E72.79486
G1 X73.115 Y168.617 E72.90969
G1 X71.636 Y167.569 E73.10262
G1 X70.867 Y166.97 E73.20636
G1 X70.34 Y166.49 E73.28223
G1 X69.597 Y165.768 E73.3925
G1 X68.332 Y164.49 E73.58388
G1 X67.656 Y163.742 E73.69119
G1 X67.225 Y163.186 E73.76606
G1 X66.554 Y162.256 E73.88812
G1 X65.552 Y160.804 E74.07588
G1 X65.036 Y159.979 E74.17945
G1 X64.715 Y159.367 E74.253
G1 X64.221 Y158.346 E74.37372
G1 X63.486 Y156.743 E74.56141
G1 X63.121 Y155.84 E74.66508
G1 X62.908 Y155.172 E74.7397
G1 X62.654 Y154.283 E74.8381
G1 X62.164 Y152.423 E75.04282
G1 X61.952 Y151.436 E75.15027
G1 X61.857 Y150.739 E75.22514
G1 X61.772 Y149.916 E75.3132
G1 X61.602 Y147.88 E75.53065
G1 X61.566 Y146.906 E75.63438
